; generated by PrusaSlicer 2.2.0+win64 on 2020-08-30 at 22:49:34 UTC

; 

; external perimeters extrusion width = 0.45mm
; perimeters extrusion width = 0.45mm
; infill extrusion width = 0.45mm
; solid infill extrusion width = 0.45mm
; top infill extrusion width = 0.40mm
; support material extrusion width = 0.35mm
; first layer extrusion width = 0.42mm

M107
M190 S50 ; set bed temperature and wait for it to be reached
M104 S210 ; set temperature
G28 ; home all axes
G1 Z5 F5000 ; lift nozzle
M109 S210 ; set temperature and wait for it to be reached
G21 ; set units to millimeters
G90 ; use absolute coordinates
M82 ; use absolute distances for extrusion
G92 E0
; Filament gcode
G1 Z0.350 F7800.000
G1 E-2.00000 F2400.00000
G92 E0
G1 X54.006 Y53.952 F7800.000
G1 E2.00000 F2400.00000
G1 F1800.000
G1 X54.950 Y53.134 E2.06267
G1 X56.036 Y52.517 E2.12534
G1 X57.227 Y52.123 E2.18833
G1 X58.467 Y51.971 E2.25100
G1 X141.387 Y51.969 E6.41241
G1 X142.587 Y52.084 E6.47291
G1 X143.743 Y52.423 E6.53341
G1 X144.815 Y52.975 E6.59390
G1 X145.763 Y53.720 E6.65440
G1 X146.553 Y54.631 E6.71490
G1 X147.156 Y55.674 E6.77539
G1 X147.550 Y56.807 E6.83558
G1 X147.724 Y58.000 E6.89607
G1 X147.730 Y139.752 E10.99891
G1 X147.599 Y140.913 E11.05754
G1 X147.257 Y142.030 E11.11617
G1 X146.716 Y143.066 E11.17480
G1 X145.994 Y143.984 E11.23343
G1 X145.241 Y144.662 E11.28428
G1 X144.389 Y145.211 E11.33513
G1 X133.109 Y150.907 E11.96929
G1 X131.767 Y151.378 E12.04066
G1 X130.354 Y151.538 E12.11203
G1 X69.028 Y151.507 E15.18972
G1 X67.887 Y151.288 E15.24804
G1 X66.800 Y150.862 E15.30667
G1 X55.592 Y145.046 E15.94034
G1 X54.892 Y144.606 E15.98185
G1 X54.255 Y144.078 E16.02336
G1 X53.415 Y143.104 E16.08789
G1 X52.791 Y141.987 E16.15212
G1 X52.402 Y140.761 E16.21666
G1 X52.268 Y139.482 E16.28119
G1 X52.270 Y58.184 E20.36125
G1 X52.401 Y57.023 E20.41988
G1 X52.743 Y55.906 E20.47851
G1 X53.284 Y54.870 E20.53715
G1 X53.969 Y53.999 E20.59277
G1 E18.59277 F2400.00000
G92 E0
G1 X63.584 Y63.616 F7800.000
G1 E2.00000 F2400.00000
G1 F1800.000
G1 X63.584 Y61.285 E2.09325
G1 X63.298 Y61.285 E2.10467
G1 X63.298 Y63.487 E2.19278
G1 X63.012 Y63.496 E2.20421
G1 X63.012 Y61.285 E2.29269
G1 X62.727 Y61.285 E2.30411
G1 X62.727 Y66.856 E2.52697
G1 X62.441 Y66.856 E2.53839
G1 X62.441 Y61.285 E2.76124
G1 X62.155 Y61.285 E2.77267
G1 X62.155 Y66.856 E2.99552
G1 X61.870 Y66.856 E3.00694
G1 X61.870 Y61.285 E3.22979
G1 X61.584 Y61.285 E3.24122
G1 X61.584 Y66.856 E3.46407
G1 X61.299 Y66.856 E3.47550
G1 X61.299 Y61.285 E3.69835
G1 X61.013 Y61.285 E3.70977
G1 X61.013 Y66.984 E3.93776
G1 X58.613 Y69.981 F7800.000
G1 F1800.000
G1 X58.613 Y58.314 E4.52329
G1 X59.303 Y58.314 E4.55790
G1 X59.303 Y69.826 E5.13563
G1 X59.993 Y69.826 E5.17025
G1 X59.993 Y58.314 E5.74798
G1 X60.683 Y58.314 E5.78260
G1 X60.683 Y69.981 E6.36812
G1 X62.752 Y69.981 F7800.000
G1 F1800.000
G1 X62.752 Y67.171 E6.50915
G1 X62.062 Y67.171 E6.54377
G1 X62.062 Y69.826 E6.67701
G1 X61.372 Y69.826 E6.71163
G1 X61.372 Y67.171 E6.84488
G1 X60.686 Y67.171 E6.87932
G1 X60.686 Y60.969 E7.19056
G1 X61.372 Y60.969 E7.22501
G1 X61.372 Y58.314 E7.35826
G1 X62.062 Y58.314 E7.39287
G1 X62.062 Y60.969 E7.52612
G1 X62.752 Y60.969 E7.56073
G1 X62.752 Y58.314 E7.69398
G1 X63.442 Y58.314 E7.72860
G1 X63.442 Y60.969 E7.86184
G1 X64.102 Y60.969 E7.89499
G1 X64.102 Y63.783 E8.03617
G1 X64.132 Y63.783 E8.03765
G1 X64.132 Y58.314 E8.31208
G1 X64.821 Y58.314 E8.34670
G1 X64.821 Y63.783 E8.62113
G1 X65.511 Y63.783 E8.65575
G1 X65.511 Y58.314 E8.93018
G1 X66.201 Y58.314 E8.96480
G1 X66.201 Y63.938 E9.24702
G1 E7.24702 F2400.00000
G92 E0
G1 X58.613 Y127.800 F7800.000
G1 E2.00000 F2400.00000
G1 F1800.000
G1 X58.613 Y139.467 E2.58552
G1 X59.303 Y139.467 E2.62014
G1 X59.303 Y127.955 E3.19787
G1 X59.993 Y127.955 E3.23249
G1 X59.993 Y139.622 E3.81801
G1 E1.81801 F2400.00000
G92 E0
G1 X61.013 Y136.625 F7800.000
G1 E2.00000 F2400.00000
G1 F1800.000
G1 X61.013 Y130.925 E2.22799
G1 X61.299 Y130.925 E2.23942
G1 X61.299 Y136.496 E2.46227
G1 X61.584 Y136.496 E2.47369
G1 X61.584 Y130.925 E2.69655
G1 X61.870 Y130.925 E2.70797
G1 X61.870 Y136.496 E2.93082
G1 X62.155 Y136.496 E2.94225
G1 X62.155 Y130.925 E3.16510
G1 X62.441 Y130.925 E3.17652
G1 X62.441 Y136.496 E3.39937
G1 X62.727 Y136.496 E3.41080
G1 X62.727 Y130.925 E3.63365
G1 X62.806 Y130.925 E3.63683
G1 X62.806 Y133.607 E3.74412
G1 X63.012 Y133.814 E3.75579
G1 X63.012 Y136.496 E3.86309
G1 X63.298 Y136.496 E3.87452
G1 X63.298 Y133.823 E3.98146
G1 X63.584 Y133.823 E3.99288
G1 X63.584 Y136.625 E4.10496
G1 X66.201 Y139.622 F7800.000
G1 F1800.000
G1 X66.201 Y133.528 E4.41081
G1 X65.511 Y133.528 E4.44543
G1 X65.511 Y139.467 E4.74348
G1 X64.821 Y139.467 E4.77810
G1 X64.821 Y133.528 E5.07616
G1 X64.132 Y133.528 E5.11078
G1 X64.132 Y139.467 E5.40883
G1 X63.442 Y139.467 E5.44345
G1 X63.442 Y136.812 E5.57670
G1 X62.752 Y136.812 E5.61131
G1 X62.752 Y139.467 E5.74456
G1 X62.062 Y139.467 E5.77917
G1 X62.062 Y136.812 E5.91242
G1 X61.372 Y136.812 E5.94704
G1 X61.372 Y139.467 E6.08028
G1 X60.683 Y139.467 E6.11490
G1 X60.683 Y127.955 E6.69263
G1 X61.372 Y127.955 E6.72725
G1 X61.372 Y130.610 E6.86049
G1 X62.062 Y130.610 E6.89511
G1 X62.062 Y127.955 E7.02835
G1 X62.752 Y127.955 E7.06297
G1 X62.752 Y130.765 E7.20400
G1 E5.20400 F2400.00000
G92 E0
G1 X69.650 Y145.193 F7800.000
G1 E2.00000 F2400.00000
G1 F1800.000
G1 X69.650 Y133.528 E2.58544
G1 X70.340 Y133.528 E2.62006
G1 X70.340 Y145.038 E3.19772
G1 X71.029 Y145.038 E3.23233
G1 X71.029 Y133.528 E3.80999
G1 X71.719 Y133.528 E3.84461
G1 X71.719 Y145.038 E4.42226
G1 X72.409 Y145.038 E4.45688
G1 X72.409 Y133.528 E5.03454
G1 X73.099 Y133.528 E5.06915
G1 X73.099 Y145.038 E5.64681
G1 X73.788 Y145.038 E5.68143
G1 X73.788 Y133.528 E6.25908
G1 X74.478 Y133.528 E6.29370
G1 X74.478 Y145.038 E6.87135
G1 X75.168 Y145.038 E6.90597
G1 X75.168 Y133.528 E7.48363
G1 X75.858 Y133.528 E7.51825
G1 X75.858 Y145.038 E8.09590
G1 X76.548 Y145.038 E8.13052
G1 X76.548 Y133.528 E8.70817
G1 X77.237 Y133.528 E8.74279
G1 X77.237 Y145.038 E9.32045
G1 X77.927 Y145.038 E9.35506
G1 X77.927 Y133.528 E9.93272
G1 X78.617 Y133.528 E9.96734
G1 X78.617 Y145.038 E10.54499
G1 X79.307 Y145.038 E10.57961
G1 X79.307 Y133.528 E11.15727
G1 X79.996 Y133.528 E11.19188
G1 X79.996 Y145.193 E11.77733
G1 E9.77733 F2400.00000
G92 E0
G1 X94.482 Y133.372 F7800.000
G1 E2.00000 F2400.00000
G1 F1800.000
G1 X94.482 Y145.038 E2.58544
G1 X95.172 Y145.038 E2.62006
G1 X95.172 Y133.528 E3.19772
G1 X95.861 Y133.528 E3.23233
G1 X95.861 Y145.038 E3.80999
G1 X96.551 Y145.038 E3.84461
G1 X96.551 Y133.528 E4.42226
G1 X97.241 Y133.528 E4.45688
G1 X97.241 Y145.038 E5.03454
G1 X97.931 Y145.038 E5.06915
G1 X97.931 Y133.528 E5.64681
G1 X98.620 Y133.528 E5.68143
G1 X98.620 Y145.038 E6.25908
G1 X99.310 Y145.038 E6.29370
G1 X99.310 Y133.528 E6.87135
G1 X100.000 Y133.528 E6.90597
G1 X100.000 Y145.038 E7.48363
G1 X100.690 Y145.038 E7.51825
G1 X100.690 Y133.528 E8.09590
G1 X101.380 Y133.528 E8.13052
G1 X101.380 Y145.038 E8.70817
G1 X102.069 Y145.038 E8.74279
G1 X102.069 Y133.528 E9.32045
G1 X102.759 Y133.528 E9.35506
G1 X102.759 Y145.038 E9.93272
G1 X103.449 Y145.038 E9.96734
G1 X103.449 Y133.528 E10.54499
G1 X104.139 Y133.528 E10.57961
G1 X104.139 Y145.038 E11.15727
G1 X104.828 Y145.038 E11.19188
G1 X104.828 Y133.528 E11.76954
G1 X105.518 Y133.528 E11.80416
G1 X105.518 Y145.193 E12.38960
G1 E10.38960 F2400.00000
G92 E0
G1 X120.004 Y145.193 F7800.000
G1 E2.00000 F2400.00000
G1 F1800.000
G1 X120.004 Y133.528 E2.58544
G1 X120.693 Y133.528 E2.62006
G1 X120.693 Y145.038 E3.19772
G1 X121.383 Y145.038 E3.23233
G1 X121.383 Y133.528 E3.80999
G1 X122.073 Y133.528 E3.84461
G1 X122.073 Y145.038 E4.42226
G1 X122.763 Y145.038 E4.45688
G1 X122.763 Y133.528 E5.03454
G1 X123.452 Y133.528 E5.06915
G1 X123.452 Y145.038 E5.64681
G1 X124.142 Y145.038 E5.68143
G1 X124.142 Y133.528 E6.25908
G1 X124.832 Y133.528 E6.29370
G1 X124.832 Y145.038 E6.87135
G1 X125.522 Y145.038 E6.90597
G1 X125.522 Y133.528 E7.48363
G1 X126.212 Y133.528 E7.51825
G1 X126.212 Y145.038 E8.09590
G1 X126.901 Y145.038 E8.13052
G1 X126.901 Y133.528 E8.70817
G1 X127.591 Y133.528 E8.74279
G1 X127.591 Y145.038 E9.32045
G1 X128.281 Y145.038 E9.35506
G1 X128.281 Y133.528 E9.93272
G1 X128.971 Y133.528 E9.96734
G1 X128.971 Y145.038 E10.54499
G1 X129.660 Y145.038 E10.57961
G1 X129.660 Y133.528 E11.15727
G1 X130.350 Y133.528 E11.19188
G1 X130.350 Y145.193 E11.77733
G1 E9.77733 F2400.00000
G92 E0
G1 X133.799 Y139.622 F7800.000
G1 E2.00000 F2400.00000
G1 F1800.000
G1 X133.799 Y133.528 E2.30585
G1 X134.489 Y133.528 E2.34046
G1 X134.489 Y139.467 E2.63852
G1 X135.179 Y139.467 E2.67314
G1 X135.179 Y133.528 E2.97120
G1 X135.868 Y133.528 E3.00581
G1 X135.868 Y139.467 E3.30387
G1 X136.558 Y139.467 E3.33849
G1 X136.558 Y136.812 E3.47173
G1 X137.248 Y136.812 E3.50635
G1 X137.248 Y139.467 E3.63960
G1 X137.938 Y139.467 E3.67421
G1 X137.938 Y136.812 E3.80746
G1 X138.628 Y136.812 E3.84208
G1 X138.628 Y139.467 E3.97532
G1 X139.317 Y139.467 E4.00994
G1 X139.317 Y127.955 E4.58767
G1 X140.007 Y127.955 E4.62229
G1 X140.007 Y139.467 E5.20002
G1 X140.697 Y139.467 E5.23463
G1 X140.697 Y127.955 E5.81237
G1 X141.387 Y127.955 E5.84698
G1 X141.387 Y139.622 E6.43250
G1 E4.43250 F2400.00000
G92 E0
G1 X138.987 Y136.625 F7800.000
G1 E2.00000 F2400.00000
G1 F1800.000
G1 X138.987 Y130.925 E2.22799
G1 X138.701 Y130.925 E2.23942
G1 X138.701 Y136.496 E2.46227
G1 X138.416 Y136.496 E2.47369
G1 X138.416 Y130.925 E2.69655
G1 X138.130 Y130.925 E2.70797
G1 X138.130 Y136.496 E2.93082
G1 X137.844 Y136.496 E2.94225
G1 X137.844 Y130.925 E3.16510
G1 X137.559 Y130.925 E3.17652
G1 X137.559 Y136.496 E3.39937
G1 X137.273 Y136.496 E3.41080
G1 X137.273 Y130.925 E3.63365
G1 X137.203 Y130.925 E3.63647
G1 X137.203 Y133.607 E3.74376
G1 X136.988 Y133.823 E3.75594
G1 X136.988 Y136.496 E3.86288
G1 X136.702 Y136.496 E3.87431
G1 X136.702 Y133.823 E3.98125
G1 X136.416 Y133.823 E3.99267
G1 X136.416 Y136.625 E4.10475
G1 X138.628 Y130.765 F7800.000
G1 F1800.000
G1 X138.628 Y127.955 E4.24579
G1 X137.938 Y127.955 E4.28040
G1 X137.938 Y130.610 E4.41365
G1 X137.248 Y130.610 E4.44826
G1 X137.248 Y127.800 E4.58930
G1 E2.58930 F2400.00000
G92 E0
G1 X141.387 Y69.981 F7800.000
G1 E2.00000 F2400.00000
G1 F1800.000
G1 X141.387 Y58.314 E2.58552
G1 X140.697 Y58.314 E2.62014
G1 X140.697 Y69.826 E3.19787
G1 X140.007 Y69.826 E3.23249
G1 X140.007 Y58.314 E3.81022
G1 X139.317 Y58.314 E3.84483
G1 X139.317 Y69.826 E4.42256
G1 X138.628 Y69.826 E4.45718
G1 X138.628 Y67.171 E4.59043
G1 X137.938 Y67.171 E4.62504
G1 X137.938 Y69.826 E4.75829
G1 X137.248 Y69.826 E4.79291
G1 X137.248 Y67.016 E4.93394
G1 X138.987 Y66.984 F7800.000
G1 F1800.000
G1 X138.987 Y61.285 E5.16193
G1 X138.701 Y61.285 E5.17336
G1 X138.701 Y66.856 E5.39621
G1 X138.416 Y66.856 E5.40763
G1 X138.416 Y61.285 E5.63048
G1 X138.130 Y61.285 E5.64191
G1 X138.130 Y66.856 E5.86476
G1 X137.844 Y66.856 E5.87619
G1 X137.844 Y61.285 E6.09904
G1 X137.559 Y61.285 E6.11046
G1 X137.559 Y66.856 E6.33331
G1 X137.273 Y66.856 E6.34474
G1 X137.273 Y61.285 E6.56759
G1 X136.988 Y61.285 E6.57901
G1 X136.988 Y63.488 E6.66713
G1 X136.702 Y63.487 E6.67856
G1 X136.702 Y61.285 E6.76667
G1 X136.416 Y61.285 E6.77809
G1 X136.416 Y63.616 E6.87134
G1 X133.799 Y63.938 F7800.000
G1 F1800.000
G1 X133.799 Y58.314 E7.15356
G1 X134.489 Y58.314 E7.18818
G1 X134.489 Y63.783 E7.46261
G1 X135.179 Y63.783 E7.49723
G1 X135.179 Y58.314 E7.77166
G1 X135.868 Y58.314 E7.80628
G1 X135.868 Y63.783 E8.08071
G1 X135.898 Y63.783 E8.08218
G1 X135.898 Y60.969 E8.22337
G1 X136.558 Y60.969 E8.25652
G1 X136.558 Y58.314 E8.38976
G1 X137.248 Y58.314 E8.42438
G1 X137.248 Y60.969 E8.55762
G1 X137.938 Y60.969 E8.59224
G1 X137.938 Y58.314 E8.72549
G1 X138.628 Y58.314 E8.76010
G1 X138.628 Y61.125 E8.90114
G1 E6.90114 F2400.00000
G92 E0
G1 X135.410 Y132.030 F7800.000
G1 E2.00000 F2400.00000
G1 F1800.000
G1 X64.599 Y132.030 E5.55374
G1 X64.599 Y65.280 E8.90368
G1 X135.410 Y65.280 E12.45742
G1 X135.410 Y131.970 E15.80434
G1 X135.755 Y132.375 F7800.000
G1 F1800.000
G1 X64.254 Y132.375 E19.39270
G1 X64.254 Y64.935 E22.77725
G1 X135.755 Y64.935 E26.36562
G1 X135.755 Y132.315 E29.74715
G1 X136.100 Y132.720 F7800.000
G1 F1800.000
G1 X63.909 Y132.720 E33.37013
G1 X63.909 Y64.590 E36.78930
G1 X136.100 Y64.590 E40.41228
G1 X136.100 Y132.660 E43.82843
G1 X135.713 Y132.620 F7800.000
G1 E41.82843 F2400.00000
G92 E0
G1 X64.702 Y131.229 F7800.000
G1 E2.00000 F2400.00000
G1 F1800.000
G1 X65.245 Y131.772 E2.03858
G1 X65.733 Y131.772 E2.06311
G1 X64.857 Y130.896 E2.12536
G1 X64.857 Y130.407 E2.14990
G1 X66.222 Y131.772 E2.24685
G1 X66.710 Y131.772 E2.27138
G1 X64.857 Y129.919 E2.40303
G1 X64.857 Y129.431 E2.42756
G1 X67.198 Y131.772 E2.59391
G1 X67.687 Y131.772 E2.61844
G1 X64.857 Y128.942 E2.81948
G1 X64.857 Y128.454 E2.84402
G1 X68.175 Y131.772 E3.07976
G1 X68.663 Y131.772 E3.10429
G1 X64.857 Y127.966 E3.37473
G1 X64.857 Y127.477 E3.39927
G1 X69.152 Y131.772 E3.70440
G1 X69.640 Y131.772 E3.72894
G1 X64.857 Y126.989 E4.06877
G1 X64.857 Y126.501 E4.09331
G1 X70.128 Y131.772 E4.46784
G1 X70.616 Y131.772 E4.49237
G1 X64.857 Y126.012 E4.90160
G1 X64.857 Y125.524 E4.92614
G1 X71.105 Y131.772 E5.37007
G1 X71.593 Y131.772 E5.39460
G1 X64.857 Y125.036 E5.87323
G1 X64.857 Y124.547 E5.89776
G1 X72.081 Y131.772 E6.41109
G1 X72.570 Y131.772 E6.43562
G1 X64.857 Y124.059 E6.98365
G1 X64.857 Y123.571 E7.00818
G1 X73.058 Y131.772 E7.59090
G1 X73.546 Y131.772 E7.61544
G1 X64.857 Y123.082 E8.23286
G1 X64.857 Y122.594 E8.25739
G1 X74.035 Y131.772 E8.90951
G1 X74.523 Y131.772 E8.93404
G1 X64.857 Y122.106 E9.62086
G1 X64.857 Y121.618 E9.64539
G1 X75.011 Y131.772 E10.36690
G1 X75.500 Y131.772 E10.39144
G1 X64.857 Y121.129 E11.14765
G1 X64.857 Y120.641 E11.17219
G1 X75.988 Y131.772 E11.96309
G1 X76.476 Y131.772 E11.98763
G1 X64.857 Y120.153 E12.81324
G1 X64.857 Y119.664 E12.83777
G1 X76.965 Y131.772 E13.69808
G1 X77.453 Y131.772 E13.72261
G1 X64.857 Y119.176 E14.61761
G1 X64.857 Y118.688 E14.64215
G1 X77.941 Y131.772 E15.57185
G1 X78.430 Y131.772 E15.59639
G1 X64.857 Y118.199 E16.56078
G1 X64.857 Y117.711 E16.58532
G1 X78.918 Y131.772 E17.58442
G1 X79.406 Y131.772 E17.60895
G1 X64.857 Y117.223 E18.64275
G1 X64.857 Y116.734 E18.66728
G1 X79.895 Y131.772 E19.73578
G1 X80.383 Y131.772 E19.76031
G1 X64.857 Y116.246 E20.86350
G1 X64.857 Y115.758 E20.88804
G1 X80.871 Y131.772 E22.02593
G1 X81.359 Y131.772 E22.05046
G1 X64.857 Y115.269 E23.22305
G1 X64.857 Y114.781 E23.24758
G1 X81.848 Y131.772 E24.45487
G1 X82.336 Y131.772 E24.47940
G1 X64.857 Y114.293 E25.72139
G1 X64.857 Y113.804 E25.74592
G1 X82.824 Y131.772 E27.02260
G1 X83.313 Y131.772 E27.04714
G1 X64.857 Y113.316 E28.35852
G1 X64.857 Y112.828 E28.38305
G1 X83.801 Y131.772 E29.72913
G1 X84.289 Y131.772 E29.75367
G1 X64.857 Y112.340 E31.13444
G1 X64.857 Y111.851 E31.15898
G1 X84.778 Y131.772 E32.57445
G1 X85.266 Y131.772 E32.59899
G1 X64.857 Y111.363 E34.04916
G1 X64.857 Y110.875 E34.07369
G1 X85.754 Y131.772 E35.55856
G1 X86.243 Y131.772 E35.58310
G1 X64.857 Y110.386 E37.10267
G1 X64.857 Y109.898 E37.12720
G1 X86.731 Y131.772 E38.68147
G1 X87.219 Y131.772 E38.70600
G1 X64.857 Y109.410 E40.29497
G1 X64.857 Y108.921 E40.31950
G1 X87.708 Y131.772 E41.94316
G1 X88.196 Y131.772 E41.96770
G1 X64.857 Y108.433 E43.62606
G1 X64.857 Y107.945 E43.65059
G1 X88.684 Y131.772 E45.34365
G1 X89.173 Y131.772 E45.36819
G1 X64.857 Y107.456 E47.09594
G1 X64.857 Y106.968 E47.12048
G1 X89.661 Y131.772 E48.88293
G1 X90.149 Y131.772 E48.90747
G1 X64.857 Y106.480 E50.70462
G1 X64.857 Y105.991 E50.72915
G1 X90.637 Y131.772 E52.56100
G1 X91.126 Y131.772 E52.58554
G1 X64.857 Y105.503 E54.45209
G1 X64.857 Y105.015 E54.47662
G1 X91.614 Y131.772 E56.37787
G1 X92.102 Y131.772 E56.40241
G1 X64.857 Y104.526 E58.33835
G1 X64.857 Y104.038 E58.36288
G1 X92.591 Y131.772 E60.33353
G1 X93.079 Y131.772 E60.35806
G1 X64.857 Y103.550 E62.36340
G1 X64.857 Y103.062 E62.38794
G1 X93.567 Y131.772 E64.42798
G1 X94.056 Y131.772 E64.45251
G1 X64.857 Y102.573 E66.52725
G1 X64.857 Y102.085 E66.55178
G1 X94.544 Y131.772 E68.66122
G1 X95.032 Y131.772 E68.68575
G1 X64.857 Y101.597 E70.82989
G1 X64.857 Y101.108 E70.85442
