; generated by PrusaSlicer 2.2.0+win64 on 2020-08-31 at 20:09:06 UTC

; 

; external perimeters extrusion width = 0.45mm
; perimeters extrusion width = 0.45mm
; infill extrusion width = 0.45mm
; solid infill extrusion width = 0.45mm
; top infill extrusion width = 0.40mm
; first layer extrusion width = 0.42mm

M107
M190 S50 ; set bed temperature and wait for it to be reached
M104 S210 ; set temperature
G28 ; home all axes
G1 Z5 F5000 ; lift nozzle
M109 S210 ; set temperature and wait for it to be reached
G21 ; set units to millimeters
G90 ; use absolute coordinates
M82 ; use absolute distances for extrusion
G92 E0
; Filament gcode
G1 Z0.350 F7800.000
G1 E-2.00000 F2400.00000
G92 E0
G1 X39.629 Y32.723 F7800.000
G1 E2.00000 F2400.00000
G1 F1800.000
G1 X39.850 Y31.651 E2.05490
G1 X40.251 Y30.634 E2.10980
G1 X40.818 Y29.705 E2.16438
G1 X41.539 Y28.883 E2.21928
G1 X42.386 Y28.200 E2.27387
G1 X43.342 Y27.669 E2.32877
G1 X44.375 Y27.310 E2.38366
G1 X45.455 Y27.135 E2.43856
G1 X113.935 Y27.117 E5.87529
G1 X115.226 Y27.251 E5.94045
G1 X116.463 Y27.645 E6.00560
G1 X117.594 Y28.283 E6.07076
G1 X118.572 Y29.137 E6.13592
G1 X142.900 Y57.528 E8.01229
G1 X143.519 Y58.395 E8.06576
G1 X144.029 Y59.404 E8.12248
G1 X146.752 Y66.359 E8.49735
G1 X149.244 Y73.401 E8.87222
G1 X153.204 Y86.525 E9.56019
G1 X156.170 Y99.126 E10.20987
G1 X158.129 Y110.578 E10.79297
G1 X158.780 Y115.931 E11.06359
G1 X159.215 Y120.940 E11.31590
G1 X159.449 Y125.667 E11.55341
G1 X159.485 Y130.063 E11.77405
G1 X159.327 Y134.170 E11.98033
G1 X158.976 Y137.993 E12.17300
G1 X158.443 Y141.500 E12.35102
G1 X158.121 Y143.104 E12.43313
G1 X157.182 Y146.725 E12.62085
G1 X156.203 Y149.561 E12.77141
G1 X155.551 Y151.134 E12.85687
G1 X154.783 Y152.753 E12.94680
G1 X153.440 Y155.171 E13.08560
G1 X152.575 Y156.509 E13.16557
G1 X150.968 Y158.668 E13.30063
G1 X149.965 Y159.838 E13.37797
G1 X148.164 Y161.680 E13.50726
G1 X147.032 Y162.691 E13.58343
G1 X145.029 Y164.251 E13.71084
G1 X143.074 Y165.523 E13.82789
G1 X141.614 Y166.343 E13.91195
G1 X139.026 Y167.538 E14.05500
G1 X135.726 Y168.672 E14.23013
G1 X133.144 Y169.286 E14.36331
G1 X129.505 Y169.802 E14.54775
G1 X125.955 Y169.960 E14.72611
G1 X97.143 Y169.913 E16.17205
G1 X96.360 Y169.771 E16.21200
G1 X95.595 Y169.529 E16.25226
G1 X94.866 Y169.193 E16.29252
G1 X94.186 Y168.768 E16.33278
G1 X93.565 Y168.260 E16.37304
G1 X93.017 Y167.683 E16.41299
G1 X92.542 Y167.037 E16.45326
G1 X92.152 Y166.335 E16.49352
G1 X40.080 Y49.915 E22.89398
G1 X39.728 Y48.795 E22.95293
G1 X39.588 Y47.628 E23.01187
G1 X39.629 Y32.783 E23.75692
G1 E21.75692 F2400.00000
G92 E0
G1 X112.831 Y160.565 F7800.000
G1 E2.00000 F2400.00000
G1 F1800.000
G1 X125.946 Y160.562 E2.65820
G1 X127.788 Y160.507 E2.75066
G1 X128.716 Y160.437 E2.79735
G1 X129.625 Y160.337 E2.84328
G1 X130.525 Y160.208 E2.88889
G1 X131.414 Y160.048 E2.93421
G1 X132.291 Y159.856 E2.97929
G1 X133.157 Y159.632 E3.02417
G1 X134.010 Y159.375 E3.06889
G1 X134.851 Y159.085 E3.11351
G1 X135.677 Y158.760 E3.15809
G1 X136.489 Y158.399 E3.20268
G1 X137.286 Y158.004 E3.24733
G1 X138.068 Y157.571 E3.29218
G1 X138.833 Y157.102 E3.33721
G1 X139.581 Y156.595 E3.38253
G1 X140.310 Y156.050 E3.42822
G1 X141.021 Y155.468 E3.47435
G1 X141.713 Y154.847 E3.52099
G1 X142.384 Y154.187 E3.56823
G1 X143.036 Y153.488 E3.61620
G1 X143.668 Y152.748 E3.66503
G1 X144.277 Y151.965 E3.71483
G1 X144.864 Y151.137 E3.76576
G1 X145.427 Y150.263 E3.81797
G1 X145.965 Y149.338 E3.87163
G1 X146.476 Y148.362 E3.92693
G1 X146.957 Y147.332 E3.98398
G1 X147.409 Y146.247 E4.04299
G1 X147.830 Y145.103 E4.10415
G1 X148.219 Y143.899 E4.16766
G1 X148.575 Y142.632 E4.23369
G1 X148.896 Y141.300 E4.30245
G1 X149.183 Y139.892 E4.37457
G1 X149.642 Y136.889 E4.52702
G1 X149.947 Y133.575 E4.69406
G1 X150.088 Y129.937 E4.87679
G1 X150.056 Y125.954 E5.07666
G1 X149.841 Y121.617 E5.29461
G1 X149.433 Y116.921 E5.53117
G1 X148.821 Y111.879 E5.78603
G1 X146.949 Y100.934 E6.34333
G1 X144.133 Y88.980 E6.95967
G1 X140.291 Y76.257 E7.62664
G1 X137.953 Y69.662 E7.97781
G1 X135.393 Y63.109 E8.33088
G1 X135.597 Y62.965 E8.34341
G1 X135.747 Y62.896 E8.35171
G1 X136.876 Y62.428 E8.41303
G1 X137.052 Y62.375 E8.42227
G1 X137.192 Y62.360 E8.42934
G1 X139.776 Y68.958 E8.78498
G1 X142.131 Y75.599 E9.13856
G1 X146.015 Y88.458 E9.81274
G1 X148.859 Y100.532 E10.43527
G1 X150.757 Y111.618 E10.99969
G1 X151.375 Y116.705 E11.25689
G1 X151.789 Y121.471 E11.49695
G1 X152.008 Y125.885 E11.71878
G1 X152.041 Y129.955 E11.92304
G1 X151.897 Y133.693 E12.11076
G1 X151.582 Y137.118 E12.28336
G1 X151.077 Y140.389 E12.44946
G1 X150.805 Y141.717 E12.51752
G1 X150.467 Y143.119 E12.58989
G1 X150.091 Y144.458 E12.65966
G1 X149.678 Y145.736 E12.72708
G1 X149.229 Y146.957 E12.79237
G1 X148.745 Y148.117 E12.85544
G1 X148.178 Y149.319 E12.92213
G1 X147.675 Y150.278 E12.97651
G1 X147.092 Y151.281 E13.03473
G1 X146.481 Y152.232 E13.09146
G1 X145.845 Y153.130 E13.14668
G1 X145.183 Y153.981 E13.20077
G1 X144.498 Y154.785 E13.25380
G1 X143.912 Y155.413 E13.29691
G1 X142.984 Y156.331 E13.36239
G1 X142.296 Y156.948 E13.40879
G1 X141.515 Y157.587 E13.45941
G1 X140.643 Y158.235 E13.51395
G1 X139.895 Y158.740 E13.55924
G1 X139.054 Y159.255 E13.60874
G1 X138.194 Y159.730 E13.65802
G1 X137.322 Y160.163 E13.70688
G1 X136.432 Y160.558 E13.75574
G1 X135.449 Y160.943 E13.80875
G1 X134.612 Y161.233 E13.85318
G1 X133.683 Y161.513 E13.90191
G1 X132.743 Y161.757 E13.95062
G1 X131.797 Y161.964 E13.99925
G1 X130.838 Y162.137 E14.04814
G1 X129.871 Y162.276 E14.09715
G1 X128.897 Y162.382 E14.14636
G1 X127.922 Y162.456 E14.19539
G1 X125.914 Y162.515 E14.29623
G1 X98.983 Y162.512 E15.64780
G1 X98.982 Y158.879 E15.83013
G1 X100.016 Y157.711 E15.90838
G1 X100.283 Y157.788 E15.92231
G1 X100.283 Y159.061 E15.98620
G1 X101.330 Y159.061 E16.03878
G1 X101.330 Y162.061 E16.18934
G1 X105.852 Y162.061 E16.41628
G1 X105.852 Y154.773 E16.78203
G1 X112.369 Y146.105 E17.32628
G1 X112.369 Y41.318 E22.58515
G1 X107.592 Y39.842 E22.83607
G1 X105.125 Y35.362 E23.09276
G1 X97.320 Y35.362 E23.48445
G1 X96.673 Y36.248 E23.53954
G1 X96.292 Y36.640 E23.56696
G1 X95.664 Y37.147 E23.60748
G1 X95.209 Y37.449 E23.63488
G1 X94.583 Y37.805 E23.67099
G1 X93.578 Y38.288 E23.72695
G1 X92.905 Y38.563 E23.76345
G1 X92.032 Y38.876 E23.80999
G1 X91.385 Y39.084 E23.84410
G1 X90.342 Y39.376 E23.89844
G1 X89.037 Y39.683 E23.96575
G1 X87.817 Y39.927 E24.02818
G1 X85.870 Y40.222 E24.12700
G1 X84.742 Y40.353 E24.18398
G1 X83.556 Y40.458 E24.24378
G1 X82.110 Y40.542 E24.31642
G1 X80.370 Y40.589 E24.40378
G1 X78.619 Y40.573 E24.49169
G1 X76.873 Y40.494 E24.57939
G1 X75.740 Y40.412 E24.63642
G1 X73.989 Y40.222 E24.72481
G1 X72.044 Y39.927 E24.82354
G1 X70.821 Y39.683 E24.88611
G1 X69.516 Y39.376 E24.95340
G1 X68.470 Y39.083 E25.00788
G1 X66.956 Y38.564 E25.08824
G1 X66.281 Y38.288 E25.12480
G1 X65.276 Y37.805 E25.18078
G1 X64.651 Y37.449 E25.21688
G1 X64.196 Y37.147 E25.24427
G1 X63.568 Y36.640 E25.28480
G1 X63.187 Y36.248 E25.31222
G1 X62.540 Y35.362 E25.36731
G1 X54.735 Y35.362 E25.75900
G1 X52.268 Y39.842 E26.01569
G1 X47.491 Y41.318 E26.26660
G1 X47.491 Y46.362 E26.51975
G1 X47.031 Y46.362 E26.54282
G1 X47.031 Y34.561 E27.13504
G1 X112.829 Y34.561 E30.43718
G1 X112.831 Y160.505 E36.75777
G1 X113.176 Y160.220 F7800.000
G1 F1800.000
G1 X125.941 Y160.217 E37.39840
G1 X127.770 Y160.163 E37.49021
G1 X128.684 Y160.093 E37.53622
G1 X129.582 Y159.995 E37.58156
G1 X130.470 Y159.868 E37.62657
G1 X131.346 Y159.710 E37.67127
G1 X132.211 Y159.521 E37.71570
G1 X133.064 Y159.300 E37.75991
G1 X133.904 Y159.047 E37.80394
G1 X134.731 Y158.761 E37.84785
G1 X135.544 Y158.441 E37.89170
G1 X136.343 Y158.087 E37.93554
G1 X137.126 Y157.698 E37.97943
G1 X137.894 Y157.273 E38.02350
G1 X138.646 Y156.812 E38.06775
G1 X139.381 Y156.314 E38.11229
G1 X140.098 Y155.779 E38.15719
G1 X140.796 Y155.206 E38.20253
G1 X141.476 Y154.595 E38.24840
G1 X142.137 Y153.947 E38.29488
G1 X142.779 Y153.259 E38.34208
G1 X143.400 Y152.530 E38.39013
G1 X144.000 Y151.759 E38.43917
G1 X144.578 Y150.944 E38.48932
G1 X145.133 Y150.083 E38.54075
G1 X145.663 Y149.172 E38.59363
G1 X146.166 Y148.209 E38.64815
G1 X146.642 Y147.193 E38.70445
G1 X147.088 Y146.121 E38.76273
G1 X147.504 Y144.990 E38.82318
G1 X147.889 Y143.799 E38.88600
G1 X148.241 Y142.545 E38.95137
G1 X148.559 Y141.225 E39.01951
G1 X148.844 Y139.832 E39.09090
G1 X149.300 Y136.847 E39.24240
G1 X149.603 Y133.552 E39.40846
G1 X149.743 Y129.931 E39.59032
G1 X149.711 Y125.964 E39.78943
G1 X149.497 Y121.640 E40.00670
G1 X149.090 Y116.956 E40.24264
G1 X148.480 Y111.929 E40.49679
G1 X146.611 Y101.002 E41.05313
G1 X143.800 Y89.069 E41.66839
G1 X139.963 Y76.365 E42.33442
G1 X137.630 Y69.782 E42.68490
G1 X135.015 Y63.090 E43.04551
G1 X135.051 Y62.979 E43.05136
G1 X135.103 Y62.905 E43.05589
G1 X135.256 Y62.769 E43.06614
G1 X135.434 Y62.661 E43.07663
G1 X136.760 Y62.103 E43.14881
G1 X136.983 Y62.036 E43.16050
G1 X137.227 Y62.009 E43.17284
G1 X137.389 Y62.038 E43.18108
G1 X137.467 Y62.115 E43.18658
G1 X140.099 Y68.838 E43.54890
G1 X142.458 Y75.491 E43.90317
G1 X146.348 Y88.369 E44.57829
G1 X149.198 Y100.464 E45.20189
G1 X151.099 Y111.568 E45.76727
G1 X151.718 Y116.669 E46.02519
G1 X152.133 Y121.447 E46.26587
G1 X152.352 Y125.875 E46.48838
G1 X152.386 Y129.961 E46.69340
G1 X152.241 Y133.716 E46.88199
G1 X151.925 Y137.160 E47.05558
G1 X151.417 Y140.450 E47.22264
G1 X151.142 Y141.792 E47.29142
G1 X150.800 Y143.206 E47.36440
G1 X150.421 Y144.557 E47.43483
G1 X150.004 Y145.849 E47.50293
G1 X149.550 Y147.083 E47.56894
G1 X149.060 Y148.257 E47.63277
G1 X148.487 Y149.472 E47.70022
G1 X147.977 Y150.445 E47.75535
G1 X147.386 Y151.461 E47.81432
G1 X146.767 Y152.425 E47.87184
G1 X146.122 Y153.336 E47.92783
G1 X145.451 Y154.199 E47.98269
G1 X144.755 Y155.015 E48.03651
G1 X144.159 Y155.654 E48.08035
G1 X143.221 Y156.582 E48.14660
G1 X142.520 Y157.210 E48.19382
G1 X141.727 Y157.859 E48.24523
G1 X140.842 Y158.516 E48.30057
G1 X140.081 Y159.030 E48.34664
G1 X139.227 Y159.553 E48.39690
G1 X138.354 Y160.035 E48.44695
G1 X137.469 Y160.475 E48.49656
G1 X136.565 Y160.876 E48.54619
G1 X135.568 Y161.267 E48.59992
G1 X134.719 Y161.561 E48.64505
G1 X133.776 Y161.846 E48.69447
G1 X132.823 Y162.093 E48.74385
G1 X131.864 Y162.303 E48.79313
G1 X130.893 Y162.478 E48.84265
G1 X129.915 Y162.618 E48.89227
G1 X128.928 Y162.726 E48.94206
G1 X127.941 Y162.801 E48.99177
G1 X125.919 Y162.860 E49.09327
G1 X98.638 Y162.857 E50.46240
G1 X98.637 Y158.748 E50.66859
G1 X99.902 Y157.320 E50.76433
G1 X100.627 Y157.529 E50.80222
G1 X100.627 Y158.716 E50.86184
G1 X101.675 Y158.716 E50.91441
G1 X101.675 Y161.716 E51.06497
G1 X105.507 Y161.716 E51.25730
G1 X105.507 Y154.658 E51.61152
G1 X112.024 Y145.990 E52.15577
G1 X112.024 Y41.572 E57.39609
G1 X107.357 Y40.130 E57.64123
G1 X104.921 Y35.707 E57.89468
G1 X97.495 Y35.707 E58.26735
G1 X96.937 Y36.471 E58.31487
G1 X96.525 Y36.895 E58.34455
G1 X95.868 Y37.426 E58.38693
G1 X95.389 Y37.743 E58.41573
G1 X94.744 Y38.111 E58.45302
G1 X93.719 Y38.604 E58.51011
G1 X93.029 Y38.885 E58.54751
G1 X92.143 Y39.202 E58.59471
G1 X91.485 Y39.415 E58.62943
G1 X90.428 Y39.710 E58.68447
G1 X89.110 Y40.021 E58.75244
G1 X87.877 Y40.266 E58.81557
G1 X85.916 Y40.564 E58.91509
G1 X84.777 Y40.696 E58.97261
G1 X83.581 Y40.802 E59.03290
G1 X82.125 Y40.887 E59.10608
G1 X80.374 Y40.934 E59.19401
G1 X78.610 Y40.918 E59.28255
G1 X76.853 Y40.839 E59.37080
G1 X75.709 Y40.755 E59.42837
G1 X73.944 Y40.564 E59.51744
G1 X71.984 Y40.266 E59.61694
G1 X70.748 Y40.020 E59.68021
G1 X69.430 Y39.710 E59.74815
G1 X68.371 Y39.414 E59.80334
G1 X67.712 Y39.201 E59.83808
G1 X66.832 Y38.886 E59.88498
G1 X66.141 Y38.604 E59.92244
G1 X65.116 Y38.110 E59.97954
G1 X64.470 Y37.743 E60.01683
G1 X63.992 Y37.426 E60.04562
G1 X63.335 Y36.895 E60.08800
G1 X62.923 Y36.471 E60.11768
G1 X62.364 Y35.707 E60.16520
G1 X54.939 Y35.707 E60.53787
G1 X52.503 Y40.130 E60.79132
G1 X47.835 Y41.572 E61.03646
G1 X47.835 Y46.707 E61.29414
G1 X46.686 Y46.707 E61.35183
G1 X46.686 Y34.216 E61.97867
G1 X113.174 Y34.216 E65.31543
G1 X113.176 Y160.160 E71.63601
G1 X113.521 Y159.875 F7800.000
G1 F1800.000
G1 X125.936 Y159.872 E72.25908
G1 X127.752 Y159.818 E72.35023
G1 X128.652 Y159.750 E72.39555
G1 X129.539 Y159.653 E72.44032
G1 X130.415 Y159.527 E72.48472
G1 X131.279 Y159.371 E72.52880
G1 X132.131 Y159.185 E72.57258
G1 X132.971 Y158.968 E72.61612
G1 X133.798 Y158.719 E72.65946
G1 X134.612 Y158.438 E72.70265
G1 X135.411 Y158.123 E72.74577
G1 X136.196 Y157.775 E72.78887
G1 X136.966 Y157.393 E72.83200
G1 X137.721 Y156.975 E72.87529
G1 X138.459 Y156.522 E72.91876
G1 X139.181 Y156.033 E72.96251
G1 X139.885 Y155.507 E73.00663
G1 X140.572 Y154.944 E73.05119
G1 X141.240 Y154.344 E73.09628
G1 X141.890 Y153.706 E73.14199
G1 X142.521 Y153.029 E73.18843
G1 X143.133 Y152.312 E73.23571
G1 X143.724 Y151.554 E73.28397
G1 X144.293 Y150.751 E73.33335
G1 X144.839 Y149.902 E73.38400
G1 X145.361 Y149.005 E73.43610
G1 X145.857 Y148.056 E73.48985
G1 X146.326 Y147.053 E73.54539
G1 X146.767 Y145.995 E73.60294
G1 X147.178 Y144.878 E73.66268
G1 X147.559 Y143.700 E73.72481
G1 X147.907 Y142.458 E73.78953
G1 X148.223 Y141.150 E73.85704
G1 X148.504 Y139.771 E73.92769
G1 X148.957 Y136.806 E74.07824
G1 X149.259 Y133.530 E74.24333
G1 X149.399 Y129.926 E74.42433
G1 X149.366 Y125.974 E74.62267
G1 X149.152 Y121.664 E74.83926
G1 X148.747 Y116.992 E75.07459
G1 X148.139 Y111.979 E75.32802
G1 X146.273 Y101.071 E75.88340
G1 X143.467 Y89.159 E76.49759
G1 X139.635 Y76.472 E77.16267
G1 X137.307 Y69.903 E77.51247
G1 X134.675 Y63.169 E77.87530
G1 X134.671 Y63.030 E77.88228
G1 X134.740 Y62.822 E77.89325
G1 X134.844 Y62.674 E77.90236
G1 X135.049 Y62.491 E77.91615
G1 X135.272 Y62.356 E77.92920
G1 X135.470 Y62.264 E77.94018
G1 X136.644 Y61.777 E78.00396
G1 X136.914 Y61.697 E78.01809
G1 X137.220 Y61.662 E78.03354
G1 X137.333 Y61.670 E78.03921
G1 X137.569 Y61.743 E78.05162
G1 X137.676 Y61.818 E78.05819
G1 X137.778 Y61.963 E78.06706
G1 X140.422 Y68.717 E78.43108
G1 X142.786 Y75.383 E78.78605
G1 X146.681 Y88.279 E79.46212
G1 X149.536 Y100.395 E80.08679
G1 X151.440 Y111.518 E80.65312
G1 X152.061 Y116.634 E80.91176
G1 X152.477 Y121.424 E81.15306
G1 X152.697 Y125.866 E81.37625
G1 X152.731 Y129.966 E81.58203
G1 X152.586 Y133.738 E81.77148
G1 X152.267 Y137.202 E81.94606
G1 X151.756 Y140.511 E82.11408
G1 X151.478 Y141.867 E82.18358
G1 X151.134 Y143.293 E82.25719
G1 X150.751 Y144.657 E82.32827
G1 X150.330 Y145.961 E82.39706
G1 X149.871 Y147.209 E82.46378
G1 X149.375 Y148.397 E82.52837
G1 X148.796 Y149.626 E82.59658
G1 X148.279 Y150.612 E82.65245
G1 X147.680 Y151.641 E82.71219
G1 X147.053 Y152.618 E82.77048
G1 X146.399 Y153.541 E82.82725
G1 X145.718 Y154.416 E82.88289
G1 X145.013 Y155.244 E82.93748
G1 X144.407 Y155.894 E82.98206
G1 X143.457 Y156.833 E83.04909
G1 X142.745 Y157.472 E83.09711
G1 X141.940 Y158.131 E83.14932
G1 X141.041 Y158.798 E83.20546
G1 X140.268 Y159.320 E83.25230
G1 X139.401 Y159.851 E83.30334
G1 X138.515 Y160.341 E83.35414
G1 X137.616 Y160.787 E83.40452
G1 X136.698 Y161.194 E83.45490
G1 X135.688 Y161.590 E83.50937
G1 X134.825 Y161.889 E83.55518
G1 X133.869 Y162.178 E83.60529
G1 X132.904 Y162.428 E83.65535
G1 X131.932 Y162.641 E83.70528
G1 X130.948 Y162.818 E83.75543
G1 X129.958 Y162.961 E83.80565
G1 X128.960 Y163.069 E83.85602
G1 X127.959 Y163.145 E83.90642
G1 X125.924 Y163.205 E84.00857
G1 X98.293 Y163.201 E85.39527
G1 X98.293 Y158.617 E85.62533
G1 X99.788 Y156.928 E85.73856
G1 X100.972 Y157.269 E85.80041
G1 X100.972 Y158.372 E85.85574
G1 X102.020 Y158.372 E85.90831
G1 X102.020 Y161.372 E86.05887
G1 X105.162 Y161.372 E86.21658
G1 X105.162 Y154.543 E86.55928
G1 X111.680 Y145.875 E87.10353
G1 X111.680 Y41.826 E92.32530
G1 X107.122 Y40.419 E92.56466
G1 X104.717 Y36.052 E92.81488
G1 X97.671 Y36.052 E93.16852
G1 X97.201 Y36.694 E93.20847
G1 X96.757 Y37.151 E93.24041
G1 X96.072 Y37.704 E93.28464
G1 X95.570 Y38.037 E93.31484
G1 X94.904 Y38.416 E93.35332
G1 X93.859 Y38.919 E93.41153
G1 X93.152 Y39.208 E93.44984
G1 X92.254 Y39.529 E93.49769
G1 X91.584 Y39.745 E93.53303
G1 X90.514 Y40.044 E93.58877
G1 X89.183 Y40.358 E93.65740
G1 X87.936 Y40.606 E93.72122
