; generated by PrusaSlicer 2.2.0+win64 on 2020-08-30 at 02:55:48 UTC

; 

; external perimeters extrusion width = 0.45mm
; perimeters extrusion width = 0.45mm
; infill extrusion width = 0.45mm
; solid infill extrusion width = 0.45mm
; top infill extrusion width = 0.40mm
; first layer extrusion width = 0.42mm

M107
M104 S200 ; set temperature
G28 ; home all axes
G1 Z5 F5000 ; lift nozzle
M109 S200 ; set temperature and wait for it to be reached
G21 ; set units to millimeters
G90 ; use absolute coordinates
M82 ; use absolute distances for extrusion
G92 E0
; Filament gcode
G1 Z0.350 F7800.000
G1 E-2.00000 F2400.00000
G92 E0
G1 X90.618 Y78.757 F7800.000
G1 E2.00000 F2400.00000
G1 F1800.000
G1 X90.713 Y78.648 E2.00723
G1 X92.097 Y77.375 E2.10162
G1 X93.597 Y76.306 E2.19407
G1 X95.382 Y75.381 E2.29495
G1 X96.997 Y74.834 E2.38049
G1 X97.931 Y74.626 E2.42854
G1 X99.762 Y74.437 E2.52094
G1 X101.466 Y74.524 E2.60656
G1 X103.121 Y74.863 E2.69134
G1 X103.973 Y75.139 E2.73628
G1 X105.695 Y75.902 E2.83078
G1 X107.120 Y76.780 E2.91481
G1 X108.618 Y77.994 E3.01158
G1 X109.953 Y79.373 E3.10791
G1 X111.255 Y81.069 E3.21519
G1 X112.188 Y82.541 E3.30266
G1 X113.158 Y84.407 E3.40820
G1 X113.845 Y85.985 E3.49457
G1 X114.461 Y87.689 E3.58552
G1 X115.080 Y89.779 E3.69488
G1 X115.555 Y91.845 E3.80129
G1 X115.928 Y94.039 E3.91298
G1 X116.292 Y97.896 E4.10743
G1 X116.345 Y100.153 E4.22069
G1 X116.279 Y102.386 E4.33281
G1 X116.090 Y104.655 E4.44708
G1 X115.492 Y108.438 E4.63933
G1 X115.013 Y110.450 E4.74312
G1 X114.387 Y112.521 E4.85167
G1 X113.671 Y114.425 E4.95375
G1 X112.856 Y116.201 E5.05182
G1 X111.850 Y118.005 E5.15552
G1 X110.818 Y119.530 E5.24793
G1 X109.589 Y121.014 E5.34460
G1 X108.246 Y122.320 E5.43863
G1 X106.667 Y123.509 E5.53782
G1 X105.001 Y124.432 E5.63339
G1 X103.279 Y125.077 E5.72571
G1 X101.405 Y125.461 E5.82169
G1 X100.051 Y125.551 E5.88979
G1 X98.131 Y125.398 E5.98643
G1 X96.496 Y125.000 E6.07089
G1 X95.617 Y124.690 E6.11769
G1 X93.960 Y123.890 E6.21003
G1 X92.500 Y122.923 E6.29790
G1 X91.051 Y121.673 E6.39394
G1 X89.749 Y120.253 E6.49066
G1 X88.506 Y118.559 E6.59605
G1 X87.589 Y117.043 E6.68497
G1 X86.645 Y115.143 E6.79148
G1 X85.968 Y113.508 E6.88029
G1 X85.384 Y111.806 E6.97058
G1 X84.793 Y109.696 E7.08057
G1 X84.343 Y107.599 E7.18820
G1 X83.998 Y105.380 E7.30087
G1 X83.783 Y103.281 E7.40678
G1 X83.662 Y99.370 E7.60313
G1 X83.754 Y97.082 E7.71805
G1 X83.978 Y94.763 E7.83499
G1 X84.612 Y91.075 E8.02279
G1 X85.120 Y89.058 E8.12720
G1 X85.795 Y86.944 E8.23853
G1 X86.525 Y85.103 E8.33792
G1 X87.366 Y83.351 E8.43547
G1 X88.353 Y81.654 E8.53398
G1 X89.455 Y80.095 E8.62979
G1 X90.579 Y78.802 E8.71578
G1 E6.71578 F2400.00000
G92 E0
G1 X104.874 Y115.047 F7800.000
G1 E2.00000 F2400.00000
G1 F1800.000
G1 X104.146 Y115.935 E2.05761
G1 X103.395 Y116.671 E2.11041
G1 X102.632 Y117.251 E2.15850
G1 X101.869 Y117.676 E2.20234
G1 X101.110 Y117.953 E2.24287
G1 X100.351 Y118.090 E2.28160
G1 X100.023 Y118.104 E2.29806
G1 X99.280 Y118.039 E2.33548
G1 X98.525 Y117.837 E2.37470
G1 X97.764 Y117.489 E2.41669
G1 X96.999 Y116.989 E2.46256
G1 X96.244 Y116.337 E2.51264
G1 X95.497 Y115.521 E2.56815
G1 X94.784 Y114.558 E2.62830
G1 X94.120 Y113.468 E2.69232
G1 X93.508 Y112.255 E2.76056
G1 X92.932 Y110.877 E2.83549
G1 X92.442 Y109.437 E2.91181
G1 X92.014 Y107.882 E2.99278
G1 X91.664 Y106.246 E3.07670
G1 X91.400 Y104.582 E3.16126
G1 X91.215 Y102.841 E3.24915
G1 X91.118 Y101.105 E3.33638
G1 X91.107 Y99.355 E3.42421
G1 X91.182 Y97.588 E3.51298
G1 X91.343 Y95.851 E3.60053
G1 X91.590 Y94.148 E3.68691
G1 X91.919 Y92.501 E3.77119
G1 X92.326 Y90.931 E3.85260
G1 X92.807 Y89.448 E3.93082
G1 X93.353 Y88.070 E4.00521
G1 X93.957 Y86.814 E4.07515
G1 X94.609 Y85.691 E4.14033
G1 X95.315 Y84.689 E4.20181
G1 X96.048 Y83.842 E4.25804
G1 X96.803 Y83.146 E4.30960
G1 X97.567 Y82.606 E4.35653
G1 X98.329 Y82.220 E4.39940
G1 X99.086 Y81.981 E4.43925
G1 X99.815 Y81.883 E4.47615
G1 X100.533 Y81.913 E4.51219
G1 X101.281 Y82.079 E4.55069
G1 X102.041 Y82.389 E4.59185
G1 X102.806 Y82.849 E4.63665
G1 X103.564 Y83.462 E4.68557
G1 X104.316 Y84.238 E4.73980
G1 X105.038 Y85.163 E4.79869
G1 X105.713 Y86.217 E4.86153
G1 X106.348 Y87.415 E4.92955
G1 X106.926 Y88.737 E5.00196
G1 X107.441 Y90.167 E5.07823
G1 X107.885 Y91.692 E5.15795
G1 X108.253 Y93.298 E5.24067
G1 X108.542 Y94.970 E5.32579
G1 X108.747 Y96.690 E5.41275
G1 X108.867 Y98.442 E5.50088
G1 X108.900 Y100.187 E5.58846
G1 X108.846 Y101.964 E5.67769
G1 X108.708 Y103.688 E5.76450
G1 X108.481 Y105.410 E5.85165
G1 X108.178 Y107.048 E5.93525
G1 X107.789 Y108.647 E6.01785
G1 X107.334 Y110.136 E6.09598
G1 X106.802 Y111.552 E6.17187
G1 X106.207 Y112.852 E6.24361
G1 X105.568 Y114.009 E6.30998
G1 X104.907 Y114.997 E6.36962
G1 X105.160 Y115.238 F7800.000
G1 F1800.000
G1 X104.401 Y116.168 E6.42984
G1 X103.621 Y116.932 E6.48468
G1 X102.821 Y117.540 E6.53508
G1 X102.013 Y117.991 E6.58153
G1 X101.200 Y118.287 E6.62491
G1 X100.389 Y118.433 E6.66628
G1 X100.016 Y118.450 E6.68505
G1 X99.220 Y118.380 E6.72514
G1 X98.408 Y118.162 E6.76731
G1 X97.597 Y117.792 E6.81205
G1 X96.791 Y117.265 E6.86038
G1 X96.003 Y116.585 E6.91264
G1 X95.231 Y115.740 E6.97005
G1 X94.498 Y114.751 E7.03188
G1 X93.818 Y113.636 E7.09738
G1 X93.194 Y112.399 E7.16693
G1 X92.610 Y110.999 E7.24306
G1 X92.112 Y109.539 E7.32048
G1 X91.679 Y107.963 E7.40248
G1 X91.325 Y106.310 E7.48736
G1 X91.058 Y104.628 E7.57282
G1 X90.871 Y102.869 E7.66159
G1 X90.773 Y101.116 E7.74968
G1 X90.762 Y99.349 E7.83837
G1 X90.838 Y97.565 E7.92799
G1 X91.001 Y95.810 E8.01642
G1 X91.250 Y94.089 E8.10371
G1 X91.583 Y92.424 E8.18893
G1 X91.995 Y90.834 E8.27135
G1 X92.482 Y89.331 E8.35065
G1 X93.037 Y87.932 E8.42620
G1 X93.652 Y86.653 E8.49742
G1 X94.318 Y85.505 E8.56403
G1 X95.042 Y84.477 E8.62714
G1 X95.800 Y83.601 E8.68521
G1 X96.586 Y82.877 E8.73887
G1 X97.389 Y82.310 E8.78819
G1 X98.198 Y81.900 E8.83374
G1 X99.011 Y81.643 E8.87650
G1 X99.799 Y81.537 E8.91642
G1 X100.577 Y81.570 E8.95551
G1 X101.384 Y81.749 E8.99700
G1 X102.196 Y82.079 E9.04097
G1 X103.004 Y82.566 E9.08832
G1 X103.797 Y83.207 E9.13948
G1 X104.577 Y84.011 E9.19569
G1 X105.320 Y84.963 E9.25631
G1 X106.011 Y86.043 E9.32067
G1 X106.658 Y87.265 E9.39005
G1 X107.247 Y88.609 E9.46369
G1 X107.769 Y90.060 E9.54107
G1 X108.219 Y91.605 E9.62183
G1 X108.592 Y93.230 E9.70552
G1 X108.883 Y94.920 E9.79157
G1 X109.091 Y96.658 E9.87942
G1 X109.212 Y98.427 E9.96841
G1 X109.245 Y100.189 E10.05685
G1 X109.191 Y101.983 E10.14693
G1 X109.051 Y103.725 E10.23461
G1 X108.822 Y105.464 E10.32266
G1 X108.515 Y107.120 E10.40718
G1 X108.122 Y108.739 E10.49077
G1 X107.661 Y110.247 E10.56995
G1 X107.121 Y111.684 E10.64699
G1 X106.516 Y113.007 E10.71998
G1 X105.863 Y114.189 E10.78774
G1 X105.194 Y115.188 E10.84811
G1 X105.447 Y115.430 F7800.000
G1 F1800.000
G1 X104.656 Y116.401 E10.91095
G1 X103.847 Y117.194 E10.96782
G1 X103.010 Y117.830 E11.02054
G1 X102.156 Y118.305 E11.06959
G1 X101.291 Y118.621 E11.11584
G1 X100.428 Y118.777 E11.15984
G1 X100.008 Y118.795 E11.18093
G1 X99.160 Y118.721 E11.22367
G1 X98.291 Y118.488 E11.26880
G1 X97.430 Y118.095 E11.31629
G1 X96.583 Y117.541 E11.36708
G1 X95.762 Y116.832 E11.42151
G1 X94.964 Y115.960 E11.48084
G1 X94.211 Y114.943 E11.54435
G1 X93.517 Y113.804 E11.61132
G1 X92.881 Y112.543 E11.68219
G1 X92.287 Y111.121 E11.75952
G1 X91.782 Y109.640 E11.83804
G1 X91.344 Y108.045 E11.92105
G1 X90.986 Y106.373 E12.00689
G1 X90.716 Y104.673 E12.09327
G1 X90.527 Y102.896 E12.18292
G1 X90.429 Y101.127 E12.27187
G1 X90.417 Y99.343 E12.36140
G1 X90.494 Y97.541 E12.45189
G1 X90.658 Y95.770 E12.54120
G1 X90.910 Y94.030 E12.62939
G1 X91.247 Y92.347 E12.71556
G1 X91.664 Y90.738 E12.79898
G1 X92.157 Y89.214 E12.87936
G1 X92.721 Y87.793 E12.95608
G1 X93.347 Y86.491 E13.02858
G1 X94.028 Y85.318 E13.09662
G1 X94.770 Y84.264 E13.16135
G1 X95.552 Y83.361 E13.22127
G1 X96.369 Y82.608 E13.27703
G1 X97.210 Y82.014 E13.32874
G1 X98.068 Y81.580 E13.37696
G1 X98.935 Y81.305 E13.42263
G1 X99.783 Y81.191 E13.46558
G1 X100.622 Y81.227 E13.50771
G1 X101.488 Y81.418 E13.55219
G1 X102.351 Y81.770 E13.59898
G1 X103.202 Y82.283 E13.64886
G1 X104.030 Y82.952 E13.70227
G1 X104.837 Y83.784 E13.76046
G1 X105.602 Y84.764 E13.82282
G1 X106.310 Y85.869 E13.88870
G1 X106.969 Y87.115 E13.95943
G1 X107.568 Y88.481 E14.03430
G1 X108.097 Y89.953 E14.11280
G1 X108.553 Y91.518 E14.19460
G1 X108.930 Y93.162 E14.27926
G1 X109.225 Y94.870 E14.36623
G1 X109.434 Y96.626 E14.45497
G1 X109.556 Y98.412 E14.54483
G1 X109.590 Y100.191 E14.63412
G1 X109.535 Y102.002 E14.72506
G1 X109.394 Y103.761 E14.81361
G1 X109.163 Y105.518 E14.90255
G1 X108.853 Y107.192 E14.98800
G1 X108.455 Y108.830 E15.07257
G1 X107.987 Y110.359 E15.15280
G1 X107.439 Y111.817 E15.23098
G1 X106.824 Y113.162 E15.30524
G1 X106.157 Y114.368 E15.37439
G1 X105.480 Y115.380 E15.43549
G1 X105.050 Y115.385 F7800.000
G1 E13.43549 F2400.00000
G92 E0
G1 X104.944 Y85.210 F7800.000
G1 E2.00000 F2400.00000
G1 F1800.000
G1 X103.376 Y83.642 E2.11257
G1 X102.657 Y83.061 E2.15944
G1 X101.925 Y82.621 E2.20282
G1 X101.817 Y82.577 E2.20874
G1 X105.315 Y86.074 E2.45976
G1 X105.490 Y86.348 E2.47624
G1 X105.934 Y87.187 E2.52446
G1 X101.037 Y82.290 E2.87594
G1 X100.422 Y82.168 E2.90778
G1 X106.374 Y88.120 E3.33500
G1 X106.738 Y88.977 E3.38226
G1 X99.907 Y82.146 E3.87255
G1 X99.459 Y82.192 E3.89538
G1 X107.015 Y89.748 E4.43766
G1 X107.266 Y90.492 E4.47751
G1 X99.041 Y82.267 E5.06784
G1 X98.666 Y82.385 E5.08778
G1 X107.469 Y91.188 E5.71954
G1 X107.661 Y91.873 E5.75568
G1 X98.309 Y82.521 E6.42691
G1 X97.981 Y82.686 E6.44554
G1 X107.808 Y92.513 E7.15080
G1 X107.955 Y93.153 E7.18413
G1 X97.659 Y82.858 E7.92304
G1 X97.370 Y83.062 E7.94100
G1 X108.071 Y93.763 E8.70900
G1 X108.174 Y94.359 E8.73971
G1 X97.081 Y83.266 E9.53584
G1 X96.812 Y83.490 E9.55362
G1 X108.277 Y94.955 E10.37649
G1 X108.347 Y95.518 E10.40530
G1 X96.555 Y83.726 E11.25162
G1 X96.298 Y83.963 E11.26934
G1 X108.414 Y96.079 E12.13889
G1 X108.481 Y96.639 E12.16751
G1 X96.062 Y84.220 E13.05878
G1 X95.834 Y84.485 E13.07653
G1 X108.521 Y97.172 E13.98711
G1 X108.557 Y97.702 E14.01404
G1 X95.605 Y84.749 E14.94364
G1 X95.392 Y85.029 E14.96150
G1 X108.593 Y98.231 E15.90900
G1 X108.614 Y98.745 E15.93511
G1 X95.188 Y85.319 E16.89872
G1 X94.984 Y85.608 E16.91669
G1 X108.624 Y99.248 E17.89561
G1 X108.633 Y99.750 E17.92113
G1 X94.785 Y85.903 E18.91499
G1 X94.604 Y86.215 E18.93331
G1 X108.639 Y100.250 E19.94062
G1 X108.625 Y100.729 E19.96493
G1 X94.423 Y86.527 E20.98420
G1 X94.242 Y86.839 E21.00251
G1 X108.610 Y101.207 E22.03374
G1 X108.596 Y101.686 E22.05804
G1 X94.075 Y87.165 E23.10019
G1 X93.915 Y87.498 E23.11894
G1 X108.571 Y102.155 E24.17083
G1 X108.535 Y102.611 E24.19408
G1 X93.755 Y87.832 E25.25483
G1 X93.595 Y88.165 E25.27358
G1 X108.498 Y103.068 E26.34320
G1 X108.462 Y103.525 E26.36644
G1 X93.454 Y88.517 E27.44353
G1 X93.314 Y88.870 E27.46281
G1 X108.410 Y103.967 E28.54628
G1 X108.353 Y104.403 E28.56859
G1 X93.174 Y89.223 E29.65800
G1 X93.050 Y89.535 E29.67504
G1 X93.036 Y89.579 E29.67735
G1 X108.296 Y104.838 E30.77254
G1 X108.238 Y105.274 E30.79486
G1 X92.915 Y89.951 E31.89460
G1 X92.795 Y90.324 E31.91447
G1 X108.166 Y105.695 E33.01765
G1 X108.089 Y106.111 E33.03912
G1 X92.674 Y90.696 E34.14543
G1 X92.557 Y91.072 E34.16542
G1 X108.011 Y106.527 E35.27460
G1 X107.934 Y106.943 E35.29608
G1 X92.455 Y91.464 E36.40702
G1 X92.354 Y91.856 E36.42755
G1 X107.840 Y107.342 E37.53902
G1 X107.744 Y107.739 E37.55975
G1 X92.252 Y92.247 E38.67159
G1 X92.155 Y92.643 E38.69227
G1 X107.648 Y108.136 E39.80419
G1 X107.551 Y108.533 E39.82491
G1 X92.073 Y93.054 E40.93582
G1 X91.990 Y93.465 E40.95709
G1 X107.438 Y108.913 E42.06576
G1 X107.322 Y109.290 E42.08580
G1 X91.908 Y93.876 E43.19208
G1 X91.831 Y94.292 E43.21354
G1 X107.207 Y109.668 E44.31709
G1 X107.091 Y110.046 E44.33713
G1 X91.768 Y94.723 E45.43688
G1 X91.706 Y95.154 E45.45897
G1 X106.957 Y110.405 E46.55355
G1 X106.822 Y110.763 E46.57298
G1 X91.643 Y95.584 E47.66236
G1 X91.587 Y96.021 E47.68473
G1 X106.687 Y111.122 E48.76847
G1 X106.551 Y111.478 E48.78786
G1 X91.545 Y96.473 E49.86482
G1 X91.503 Y96.924 E49.88782
G1 X106.396 Y111.817 E50.95668
G1 X106.241 Y112.155 E50.97556
G1 X91.461 Y97.375 E52.03633
G1 X91.430 Y97.837 E52.05982
G1 X106.087 Y112.494 E53.11172
G1 X105.926 Y112.826 E53.13046
G1 X91.410 Y98.310 E54.17226
G1 X91.390 Y98.783 E54.19629
G1 X105.750 Y113.144 E55.22694
G1 X105.575 Y113.462 E55.24536
G1 X91.370 Y99.257 E56.26485
G1 X91.368 Y99.748 E56.28979
G1 X105.399 Y113.779 E57.29682
G1 X105.208 Y114.081 E57.31496
G1 X91.371 Y100.244 E58.30804
G1 X91.375 Y100.741 E58.33324
G1 X105.010 Y114.377 E59.31189
G1 X104.813 Y114.672 E59.32993
G1 X91.385 Y101.245 E60.29364
G1 X91.414 Y101.767 E60.32019
G1 X104.609 Y114.962 E61.26716
G1 X104.387 Y115.233 E61.28495
G1 X91.443 Y102.289 E62.21390
G1 X91.472 Y102.812 E62.24045
G1 X104.165 Y115.504 E63.15138
G1 X103.941 Y115.774 E63.16915
G1 X91.531 Y103.363 E64.05986
G1 X91.589 Y103.915 E64.08802
G1 X103.692 Y116.018 E64.95664
G1 X103.443 Y116.262 E64.97434
G1 X91.648 Y104.467 E65.82087
G1 X91.736 Y105.048 E65.85070
G1 X103.190 Y116.502 E66.67276
G1 X102.909 Y116.715 E66.69062
G1 X91.829 Y105.634 E67.48589
G1 X91.923 Y106.222 E67.51610
G1 X102.629 Y116.928 E68.28448
G1 X102.490 Y117.034 E68.29336
G1 X102.331 Y117.123 E68.30262
G1 X92.058 Y106.849 E69.03992
G1 X92.192 Y107.477 E69.07249
G1 X102.014 Y117.299 E69.77742
G1 X101.688 Y117.466 E69.79600
G1 X92.350 Y108.128 E70.46620
G1 X92.537 Y108.809 E70.50199
G1 X101.327 Y117.598 E71.13283
G1 X100.953 Y117.718 E71.15273
G1 X92.737 Y109.502 E71.74243
G1 X92.992 Y110.250 E71.78257
G1 X100.535 Y117.793 E72.32396
G1 X100.322 Y117.832 E72.33497
G1 X100.091 Y117.842 E72.34669
G1 X93.275 Y111.027 E72.83586
G1 X93.629 Y111.873 E72.88241
G1 X99.560 Y117.804 E73.30808
G1 X99.325 Y117.783 E73.32002
G1 X98.943 Y117.681 E73.34008
G1 X94.083 Y112.821 E73.68892
G1 X94.346 Y113.343 E73.71860
G1 X94.712 Y113.943 E73.75429
G1 X98.150 Y117.381 E74.00104
G1 X97.889 Y117.262 E74.01560
G1 X97.155 Y116.782 E74.06011
G1 X96.442 Y116.166 E74.10797
G1 X95.139 Y114.863 E74.20148
G1 Z0.650 F7800.000
G1 X104.960 Y115.103
G1 F3600.000
G1 X104.218 Y116.009 E74.25781
G1 X103.453 Y116.757 E74.30927
G1 X102.676 Y117.345 E74.35615
G1 X101.898 Y117.776 E74.39893
G1 X101.123 Y118.056 E74.43856
G1 X100.389 Y118.189 E74.47443
G1 X100.011 Y118.208 E74.49264
G1 X99.253 Y118.140 E74.52926
G1 X98.524 Y117.945 E74.56554
G1 X97.749 Y117.597 E74.60641
G1 X96.931 Y117.067 E74.65328
G1 X96.204 Y116.441 E74.69942
G1 X95.409 Y115.576 E74.75590
G1 X94.686 Y114.598 E74.81443
G1 X94.041 Y113.539 E74.87407
G1 X93.442 Y112.357 E74.93779
G1 X92.830 Y110.898 E75.01387
G1 X92.352 Y109.496 E75.08512
G1 X91.914 Y107.908 E75.16434
G1 X91.557 Y106.236 E75.24660
G1 X91.299 Y104.609 E75.32582
G1 X91.110 Y102.825 E75.41210
G1 X91.015 Y101.127 E75.49388
G1 X91.003 Y99.396 E75.57713
G1 X91.077 Y97.609 E75.66318
G1 X91.238 Y95.859 E75.74771
G1 X91.488 Y94.130 E75.83172
G1 X91.822 Y92.462 E75.91355
G1 X92.236 Y90.871 E75.99260
G1 X92.724 Y89.373 E76.06839
G1 X93.274 Y87.995 E76.13974
G1 X93.878 Y86.742 E76.20666
G1 X94.514 Y85.648 E76.26750
G1 X95.232 Y84.627 E76.32752
G1 X95.980 Y83.762 E76.38254
G1 X96.750 Y83.056 E76.43278
G1 X97.528 Y82.509 E76.47853
G1 X98.305 Y82.119 E76.52036
G1 X99.077 Y81.877 E76.55925
G1 X99.824 Y81.779 E76.59547
G1 X100.477 Y81.807 E76.62690
G1 X101.327 Y81.986 E76.66870
G1 X102.094 Y82.300 E76.70858
G1 X102.871 Y82.768 E76.75222
G1 X103.644 Y83.395 E76.80008
G1 X104.403 Y84.180 E76.85256
G1 X105.135 Y85.121 E76.90996
G1 X105.791 Y86.146 E76.96847
G1 X106.435 Y87.357 E77.03443
G1 X107.018 Y88.686 E77.10423
G1 X107.536 Y90.123 E77.17770
G1 X107.983 Y91.659 E77.25462
G1 X108.355 Y93.277 E77.33448
G1 X108.646 Y94.962 E77.41673
G1 X108.852 Y96.696 E77.50072
G1 X108.972 Y98.463 E77.58590
G1 X109.004 Y100.173 E77.66814
G1 X108.948 Y101.995 E77.75582
G1 X108.813 Y103.682 E77.83721
G1 X108.580 Y105.447 E77.92283
G1 X108.284 Y107.048 E78.00116
G1 X107.886 Y108.687 E78.08227
G1 X107.442 Y110.141 E78.15539
G1 X106.898 Y111.589 E78.22980
G1 X106.291 Y112.916 E78.30000
G1 X105.668 Y114.044 E78.36195
