; generated by PrusaSlicer 2.2.0+win64 on 2020-08-30 at 00:16:55 UTC

; 

; external perimeters extrusion width = 0.45mm
; perimeters extrusion width = 0.45mm
; infill extrusion width = 0.45mm
; solid infill extrusion width = 0.45mm
; top infill extrusion width = 0.40mm
; first layer extrusion width = 0.42mm

M107
M104 S200 ; set temperature
G28 ; home all axes
G1 Z5 F5000 ; lift nozzle
M109 S200 ; set temperature and wait for it to be reached
G21 ; set units to millimeters
G90 ; use absolute coordinates
M82 ; use absolute distances for extrusion
G92 E0
; Filament gcode
G1 Z0.350 F7800.000
G1 E-2.00000 F2400.00000
G92 E0
G1 X87.726 Y80.547 F7800.000
G1 E2.00000 F2400.00000
G1 F1800.000
G1 X89.119 Y79.271 E2.09480
G1 X90.585 Y78.228 E2.18507
G1 X92.366 Y77.303 E2.28581
G1 X93.979 Y76.755 E2.37132
G1 X94.920 Y76.545 E2.41968
G1 X96.750 Y76.354 E2.51203
G1 X98.447 Y76.439 E2.59730
G1 X100.107 Y76.777 E2.68233
G1 X100.959 Y77.052 E2.72726
G1 X102.685 Y77.815 E2.82199
G1 X104.105 Y78.688 E2.90565
G1 X105.634 Y79.927 E3.00439
G1 X106.973 Y81.316 E3.10120
G1 X108.273 Y83.014 E3.20853
G1 X109.197 Y84.478 E3.29543
G1 X110.162 Y86.339 E3.40065
G1 X110.840 Y87.896 E3.48586
G1 X111.457 Y89.600 E3.57682
G1 X112.078 Y91.699 E3.68664
G1 X112.552 Y93.761 E3.79283
G1 X112.925 Y95.956 E3.90456
G1 X113.287 Y99.773 E4.09701
G1 X113.342 Y102.067 E4.21217
G1 X113.277 Y104.290 E4.32375
G1 X113.085 Y106.593 E4.43977
G1 X112.491 Y110.345 E4.63041
G1 X112.014 Y112.352 E4.73391
G1 X111.388 Y114.425 E4.84261
G1 X110.668 Y116.340 E4.94528
G1 X109.844 Y118.138 E5.04453
G1 X108.827 Y119.953 E5.14895
G1 X107.823 Y121.436 E5.23882
G1 X106.564 Y122.956 E5.33789
G1 X105.217 Y124.260 E5.43197
G1 X103.638 Y125.443 E5.53098
G1 X101.998 Y126.349 E5.62502
G1 X100.273 Y126.995 E5.71742
G1 X98.407 Y127.377 E5.81305
G1 X97.054 Y127.467 E5.88111
G1 X95.141 Y127.316 E5.97738
G1 X93.501 Y126.919 E6.06208
G1 X92.627 Y126.611 E6.10857
G1 X90.960 Y125.807 E6.20144
G1 X89.481 Y124.828 E6.29047
G1 X88.026 Y123.569 E6.38703
G1 X86.719 Y122.137 E6.48432
G1 X85.486 Y120.450 E6.58918
G1 X84.560 Y118.912 E6.67928
G1 X83.620 Y117.010 E6.78578
G1 X82.961 Y115.414 E6.87242
G1 X82.382 Y113.727 E6.96193
G1 X81.791 Y111.613 E7.07211
G1 X81.337 Y109.499 E7.18062
G1 X80.992 Y107.274 E7.29362
G1 X80.780 Y105.189 E7.39878
G1 X80.659 Y101.309 E7.59359
G1 X80.751 Y99.003 E7.70940
G1 X80.981 Y96.644 E7.82838
G1 X81.602 Y93.030 E8.01240
G1 X82.108 Y91.010 E8.11691
G1 X82.795 Y88.853 E8.23052
G1 X83.533 Y86.994 E8.33089
G1 X84.381 Y85.234 E8.42893
G1 X85.343 Y83.581 E8.52492
G1 X86.451 Y82.013 E8.62129
G1 X87.687 Y80.592 E8.71576
G1 E6.71576 F2400.00000
G92 E0
G1 X101.872 Y116.962 F7800.000
G1 E2.00000 F2400.00000
G1 F1800.000
G1 X101.143 Y117.852 E2.05777
G1 X100.390 Y118.589 E2.11066
G1 X99.626 Y119.169 E2.15878
G1 X98.863 Y119.594 E2.20262
G1 X98.105 Y119.870 E2.24309
G1 X97.355 Y120.005 E2.28132
G1 X97.017 Y120.021 E2.29830
G1 X96.277 Y119.956 E2.33560
G1 X95.529 Y119.756 E2.37443
G1 X94.770 Y119.410 E2.41630
G1 X93.996 Y118.905 E2.46270
G1 X93.250 Y118.262 E2.51210
G1 X92.492 Y117.435 E2.56841
G1 X91.778 Y116.469 E2.62872
G1 X91.121 Y115.391 E2.69203
G1 X90.515 Y114.191 E2.75951
G1 X89.928 Y112.788 E2.83583
G1 X89.442 Y111.363 E2.91138
G1 X89.011 Y109.799 E2.99282
G1 X88.659 Y108.153 E3.07731
G1 X88.398 Y106.503 E3.16111
G1 X88.212 Y104.749 E3.24965
G1 X88.116 Y103.028 E3.33614
G1 X88.104 Y101.287 E3.42351
G1 X88.179 Y99.514 E3.51258
G1 X88.340 Y97.774 E3.60026
G1 X88.587 Y96.064 E3.68699
G1 X88.918 Y94.411 E3.77157
G1 X89.327 Y92.837 E3.85322
G1 X89.809 Y91.351 E3.93163
G1 X90.356 Y89.975 E4.00594
G1 X90.959 Y88.723 E4.07567
G1 X91.604 Y87.611 E4.14017
G1 X92.312 Y86.606 E4.20189
G1 X93.047 Y85.756 E4.25825
G1 X93.804 Y85.060 E4.30988
G1 X94.568 Y84.521 E4.35682
G1 X95.330 Y84.135 E4.39968
G1 X96.086 Y83.897 E4.43946
G1 X96.808 Y83.800 E4.47600
G1 X97.531 Y83.830 E4.51234
G1 X98.272 Y83.994 E4.55044
G1 X99.031 Y84.301 E4.59150
G1 X99.805 Y84.767 E4.63683
G1 X100.553 Y85.371 E4.68507
G1 X101.316 Y86.157 E4.74008
G1 X102.039 Y87.085 E4.79912
G1 X102.707 Y88.128 E4.86125
G1 X103.343 Y89.327 E4.92936
G1 X103.922 Y90.649 E5.00184
G1 X104.437 Y92.079 E5.07810
G1 X104.881 Y93.606 E5.15789
G1 X105.251 Y95.214 E5.24073
G1 X105.540 Y96.889 E5.32600
G1 X105.745 Y98.612 E5.41311
G1 X105.865 Y100.368 E5.50142
G1 X105.897 Y102.098 E5.58828
G1 X105.843 Y103.889 E5.67820
G1 X105.706 Y105.599 E5.76426
G1 X105.478 Y107.334 E5.85209
G1 X105.177 Y108.957 E5.93494
G1 X104.786 Y110.568 E6.01813
G1 X104.335 Y112.043 E6.09554
G1 X103.799 Y113.467 E6.17191
G1 X103.202 Y114.774 E6.24401
G1 X102.569 Y115.919 E6.30970
G1 X101.905 Y116.912 E6.36960
G1 X102.159 Y117.153 F7800.000
G1 F1800.000
G1 X101.397 Y118.085 E6.42999
G1 X100.615 Y118.851 E6.48492
G1 X99.815 Y119.459 E6.53536
G1 X99.006 Y119.909 E6.58180
G1 X98.195 Y120.204 E6.62512
G1 X97.394 Y120.349 E6.66598
G1 X97.010 Y120.366 E6.68527
G1 X96.217 Y120.297 E6.72524
G1 X95.413 Y120.081 E6.76701
G1 X94.603 Y119.713 E6.81163
G1 X93.788 Y119.181 E6.86050
G1 X93.010 Y118.510 E6.91207
G1 X92.226 Y117.654 E6.97030
G1 X91.491 Y116.661 E7.03230
G1 X90.819 Y115.559 E7.09708
G1 X90.201 Y114.336 E7.16586
G1 X89.605 Y112.911 E7.24339
G1 X89.112 Y111.465 E7.32005
G1 X88.676 Y109.881 E7.40251
G1 X88.320 Y108.216 E7.48796
G1 X88.056 Y106.548 E7.57267
G1 X87.868 Y104.777 E7.66209
G1 X87.771 Y103.039 E7.74943
G1 X87.759 Y101.281 E7.83765
G1 X87.834 Y99.491 E7.92757
G1 X87.997 Y97.734 E8.01614
G1 X88.247 Y96.005 E8.10378
G1 X88.582 Y94.334 E8.18931
G1 X88.995 Y92.740 E8.27197
G1 X89.484 Y91.234 E8.35145
G1 X90.040 Y89.836 E8.42693
G1 X90.654 Y88.561 E8.49794
G1 X91.313 Y87.425 E8.56386
G1 X92.040 Y86.393 E8.62721
G1 X92.799 Y85.516 E8.68542
G1 X93.587 Y84.791 E8.73915
G1 X94.390 Y84.224 E8.78849
G1 X95.200 Y83.815 E8.83402
G1 X96.011 Y83.559 E8.87670
G1 X96.791 Y83.454 E8.91624
G1 X97.576 Y83.487 E8.95565
G1 X98.375 Y83.663 E8.99673
G1 X99.185 Y83.992 E9.04060
G1 X100.003 Y84.483 E9.08848
G1 X100.786 Y85.115 E9.13896
G1 X101.576 Y85.930 E9.19595
G1 X102.321 Y86.885 E9.25673
G1 X103.005 Y87.953 E9.32038
G1 X103.653 Y89.176 E9.38984
G1 X104.243 Y90.522 E9.46356
G1 X104.765 Y91.972 E9.54093
G1 X105.215 Y93.519 E9.62177
G1 X105.589 Y95.146 E9.70557
G1 X105.881 Y96.839 E9.79177
G1 X106.089 Y98.580 E9.87978
G1 X106.209 Y100.353 E9.96895
G1 X106.242 Y102.100 E10.05666
G1 X106.187 Y103.908 E10.14744
G1 X106.049 Y105.635 E10.23437
G1 X105.818 Y107.388 E10.32308
G1 X105.514 Y109.029 E10.40687
G1 X105.118 Y110.659 E10.49104
G1 X104.661 Y112.154 E10.56950
G1 X104.118 Y113.600 E10.64701
G1 X103.510 Y114.929 E10.72038
G1 X102.863 Y116.099 E10.78745
G1 X102.192 Y117.103 E10.84808
G1 X102.445 Y117.345 F7800.000
G1 F1800.000
G1 X101.652 Y118.319 E10.91110
G1 X100.841 Y119.113 E10.96807
G1 X100.004 Y119.748 E11.02082
G1 X99.150 Y120.223 E11.06987
G1 X98.285 Y120.538 E11.11604
G1 X97.433 Y120.692 E11.15952
G1 X97.003 Y120.712 E11.18113
G1 X96.157 Y120.638 E11.22376
G1 X95.296 Y120.407 E11.26848
G1 X94.437 Y120.016 E11.31584
G1 X93.580 Y119.457 E11.36718
G1 X92.769 Y118.758 E11.42093
G1 X91.959 Y117.874 E11.48108
G1 X91.205 Y116.854 E11.54476
G1 X90.518 Y115.727 E11.61100
G1 X89.888 Y114.480 E11.68110
G1 X89.283 Y113.033 E11.75983
G1 X88.782 Y111.566 E11.83759
G1 X88.341 Y109.962 E11.92108
G1 X87.981 Y108.279 E12.00749
G1 X87.714 Y106.594 E12.09311
G1 X87.524 Y104.804 E12.18341
G1 X87.426 Y103.050 E12.27160
G1 X87.414 Y101.275 E12.36067
G1 X87.490 Y99.468 E12.45145
G1 X87.655 Y97.693 E12.54090
G1 X87.907 Y95.947 E12.62945
G1 X88.245 Y94.257 E12.71594
G1 X88.664 Y92.643 E12.79960
G1 X89.160 Y91.117 E12.88016
G1 X89.724 Y89.697 E12.95681
G1 X90.349 Y88.399 E13.02910
G1 X91.022 Y87.239 E13.09644
G1 X91.768 Y86.180 E13.16141
G1 X92.551 Y85.275 E13.22147
G1 X93.369 Y84.522 E13.27731
G1 X94.212 Y83.928 E13.32904
G1 X95.069 Y83.494 E13.37725
G1 X95.935 Y83.221 E13.42283
G1 X96.775 Y83.108 E13.46538
G1 X97.621 Y83.143 E13.50785
G1 X98.478 Y83.333 E13.55190
G1 X99.340 Y83.683 E13.59857
G1 X100.201 Y84.200 E13.64900
G1 X101.018 Y84.860 E13.70173
G1 X101.837 Y85.704 E13.76071
G1 X102.603 Y86.686 E13.82323
G1 X103.303 Y87.779 E13.88839
G1 X103.964 Y89.026 E13.95921
G1 X104.563 Y90.394 E14.03415
G1 X105.093 Y91.866 E14.11265
G1 X105.549 Y93.432 E14.19452
G1 X105.927 Y95.079 E14.27930
G1 X106.222 Y96.789 E14.36642
G1 X106.432 Y98.548 E14.45532
G1 X106.554 Y100.338 E14.54535
G1 X106.587 Y102.102 E14.63392
G1 X106.532 Y103.927 E14.72556
G1 X106.392 Y105.671 E14.81335
G1 X106.159 Y107.442 E14.90296
G1 X105.851 Y109.101 E14.98768
G1 X105.451 Y110.750 E15.07283
G1 X104.988 Y112.265 E15.15234
G1 X104.437 Y113.732 E15.23100
G1 X103.818 Y115.085 E15.30562
G1 X103.158 Y116.279 E15.37408
G1 X102.479 Y117.295 E15.43545
G1 X102.048 Y117.299 F7800.000
G1 E13.43545 F2400.00000
G92 E0
G1 X101.943 Y87.130 F7800.000
G1 E2.00000 F2400.00000
G1 F1800.000
G1 X100.364 Y85.551 E2.11330
G1 X99.656 Y84.979 E2.15949
G1 X98.915 Y84.534 E2.20340
G1 X98.812 Y84.492 E2.20902
G1 X102.315 Y87.995 E2.46040
G1 X102.483 Y88.258 E2.47628
G1 X102.933 Y89.106 E2.52499
G1 X98.032 Y84.206 E2.87668
G1 X97.418 Y84.084 E2.90848
G1 X103.372 Y90.038 E3.33581
G1 X103.736 Y90.895 E3.38305
G1 X96.903 Y84.063 E3.87342
G1 X96.455 Y84.108 E3.89625
G1 X104.013 Y91.666 E4.43865
G1 X104.264 Y92.409 E4.47847
G1 X96.037 Y84.183 E5.06883
G1 X95.662 Y84.302 E5.08878
G1 X104.466 Y93.105 E5.72060
G1 X104.658 Y93.791 E5.75672
G1 X95.305 Y84.438 E6.42797
G1 X94.978 Y84.603 E6.44659
G1 X104.805 Y94.431 E7.15189
G1 X104.952 Y95.071 E7.18522
G1 X94.656 Y84.775 E7.92413
G1 X94.367 Y84.979 E7.94209
G1 X105.068 Y95.680 E8.71010
G1 X105.171 Y96.277 E8.74080
G1 X94.078 Y85.183 E9.53695
G1 X93.809 Y85.407 E9.55472
G1 X105.274 Y96.873 E10.37759
G1 X105.344 Y97.436 E10.40639
G1 X93.552 Y85.643 E11.25271
G1 X93.295 Y85.880 E11.27042
G1 X105.411 Y97.996 E12.13997
G1 X105.478 Y98.556 E12.16858
G1 X93.059 Y86.137 E13.05983
G1 X92.830 Y86.402 E13.07757
G1 X105.518 Y99.089 E13.98814
G1 X105.554 Y99.619 E14.01506
G1 X92.602 Y86.666 E14.94464
G1 X92.389 Y86.946 E14.96250
G1 X105.590 Y100.148 E15.90996
G1 X105.612 Y100.662 E15.93608
G1 X92.185 Y87.235 E16.89968
G1 X91.981 Y87.525 E16.91764
G1 X105.621 Y101.165 E17.89654
G1 X105.631 Y101.668 E17.92206
G1 X91.782 Y87.819 E18.91591
G1 X91.601 Y88.131 E18.93422
G1 X105.637 Y102.167 E19.94151
G1 X105.622 Y102.645 E19.96581
G1 X91.420 Y88.443 E20.98505
G1 X91.239 Y88.755 E21.00336
G1 X105.607 Y103.124 E22.03455
G1 X105.593 Y103.603 E22.05885
G1 X91.073 Y89.082 E23.10093
G1 X90.912 Y89.415 E23.11968
G1 X105.569 Y104.072 E24.17153
G1 X105.532 Y104.528 E24.19478
G1 X90.752 Y89.748 E25.25550
G1 X90.592 Y90.081 E25.27426
G1 X105.495 Y104.985 E26.34385
G1 X105.459 Y105.442 E26.36709
G1 X90.452 Y90.434 E27.44412
G1 X90.311 Y90.787 E27.46339
G1 X105.407 Y105.883 E28.54680
G1 X105.350 Y106.319 E28.56911
G1 X90.171 Y91.140 E29.65847
G1 X90.052 Y91.439 E29.67477
G1 X90.034 Y91.496 E29.67783
G1 X105.293 Y106.755 E30.77293
G1 X105.235 Y107.191 E30.79524
G1 X89.913 Y91.868 E31.89490
G1 X89.792 Y92.241 E31.91477
G1 X105.163 Y107.612 E33.01790
G1 X105.086 Y108.028 E33.03937
G1 X89.671 Y92.613 E34.14564
G1 X89.554 Y92.989 E34.16564
G1 X105.009 Y108.444 E35.27476
G1 X104.932 Y108.860 E35.29624
G1 X89.453 Y93.381 E36.40712
G1 X89.351 Y93.772 E36.42765
G1 X104.837 Y109.259 E37.53905
G1 X104.741 Y109.656 E37.55978
G1 X89.249 Y94.164 E38.67155
G1 X89.152 Y94.560 E38.69224
G1 X104.645 Y110.052 E39.80409
G1 X104.548 Y110.449 E39.82481
G1 X89.070 Y94.971 E40.93565
G1 X88.988 Y95.382 E40.95692
G1 X104.435 Y110.829 E42.06554
G1 X104.320 Y111.207 E42.08558
G1 X88.905 Y95.793 E43.19181
G1 X88.828 Y96.208 E43.21327
G1 X104.204 Y111.585 E44.31678
G1 X104.089 Y111.962 E44.33682
G1 X88.765 Y96.639 E45.43651
G1 X88.703 Y97.070 E45.45860
G1 X103.954 Y112.321 E46.55310
G1 X103.819 Y112.679 E46.57254
G1 X88.641 Y97.501 E47.66185
G1 X88.584 Y97.938 E47.68420
G1 X103.684 Y113.038 E48.76789
G1 X103.548 Y113.395 E48.78728
G1 X88.543 Y98.389 E49.86419
G1 X88.501 Y98.841 E49.88719
G1 X103.393 Y113.733 E50.95599
G1 X103.239 Y114.072 E50.97487
G1 X88.459 Y99.292 E52.03556
G1 X88.427 Y99.754 E52.05904
G1 X103.084 Y114.410 E53.11089
G1 X102.923 Y114.743 E53.12963
G1 X88.407 Y100.227 E54.17140
G1 X88.387 Y100.700 E54.19543
G1 X102.748 Y115.060 E55.22603
G1 X102.572 Y115.378 E55.24445
G1 X88.368 Y101.173 E56.26388
G1 X88.365 Y101.664 E56.28878
G1 X102.397 Y115.696 E57.29579
G1 X102.205 Y115.998 E57.31392
G1 X88.368 Y102.161 E58.30695
G1 X88.372 Y102.657 E58.33215
G1 X102.008 Y116.293 E59.31075
G1 X101.810 Y116.589 E59.32879
G1 X88.382 Y103.161 E60.29247
G1 X88.411 Y103.683 E60.31902
G1 X101.606 Y116.878 E61.26597
G1 X101.384 Y117.149 E61.28375
G1 X88.440 Y104.205 E62.21268
G1 X88.469 Y104.728 E62.23923
G1 X101.162 Y117.420 E63.15013
G1 X100.939 Y117.690 E63.16790
G1 X88.528 Y105.279 E64.05857
G1 X88.587 Y105.831 E64.08673
G1 X100.689 Y117.934 E64.95531
G1 X100.440 Y118.178 E64.97300
G1 X88.645 Y106.383 E65.81950
G1 X88.733 Y106.964 E65.84930
G1 X100.187 Y118.418 E66.67136
G1 X99.907 Y118.631 E66.68923
G1 X88.826 Y107.550 E67.48450
G1 X88.921 Y108.138 E67.51474
G1 X99.627 Y118.844 E68.28307
G1 X99.484 Y118.952 E68.29215
G1 X99.328 Y119.039 E68.30120
G1 X89.055 Y108.766 E69.03848
G1 X89.189 Y109.393 E69.07104
G1 X99.011 Y119.215 E69.77595
G1 X98.686 Y119.383 E69.79453
G1 X89.347 Y110.044 E70.46474
G1 X89.534 Y110.725 E70.50054
G1 X98.324 Y119.515 E71.13137
G1 X97.951 Y119.635 E71.15126
G1 X89.733 Y111.417 E71.74104
G1 X89.989 Y112.165 E71.78117
G1 X97.533 Y119.710 E72.32264
G1 X97.326 Y119.748 E72.33333
G1 X97.089 Y119.759 E72.34539
G1 X90.273 Y112.943 E72.83454
G1 X90.627 Y113.790 E72.88117
G1 X96.558 Y119.721 E73.30677
G1 X96.322 Y119.700 E73.31878
G1 X95.942 Y119.598 E73.33873
G1 X91.080 Y114.736 E73.68770
G1 X91.347 Y115.266 E73.71782
G1 X91.708 Y115.857 E73.75298
G1 X95.149 Y119.298 E73.99993
G1 X94.895 Y119.183 E74.01409
G1 X94.151 Y118.698 E74.05913
G1 X93.448 Y118.090 E74.10630
G1 X92.135 Y116.777 E74.20054
G1 Z0.650 F7800.000
G1 X101.961 Y117.016
G1 F3600.000
G1 X101.213 Y117.929 E74.25732
G1 X100.443 Y118.679 E74.30901
G1 X99.664 Y119.268 E74.35598
G1 X98.886 Y119.697 E74.39872
G1 X98.111 Y119.975 E74.43833
G1 X97.407 Y120.103 E74.47272
G1 X97.000 Y120.124 E74.49231
G1 X96.246 Y120.055 E74.52875
G1 X95.479 Y119.848 E74.56696
G1 X94.706 Y119.493 E74.60787
G1 X93.929 Y118.985 E74.65251
G1 X93.158 Y118.316 E74.70161
G1 X92.402 Y117.488 E74.75555
G1 X91.674 Y116.500 E74.81456
G1 X90.985 Y115.357 E74.87874
G1 X90.406 Y114.206 E74.94070
G1 X89.824 Y112.805 E75.01370
G1 X89.310 Y111.284 E75.09093
G1 X88.873 Y109.655 E75.17203
G1 X88.549 Y108.123 E75.24733
G1 X88.326 Y106.721 E75.31560
G1 X88.122 Y104.907 E75.40340
G1 X88.013 Y103.060 E75.49239
G1 X88.000 Y101.358 E75.57428
G1 X88.072 Y99.553 E75.66116
G1 X88.233 Y97.795 E75.74605
G1 X88.485 Y96.046 E75.83103
G1 X88.823 Y94.361 E75.91369
G1 X89.242 Y92.758 E75.99339
G1 X89.735 Y91.251 E76.06966
G1 X90.286 Y89.878 E76.14082
G1 X90.888 Y88.636 E76.20717
G1 X91.504 Y87.576 E76.26615
G1 X92.229 Y86.544 E76.32683
G1 X92.983 Y85.674 E76.38221
G1 X93.756 Y84.966 E76.43263
G1 X94.536 Y84.420 E76.47842
G1 X95.313 Y84.031 E76.52020
G1 X96.083 Y83.792 E76.55899
G1 X96.830 Y83.695 E76.59519
G1 X97.551 Y83.728 E76.62993
G1 X98.323 Y83.901 E76.66800
G1 X99.095 Y84.218 E76.70813
G1 X99.871 Y84.687 E76.75175
G1 X100.646 Y85.315 E76.79970
G1 X101.406 Y86.104 E76.85240
G1 X102.144 Y87.054 E76.91026
G1 X102.778 Y88.045 E76.96685
G1 X103.425 Y89.260 E77.03306
G1 X104.010 Y90.590 E77.10295
G1 X104.529 Y92.029 E77.17649
G1 X104.979 Y93.568 E77.25362
G1 X105.352 Y95.193 E77.33379
G1 X105.644 Y96.886 E77.41645
G1 X105.851 Y98.629 E77.50086
G1 X105.970 Y100.406 E77.58652
G1 X106.001 Y102.075 E77.66680
G1 X105.944 Y103.936 E77.75637
G1 X105.812 Y105.581 E77.83572
G1 X105.574 Y107.383 E77.92316
G1 X105.285 Y108.943 E77.99947
G1 X104.880 Y110.615 E78.08219
G1 X104.448 Y112.029 E78.15334
G1 X103.896 Y113.504 E78.22904
G1 X103.279 Y114.849 E78.30024
G1 X102.675 Y115.943 E78.36033
G1 X101.994 Y116.966 E78.41944
G1 X102.281 Y117.229 F7800.000
