; generated by PrusaSlicer 2.2.0+win64 on 2020-09-24 at 21:04:38 UTC

; 

; external perimeters extrusion width = 0.45mm
; perimeters extrusion width = 0.45mm
; infill extrusion width = 0.45mm
; solid infill extrusion width = 0.45mm
; top infill extrusion width = 0.40mm
; first layer extrusion width = 0.42mm

M73 P0 R94
M73 Q0 S95
M201 X1000 Y1000 Z200 E5000 ; sets maximum accelerations, mm/sec^2
M203 X200 Y200 Z12 E120 ; sets maximum feedrates, mm/sec
M204 P1250 R1250 T1250 ; sets acceleration (P, T) and retract acceleration (R), mm/sec^2
M205 X8.00 Y8.00 Z0.40 E4.50 ; sets the jerk limits, mm/sec
M205 S0 T0 ; sets the minimum extruding and travel feed rate, mm/sec
M107
M862.3 P "MK3S" ; printer model check
M862.1 P0.4 ; nozzle diameter check
M115 U3.9.0 ; tell printer latest fw version
G90 ; use absolute coordinates
M83 ; extruder relative mode
M104 S240 ; set extruder temp
M140 S85 ; set bed temp
M190 S85 ; wait for bed temp
M109 S240 ; wait for extruder temp
G28 W ; home all without mesh bed level
G80 ; mesh bed leveling
G1 Y-3.0 F1000.0 ; go outside print area
G92 E0.0
G1 X60.0 E9.0 F1000.0 ; intro line
M73 Q0 S95
M73 P0 R94
G1 X100.0 E12.5 F1000.0 ; intro line
G92 E0.0
M221 S95

; Don't change E values below. Excessive value can damage the printer.
M907 E430 ; set extruder motor current
G21 ; set units to millimeters
G90 ; use absolute coordinates
M83 ; use relative distances for extrusion
M900 K0.08 ; Filament gcode LA 1.5
M900 K45 ; Filament gcode LA 1.0
;BEFORE_LAYER_CHANGE
G92 E0.0
;0.2


G1 E-1.40000 F2100.00000
G1 Z0.200 F10800.000
;AFTER_LAYER_CHANGE
;0.2
G1 Z0.400
G1 X96.469 Y52.641
G1 Z0.200
G1 E1.40000 F2100.00000
M204 S1000
G1 F1200.000
G1 X97.060 Y51.591 E0.03778
G1 X97.552 Y50.969 E0.02487
G1 X98.419 Y50.154 E0.03730
G1 X99.077 Y49.705 E0.02499
G1 X100.155 Y49.184 E0.03754
G1 X100.907 Y48.955 E0.02463
G1 X102.050 Y48.782 E0.03623
G1 X154.806 Y48.767 E1.65415
G1 X155.674 Y48.843 E0.02731
G1 X156.435 Y49.005 E0.02439
G1 X157.504 Y49.401 E0.03576
G1 X158.225 Y49.800 E0.02583
G1 X159.134 Y50.500 E0.03599
G1 X159.673 Y51.056 E0.02428
G1 X160.141 Y51.673 E0.02428
G1 X160.700 Y52.689 E0.03635
G1 X161.104 Y53.936 E0.04111
G1 X161.245 Y54.995 E0.03348
G1 X161.218 Y62.807 E0.24497
G1 X142.970 Y156.580 E2.99534
G1 X142.376 Y157.950 E0.04681
G1 X141.737 Y158.867 E0.03504
G1 X141.211 Y159.430 E0.02416
G1 X140.627 Y159.921 E0.02392
G1 X139.676 Y160.514 E0.03516
G1 X138.251 Y161.043 E0.04763
G1 X136.834 Y161.232 E0.04485
G1 X124.207 Y161.233 E0.39590
G1 X122.615 Y161.005 E0.05042
G1 X121.403 Y160.546 E0.04064
G1 X120.192 Y159.774 E0.04503
G1 X90.957 Y135.236 E1.19673
G1 X90.279 Y134.537 E0.03055
G1 X89.596 Y133.554 E0.03754
G1 X89.239 Y132.820 E0.02559
G1 X88.896 Y131.728 E0.03587
G1 X88.768 Y130.887 E0.02666
G1 X88.774 Y129.679 E0.03790
G1 X95.926 Y54.673 E2.36242
G1 X96.177 Y53.420 E0.04008
G1 X96.448 Y52.698 E0.02418
G1 F8640.000
G1 X97.060 Y51.591 E-0.29192
G1 X97.552 Y50.969 E-0.18316
G1 X98.419 Y50.154 E-0.27472
G1 X99.077 Y49.705 E-0.18404
G1 X100.155 Y49.184 E-0.27647
G1 X100.651 Y49.033 E-0.11969
G1 E-0.07000 F2100.00000
G1 Z0.400 F10800.000
G1 X129.316 Y140.823
G1 Z0.200
G1 E1.40000 F2100.00000
G1 F1200.000
G1 X129.823 Y140.705 E0.01633
G1 X130.262 Y140.674 E0.01380
G1 X130.757 Y140.705 E0.01554
G1 X131.218 Y140.805 E0.01480
G1 X131.657 Y140.969 E0.01471
G1 X132.069 Y141.194 E0.01471
G1 X132.445 Y141.475 E0.01471
G1 X132.777 Y141.807 E0.01471
G1 X133.058 Y142.183 E0.01471
G1 X133.283 Y142.594 E0.01471
G1 X133.447 Y143.034 E0.01471
G1 X133.547 Y143.493 E0.01471
G1 X133.580 Y143.961 E0.01471
G1 X133.547 Y144.429 E0.01471
G1 X133.447 Y144.887 E0.01471
G1 X133.283 Y145.327 E0.01471
G1 X133.058 Y145.739 E0.01471
G1 X132.794 Y146.091 E0.01380
G1 X132.447 Y146.445 E0.01554
G1 X132.069 Y146.728 E0.01480
G1 X131.657 Y146.953 E0.01471
G1 X131.218 Y147.117 E0.01471
G1 X130.759 Y147.216 E0.01471
G1 X130.291 Y147.250 E0.01471
G1 X129.823 Y147.216 E0.01471
G1 X129.364 Y147.117 E0.01471
G1 X128.925 Y146.953 E0.01471
G1 X128.513 Y146.728 E0.01471
G1 X128.137 Y146.447 E0.01471
G1 X127.805 Y146.115 E0.01471
G1 X127.524 Y145.739 E0.01471
G1 X127.299 Y145.327 E0.01471
G1 X127.135 Y144.887 E0.01471
G1 X127.035 Y144.429 E0.01471
G1 X127.002 Y143.961 E0.01471
G1 X127.035 Y143.493 E0.01471
G1 X127.135 Y143.034 E0.01471
G1 X127.299 Y142.594 E0.01471
G1 X127.524 Y142.183 E0.01471
G1 X127.805 Y141.807 E0.01471
G1 X128.137 Y141.475 E0.01471
G1 X128.489 Y141.211 E0.01380
G1 X128.922 Y140.970 E0.01554
G1 X129.260 Y140.844 E0.01129
G1 X129.081 Y141.313 F10800.000
G1 F1200.000
G1 X129.471 Y141.168 E0.01305
G1 X129.877 Y141.079 E0.01302
G1 X130.264 Y141.052 E0.01216
G1 X130.704 Y141.079 E0.01385
G1 X131.111 Y141.168 E0.01305
G1 X131.500 Y141.313 E0.01302
G1 X131.865 Y141.512 E0.01302
G1 X132.197 Y141.761 E0.01302
G1 X132.491 Y142.054 E0.01302
G1 X132.740 Y142.387 E0.01302
G1 X132.939 Y142.752 E0.01302
G1 X133.084 Y143.141 E0.01302
G1 X133.172 Y143.547 E0.01302
G1 X133.202 Y143.961 E0.01302
G1 X133.172 Y144.375 E0.01302
G1 X133.084 Y144.781 E0.01302
G1 X132.939 Y145.170 E0.01302
G1 X132.740 Y145.535 E0.01302
G1 X132.508 Y145.845 E0.01216
G1 X132.198 Y146.160 E0.01385
G1 X131.865 Y146.410 E0.01305
G1 X131.500 Y146.609 E0.01302
G1 X131.111 Y146.754 E0.01302
G1 X130.705 Y146.842 E0.01302
G1 X130.291 Y146.872 E0.01302
G1 X129.877 Y146.842 E0.01302
G1 X129.471 Y146.754 E0.01302
G1 X129.082 Y146.609 E0.01302
G1 X128.717 Y146.410 E0.01302
G1 X128.385 Y146.161 E0.01302
G1 X128.091 Y145.867 E0.01302
G1 X127.842 Y145.535 E0.01302
G1 X127.643 Y145.170 E0.01302
G1 X127.498 Y144.781 E0.01302
G1 X127.410 Y144.375 E0.01302
G1 X127.380 Y143.961 E0.01302
G1 X127.410 Y143.547 E0.01302
G1 X127.498 Y143.141 E0.01302
G1 X127.643 Y142.752 E0.01302
G1 X127.842 Y142.387 E0.01302
G1 X128.091 Y142.054 E0.01302
G1 X128.385 Y141.761 E0.01302
G1 X128.695 Y141.528 E0.01216
G1 X129.028 Y141.342 E0.01196
G1 X129.119 Y140.915 F10800.000
G1 F8640.000
G1 X129.471 Y141.168 E-0.10984
G1 X129.877 Y141.079 E-0.09590
G1 X130.264 Y141.052 E-0.08956
G1 X130.704 Y141.079 E-0.10197
G1 X131.111 Y141.168 E-0.09613
G1 X131.500 Y141.313 E-0.09590
G1 X131.865 Y141.512 E-0.09590
G1 X132.197 Y141.761 E-0.09590
G1 X132.491 Y142.054 E-0.09590
G1 X132.740 Y142.387 E-0.09590
G1 X132.939 Y142.752 E-0.09590
G1 X133.084 Y143.141 E-0.09590
G1 X133.172 Y143.547 E-0.09591
G1 X133.194 Y143.846 E-0.06937
G1 E-0.07000 F2100.00000
G1 Z0.400 F10800.000
G1 X130.074 Y62.318
G1 Z0.200
G1 E1.40000 F2100.00000
G1 F1200.000
G1 X129.605 Y62.285 E0.01471
G1 X129.147 Y62.185 E0.01471
G1 X128.707 Y62.021 E0.01471
G1 X128.295 Y61.796 E0.01471
G1 X127.920 Y61.515 E0.01471
G1 X127.588 Y61.183 E0.01471
G1 X127.307 Y60.807 E0.01471
G1 X127.082 Y60.395 E0.01471
G1 X126.918 Y59.956 E0.01471
G1 X126.818 Y59.497 E0.01471
G1 X126.784 Y59.029 E0.01471
G1 X126.818 Y58.561 E0.01471
G1 X126.918 Y58.102 E0.01471
G1 X127.071 Y57.690 E0.01380
G1 X127.305 Y57.253 E0.01554
G1 X127.588 Y56.875 E0.01480
G1 X127.920 Y56.543 E0.01471
G1 X128.295 Y56.262 E0.01471
G1 X128.707 Y56.037 E0.01471
G1 X129.147 Y55.873 E0.01471
G1 X129.605 Y55.773 E0.01471
G1 X130.044 Y55.742 E0.01380
G1 X130.539 Y55.773 E0.01554
G1 X131.000 Y55.873 E0.01480
G1 X131.440 Y56.037 E0.01471
G1 X131.852 Y56.262 E0.01471
G1 X132.227 Y56.543 E0.01471
G1 X132.559 Y56.875 E0.01471
G1 X132.841 Y57.251 E0.01471
G1 X133.065 Y57.663 E0.01471
G1 X133.229 Y58.102 E0.01471
G1 X133.329 Y58.561 E0.01471
G1 X133.363 Y59.029 E0.01471
G1 X133.329 Y59.497 E0.01471
G1 X133.229 Y59.956 E0.01471
G1 X133.065 Y60.395 E0.01471
G1 X132.841 Y60.807 E0.01471
G1 X132.559 Y61.183 E0.01471
G1 X132.227 Y61.515 E0.01471
G1 X131.852 Y61.796 E0.01471
G1 X131.440 Y62.021 E0.01471
G1 X131.000 Y62.185 E0.01471
G1 X130.542 Y62.285 E0.01471
G1 X130.133 Y62.314 E0.01283
G1 X130.106 Y61.938 F10800.000
G1 F1200.000
G1 X129.659 Y61.910 E0.01405
G1 X129.253 Y61.822 E0.01302
G1 X128.864 Y61.677 E0.01302
G1 X128.500 Y61.478 E0.01302
G1 X128.167 Y61.229 E0.01302
G1 X127.874 Y60.935 E0.01302
G1 X127.625 Y60.603 E0.01302
G1 X127.426 Y60.238 E0.01302
G1 X127.280 Y59.849 E0.01302
G1 X127.192 Y59.443 E0.01302
G1 X127.163 Y59.029 E0.01302
G1 X127.192 Y58.615 E0.01302
G1 X127.280 Y58.209 E0.01302
G1 X127.416 Y57.845 E0.01216
G1 X127.624 Y57.456 E0.01385
G1 X127.874 Y57.123 E0.01305
G1 X128.167 Y56.829 E0.01302
G1 X128.500 Y56.580 E0.01302
G1 X128.864 Y56.381 E0.01302
G1 X129.253 Y56.236 E0.01302
G1 X129.659 Y56.148 E0.01302
G1 X130.046 Y56.120 E0.01216
G1 X130.487 Y56.147 E0.01385
G1 X130.894 Y56.236 E0.01305
G1 X131.283 Y56.381 E0.01302
G1 X131.647 Y56.580 E0.01302
G1 X131.980 Y56.829 E0.01302
G1 X132.274 Y57.123 E0.01302
G1 X132.522 Y57.455 E0.01302
G1 X132.722 Y57.820 E0.01302
G1 X132.867 Y58.209 E0.01302
G1 X132.955 Y58.615 E0.01302
G1 X132.985 Y59.029 E0.01302
G1 X132.955 Y59.443 E0.01302
G1 X132.867 Y59.849 E0.01302
G1 X132.722 Y60.238 E0.01302
G1 X132.522 Y60.603 E0.01302
G1 X132.274 Y60.935 E0.01302
G1 X131.980 Y61.229 E0.01302
G1 X131.647 Y61.478 E0.01302
G1 X131.283 Y61.677 E0.01302
G1 X130.894 Y61.822 E0.01302
G1 X130.488 Y61.910 E0.01302
G1 X130.166 Y61.933 E0.01011
G1 X129.909 Y62.286 F10800.000
G1 F8640.000
G1 X129.659 Y61.910 E-0.11720
G1 X129.253 Y61.822 E-0.09590
G1 X128.864 Y61.677 E-0.09590
G1 X128.500 Y61.478 E-0.09590
G1 X128.167 Y61.229 E-0.09590
G1 X127.874 Y60.935 E-0.09591
G1 X127.625 Y60.603 E-0.09590
G1 X127.426 Y60.238 E-0.09590
G1 X127.280 Y59.849 E-0.09590
G1 X127.192 Y59.443 E-0.09591
G1 X127.163 Y59.029 E-0.09590
G1 X127.192 Y58.615 E-0.09590
G1 X127.280 Y58.209 E-0.09590
G1 X127.374 Y57.957 E-0.06195
G1 E-0.07000 F2100.00000
G1 Z0.400 F10800.000
G1 X130.166 Y52.982
G1 Z0.200
G1 E1.40000 F2100.00000
G1 F1200.000
G1 X154.669 Y52.982 E0.76826
G1 X155.051 Y53.024 E0.01205
G1 X155.507 Y53.142 E0.01477
G1 X155.930 Y53.349 E0.01477
G1 X156.302 Y53.638 E0.01477
G1 X156.609 Y53.995 E0.01477
G1 X156.838 Y54.407 E0.01477
G1 X156.977 Y54.850 E0.01456
G1 X157.042 Y55.347 E0.01572
G1 X157.042 Y62.103 E0.21182
G1 X156.977 Y62.600 E0.01572
G1 X156.920 Y62.822 E0.00718
G1 X156.734 Y63.255 E0.01477
G1 X156.465 Y63.641 E0.01477
G1 X156.123 Y63.966 E0.01477
G1 X155.732 Y64.210 E0.01446
G1 X155.398 Y64.341 E0.01125
G1 X155.038 Y64.428 E0.01160
G1 X154.675 Y64.468 E0.01145
G1 X146.685 Y64.468 E0.25053
G1 X146.176 Y64.485 E0.01597
G1 X145.656 Y64.539 E0.01639
G1 X145.141 Y64.628 E0.01639
G1 X144.633 Y64.751 E0.01639
G1 X144.134 Y64.910 E0.01639
G1 X143.648 Y65.101 E0.01639
G1 X143.176 Y65.326 E0.01639
G1 X142.720 Y65.582 E0.01639
G1 X142.283 Y65.869 E0.01639
G1 X141.866 Y66.185 E0.01639
G1 X141.472 Y66.529 E0.01639
G1 X141.102 Y66.898 E0.01639
G1 X140.758 Y67.292 E0.01639
G1 X140.443 Y67.709 E0.01639
G1 X140.156 Y68.146 E0.01639
G1 X139.900 Y68.602 E0.01639
G1 X139.675 Y69.074 E0.01639
G1 X139.483 Y69.561 E0.01639
G1 X139.325 Y70.059 E0.01639
G1 X139.201 Y70.567 E0.01639
G1 X139.112 Y71.082 E0.01639
G1 X139.059 Y71.602 E0.01639
G1 X139.041 Y72.112 E0.01597
G1 X139.042 Y154.653 E2.58802
G1 X138.977 Y155.150 E0.01572
G1 X138.841 Y155.584 E0.01425
G1 X138.673 Y155.901 E0.01125
G1 X138.458 Y156.199 E0.01151
G1 X138.302 Y156.362 E0.00708
G1 X137.930 Y156.651 E0.01477
G1 X137.507 Y156.858 E0.01477
G1 X137.048 Y156.977 E0.01485
G1 X136.675 Y157.018 E0.01177
G1 X124.342 Y157.018 E0.38671
G1 X123.969 Y156.977 E0.01177
G1 X123.735 Y156.929 E0.00748
G1 X123.293 Y156.765 E0.01477
G1 X123.083 Y156.648 E0.00754
G1 X122.791 Y156.452 E0.01104
G1 X93.809 Y132.130 E1.18630
G1 X93.532 Y131.837 E0.01264
G1 X93.262 Y131.450 E0.01479
G1 X93.077 Y131.017 E0.01477
G1 X92.982 Y130.556 E0.01477
G1 X92.982 Y130.085 E0.01477
G1 X93.077 Y129.624 E0.01477
G1 X93.264 Y129.186 E0.01492
G1 X93.444 Y128.887 E0.01094
G1 X97.844 Y123.051 E0.22915
G1 X98.226 Y122.645 E0.01749
G1 X98.517 Y122.386 E0.01221
G1 X98.896 Y122.125 E0.01443
G1 X99.338 Y121.859 E0.01619
G1 X99.948 Y121.587 E0.02092
G1 X100.271 Y121.471 E0.01078
G1 X100.649 Y121.387 E0.01213
G1 X101.569 Y121.310 E0.02894
G1 X102.293 Y121.375 E0.02281
G1 X102.991 Y121.563 E0.02266
G1 X103.419 Y121.742 E0.01454
G1 X103.809 Y121.938 E0.01368
G1 X104.076 Y122.107 E0.00992
G1 X104.634 Y122.521 E0.02178
G1 X115.260 Y131.344 E0.43306
G1 X115.703 Y131.658 E0.01702
G1 X116.267 Y131.931 E0.01965
G1 X116.872 Y132.105 E0.01973
G1 X117.485 Y132.171 E0.01933
G1 X117.825 Y132.164 E0.01066
G1 X118.422 Y132.073 E0.01893
G1 X118.748 Y131.980 E0.01065
G1 X119.280 Y131.750 E0.01818
G1 X119.582 Y131.573 E0.01097
G1 X119.849 Y131.381 E0.01031
G1 X120.273 Y130.985 E0.01818
G1 X120.497 Y130.716 E0.01097
G1 X120.676 Y130.455 E0.00993
G1 X120.838 Y130.171 E0.01025
G1 X121.058 Y129.635 E0.01818
G1 X121.149 Y129.297 E0.01097
G1 X121.205 Y128.973 E0.01031
G1 X121.231 Y128.399 E0.01803
G1 X121.147 Y125.808 E0.08127
G1 X121.105 Y122.312 E0.10961
G1 X121.106 Y72.112 E1.57401
G1 X121.088 Y71.602 E0.01597
G1 X121.035 Y71.082 E0.01639
G1 X120.946 Y70.567 E0.01639
G1 X120.822 Y70.059 E0.01639
G1 X120.664 Y69.561 E0.01639
G1 X120.472 Y69.074 E0.01639
G1 X120.248 Y68.602 E0.01639
G1 X119.991 Y68.146 E0.01639
G1 X119.705 Y67.709 E0.01639
G1 X119.389 Y67.292 E0.01639
G1 X119.045 Y66.898 E0.01639
G1 X118.675 Y66.529 E0.01639
G1 X118.281 Y66.185 E0.01639
G1 X117.865 Y65.869 E0.01639
G1 X117.427 Y65.582 E0.01639
G1 X116.972 Y65.326 E0.01639
G1 X116.499 Y65.101 E0.01639
G1 X116.013 Y64.910 E0.01639
G1 X115.515 Y64.751 E0.01639
G1 X115.007 Y64.628 E0.01639
G1 X114.491 Y64.539 E0.01639
G1 X113.971 Y64.485 E0.01639
G1 X113.462 Y64.468 E0.01597
G1 X102.472 Y64.468 E0.34459
G1 X102.099 Y64.427 E0.01177
G1 X101.649 Y64.311 E0.01455
G1 X101.324 Y64.159 E0.01125
G1 X101.016 Y63.959 E0.01151
G1 X100.682 Y63.641 E0.01445
G1 X100.538 Y63.455 E0.00739
G1 X100.309 Y63.043 E0.01477
G1 X100.170 Y62.600 E0.01456
G1 X100.105 Y62.103 E0.01572
G1 X100.105 Y55.347 E0.21182
G1 X100.170 Y54.850 E0.01572
G1 X100.309 Y54.407 E0.01456
G1 X100.533 Y54.003 E0.01446
G1 X100.762 Y53.727 E0.01125
G1 X101.032 Y53.478 E0.01152
G1 X101.217 Y53.349 E0.00708
G1 X101.640 Y53.142 E0.01477
G1 X101.865 Y53.071 E0.00739
G1 X102.099 Y53.023 E0.00748
G1 X102.472 Y52.982 E0.01177
G1 X130.106 Y52.982 E0.86646
G1 X130.106 Y52.605 F10800.000
G1 F1200.000
G1 X154.694 Y52.605 E0.77092
G1 X155.108 Y52.651 E0.01307
G1 X155.377 Y52.706 E0.00859
G1 X155.638 Y52.788 E0.00859
G1 X155.890 Y52.896 E0.00859
G1 X156.130 Y53.029 E0.00859
G1 X156.355 Y53.186 E0.00859
G1 X156.563 Y53.364 E0.00859
G1 X156.751 Y53.563 E0.00859
G1 X156.919 Y53.779 E0.00859
G1 X157.064 Y54.012 E0.00859
G1 X157.185 Y54.258 E0.00859
G1 X157.280 Y54.515 E0.00859
G1 X157.348 Y54.778 E0.00852
G1 X157.419 Y55.323 E0.01722
G1 X157.419 Y62.127 E0.21335
G1 X157.348 Y62.672 E0.01722
G1 X157.280 Y62.935 E0.00852
G1 X157.185 Y63.192 E0.00859
G1 X157.064 Y63.438 E0.00859
G1 X156.919 Y63.671 E0.00859
G1 X156.751 Y63.887 E0.00859
G1 X156.563 Y64.086 E0.00859
G1 X156.355 Y64.264 E0.00859
G1 X156.130 Y64.421 E0.00859
G1 X155.893 Y64.552 E0.00848
G1 X155.511 Y64.701 E0.01285
G1 X155.104 Y64.800 E0.01315
G1 X154.696 Y64.845 E0.01286
G1 X146.692 Y64.845 E0.25098
G1 X146.202 Y64.862 E0.01537
G1 X145.707 Y64.913 E0.01559
G1 X145.217 Y64.997 E0.01559
G1 X144.734 Y65.115 E0.01559
G1 X144.261 Y65.265 E0.01559
G1 X143.798 Y65.447 E0.01559
G1 X143.349 Y65.661 E0.01559
G1 X142.916 Y65.905 E0.01559
G1 X142.500 Y66.177 E0.01559
G1 X142.104 Y66.478 E0.01559
G1 X141.729 Y66.804 E0.01559
G1 X141.378 Y67.156 E0.01559
G1 X141.051 Y67.531 E0.01559
G1 X140.751 Y67.927 E0.01559
G1 X140.478 Y68.342 E0.01559
G1 X140.235 Y68.776 E0.01559
G1 X140.021 Y69.225 E0.01559
G1 X139.839 Y69.687 E0.01559
G1 X139.688 Y70.161 E0.01559
G1 X139.571 Y70.644 E0.01559
G1 X139.486 Y71.134 E0.01559
G1 X139.435 Y71.628 E0.01559
G1 X139.419 Y72.118 E0.01537
G1 X139.419 Y154.677 E2.58859
G1 X139.348 Y155.222 E0.01722
G1 X139.280 Y155.485 E0.00852
G1 X139.186 Y155.739 E0.00848
G1 X138.993 Y156.100 E0.01285
G1 X138.749 Y156.440 E0.01312
G1 X138.563 Y156.636 E0.00848
G1 X138.355 Y156.814 E0.00859
G1 X138.130 Y156.971 E0.00859
G1 X137.890 Y157.104 E0.00859
G1 X137.638 Y157.212 E0.00859
G1 X137.377 Y157.294 E0.00859
G1 X137.107 Y157.349 E0.00862
