; generated by PrusaSlicer 2.2.0+win64 on 2020-09-29 at 15:45:45 UTC

; 

; external perimeters extrusion width = 0.60mm
; perimeters extrusion width = 0.50mm
; infill extrusion width = 0.50mm
; solid infill extrusion width = 0.50mm
; top infill extrusion width = 0.45mm
; first layer extrusion width = 0.42mm

M73 P0 R75
M73 Q0 S75
M201 X1000 Y1000 Z200 E5000 ; sets maximum accelerations, mm/sec^2
M203 X200 Y200 Z12 E120 ; sets maximum feedrates, mm/sec
M204 P1250 R1250 T1250 ; sets acceleration (P, T) and retract acceleration (R), mm/sec^2
M205 X8.00 Y8.00 Z0.40 E4.50 ; sets the jerk limits, mm/sec
M205 S0 T0 ; sets the minimum extruding and travel feed rate, mm/sec
M107
M862.3 P "MK3S" ; printer model check
M862.1 P0.4 ; nozzle diameter check
M115 U3.9.0 ; tell printer latest fw version
G90 ; use absolute coordinates
M83 ; extruder relative mode
M104 S240 ; set extruder temp
M140 S85 ; set bed temp
M190 S85 ; wait for bed temp
M109 S240 ; wait for extruder temp
G28 W ; home all without mesh bed level
G80 ; mesh bed leveling
G1 Y-3.0 F1000.0 ; go outside print area
G92 E0.0
G1 X60.0 E9.0 F1000.0 ; intro line
M73 Q0 S75
M73 P0 R75
G1 X100.0 E12.5 F1000.0 ; intro line
G92 E0.0
M221 S95

; Don't change E values below. Excessive value can damage the printer.

M907 E538 ; set extruder motor current
G21 ; set units to millimeters
G90 ; use absolute coordinates
M83 ; use relative distances for extrusion
M900 K0.08 ; Filament gcode LA 1.5
M900 K45 ; Filament gcode LA 1.0
;BEFORE_LAYER_CHANGE
G92 E0.0
;0.2


G1 E-1.40000 F2100.00000
G1 Z0.200 F10800.000
;AFTER_LAYER_CHANGE
;0.2
G1 Z0.400
G1 X85.351 Y16.219
G1 Z0.200
G1 E1.40000 F2100.00000
M204 S1000
G1 F1200.000
G1 X85.582 Y15.023 E0.03820
G1 X86.043 Y13.612 E0.04654
G1 X86.648 Y12.378 E0.04309
G1 X87.414 Y11.232 E0.04321
G1 X88.398 Y10.131 E0.04630
G1 X89.313 Y9.332 E0.03808
G1 X90.306 Y8.660 E0.03760
G1 X91.528 Y8.033 E0.04308
G1 X92.921 Y7.542 E0.04630
G1 X94.295 Y7.268 E0.04393
G1 X95.617 Y7.180 E0.04154
G1 X150.626 Y7.180 E1.72476
G1 X151.396 Y7.309 E0.02449
G1 X154.948 Y8.670 E0.11927
G1 X158.517 Y11.062 E0.13470
G1 X161.146 Y13.801 E0.11905
G1 X163.140 Y17.037 E0.11917
G1 X164.480 Y20.801 E0.12529
G1 X164.591 Y21.283 E0.01550
G1 X164.992 Y25.047 E0.11869
G1 X164.992 Y117.057 E2.88489
G1 X164.562 Y121.011 E0.12471
G1 X150.390 Y178.258 E1.84912
G1 X149.605 Y180.742 E0.08168
G1 X148.618 Y183.178 E0.08243
G1 X147.450 Y185.516 E0.08192
G1 X146.097 Y187.765 E0.08231
G1 X144.588 Y189.878 E0.08142
G1 X143.222 Y191.530 E0.06719
G1 X141.425 Y193.412 E0.08160
G1 X139.473 Y195.161 E0.08217
G1 X137.390 Y196.751 E0.08217
G1 X135.204 Y198.163 E0.08157
G1 X133.334 Y199.191 E0.06691
G1 X130.970 Y200.280 E0.08160
G1 X128.512 Y201.187 E0.08217
G1 X126.008 Y201.894 E0.08158
G1 X123.918 Y202.326 E0.06692
G1 X121.339 Y202.672 E0.08160
G1 X118.741 Y202.816 E0.08158
G1 X116.607 Y202.782 E0.06691
G1 X114.014 Y202.557 E0.08160
G1 X111.444 Y202.130 E0.08169
G1 X108.889 Y201.496 E0.08253
G1 X106.417 Y200.672 E0.08169
G1 X104.446 Y199.855 E0.06692
G1 X102.102 Y198.683 E0.08217
G1 X99.873 Y197.340 E0.08160
G1 X97.740 Y195.816 E0.08217
G1 X95.734 Y194.130 E0.08217
G1 X93.867 Y192.291 E0.08217
G1 X92.154 Y190.318 E0.08192
G1 X90.596 Y188.210 E0.08217
G1 X89.211 Y185.990 E0.08205
G1 X88.009 Y183.679 E0.08167
G1 X87.158 Y181.713 E0.06719
G1 X86.293 Y179.248 E0.08190
G1 X85.624 Y176.724 E0.08187
G1 X85.154 Y174.146 E0.08216
G1 X85.008 Y172.843 E0.04109
G1 X85.264 Y17.549 E4.86915
G1 X85.347 Y16.279 E0.03992
G1 F8640.000
G1 X85.582 Y15.023 E-0.29506
G1 X86.043 Y13.612 E-0.34271
G1 X86.648 Y12.378 E-0.31734
G1 X87.414 Y11.232 E-0.31822
G1 X87.578 Y11.049 E-0.05668
G1 E-0.07000 F2100.00000
G1 Z0.400 F10800.000
G1 X156.529 Y36.557
G1 Z0.200
G1 E1.40000 F2100.00000
G1 F1200.000
G1 X158.640 Y38.742 E0.09529
G1 X160.380 Y41.587 E0.10455
G1 X161.458 Y44.742 E0.10455
G1 X161.823 Y48.057 E0.10455
G1 X161.458 Y51.371 E0.10455
G1 X160.380 Y54.527 E0.10455
G1 X158.640 Y57.371 E0.10455
G1 X156.529 Y59.557 E0.09529
G1 X158.640 Y61.742 E0.09529
G1 X160.380 Y64.587 E0.10455
G1 X161.458 Y67.742 E0.10455
G1 X161.823 Y71.057 E0.10455
G1 X161.458 Y74.371 E0.10455
G1 X160.380 Y77.527 E0.10455
G1 X158.641 Y80.371 E0.10455
G1 X156.529 Y82.557 E0.09529
G1 X158.640 Y84.742 E0.09529
G1 X160.380 Y87.587 E0.10455
G1 X161.458 Y90.742 E0.10455
G1 X161.823 Y94.057 E0.10455
G1 X161.458 Y97.371 E0.10455
G1 X160.380 Y100.527 E0.10455
G1 X158.641 Y103.371 E0.10455
G1 X156.529 Y105.557 E0.09529
G1 X158.640 Y107.742 E0.09529
G1 X160.380 Y110.587 E0.10455
G1 X161.458 Y113.742 E0.10455
G1 X161.823 Y117.057 E0.10455
G1 X161.458 Y120.371 E0.10455
G1 X160.380 Y123.527 E0.10455
G1 X158.640 Y126.371 E0.10455
G1 X156.323 Y128.769 E0.10455
G1 X153.540 Y130.605 E0.10455
G1 X150.477 Y131.770 E0.10273
G1 X134.310 Y131.770 E0.50691
G1 X133.420 Y131.887 E0.02816
G1 X132.542 Y132.250 E0.02979
G1 X131.788 Y132.829 E0.02979
G1 X131.209 Y133.582 E0.02979
G1 X130.845 Y134.460 E0.02979
G1 X130.721 Y135.402 E0.02979
G1 X130.845 Y136.345 E0.02979
G1 X131.191 Y137.180 E0.02834
G1 X132.418 Y139.236 E0.07507
G1 X140.194 Y148.729 E0.38477
G1 X141.777 Y150.553 E0.07570
G1 X143.191 Y152.467 E0.07462
G1 X143.960 Y153.659 E0.04447
G1 X144.441 Y154.472 E0.02961
G1 X145.118 Y155.726 E0.04471
G1 X145.735 Y157.012 E0.04471
G1 X146.111 Y157.881 E0.02969
G1 X146.461 Y158.763 E0.02976
G1 X146.782 Y159.656 E0.02976
G1 X147.075 Y160.557 E0.02969
G1 X147.462 Y161.931 E0.04478
G1 X147.683 Y162.852 E0.02969
G1 X147.875 Y163.779 E0.02969
G1 X148.110 Y165.186 E0.04471
G1 X148.277 Y166.600 E0.04464
G1 X148.377 Y168.020 E0.04464
G1 X148.411 Y169.443 E0.04464
G1 X148.377 Y170.866 E0.04464
G1 X148.277 Y172.288 E0.04471
G1 X148.173 Y173.230 E0.02969
G1 X148.039 Y174.167 E0.02969
G1 X147.783 Y175.570 E0.04471
G1 X147.462 Y176.957 E0.04464
G1 X147.075 Y178.329 E0.04471
G1 X146.782 Y179.229 E0.02969
G1 X146.461 Y180.120 E0.02969
G1 X145.925 Y181.444 E0.04478
G1 X145.536 Y182.307 E0.02969
G1 X145.122 Y183.151 E0.02948
G1 X144.442 Y184.412 E0.04491
G1 X143.706 Y185.634 E0.04471
G1 X143.188 Y186.423 E0.02961
G1 X142.357 Y187.585 E0.04478
G1 X141.779 Y188.332 E0.02961
G1 X140.860 Y189.425 E0.04478
G1 X140.222 Y190.125 E0.02969
G1 X139.562 Y190.807 E0.02976
G1 X138.882 Y191.466 E0.02969
G1 X137.818 Y192.419 E0.04478
G1 X137.090 Y193.021 E0.02961
G1 X135.955 Y193.887 E0.04478
G1 X135.177 Y194.434 E0.02982
G1 X133.982 Y195.205 E0.04458
G1 X133.169 Y195.686 E0.02962
G1 X131.914 Y196.363 E0.04471
G1 X130.629 Y196.980 E0.04471
G1 X129.760 Y197.356 E0.02969
G1 X128.880 Y197.705 E0.02969
G1 X127.534 Y198.177 E0.04471
G1 X126.168 Y198.586 E0.04471
G1 X125.251 Y198.821 E0.02969
G1 X124.325 Y199.028 E0.02976
G1 X123.392 Y199.206 E0.02976
G1 X122.457 Y199.354 E0.02969
G1 X121.039 Y199.522 E0.04478
G1 X120.095 Y199.596 E0.02969
G1 X119.147 Y199.641 E0.02976
G1 X118.200 Y199.656 E0.02969
G1 X116.775 Y199.622 E0.04471
G1 X115.352 Y199.522 E0.04471
G1 X114.413 Y199.418 E0.02962
G1 X113.001 Y199.206 E0.04478
G1 X112.073 Y199.029 E0.02961
G1 X110.684 Y198.707 E0.04471
G1 X109.312 Y198.320 E0.04471
G1 X108.413 Y198.028 E0.02961
G1 X107.076 Y197.534 E0.04471
G1 X105.765 Y196.979 E0.04464
G1 X104.481 Y196.363 E0.04464
G1 X103.227 Y195.686 E0.04471
G1 X102.414 Y195.205 E0.02962
G1 X101.216 Y194.432 E0.04471
G1 X100.057 Y193.604 E0.04464
G1 X98.938 Y192.721 E0.04471
G1 X98.218 Y192.106 E0.02969
G1 X97.517 Y191.469 E0.02969
G1 X96.501 Y190.469 E0.04471
G1 X95.533 Y189.421 E0.04471
G1 X94.920 Y188.703 E0.02962
G1 X94.037 Y187.583 E0.04471
G1 X93.209 Y186.425 E0.04464
G1 X92.436 Y185.227 E0.04471
G1 X91.954 Y184.412 E0.02969
G1 X91.498 Y183.583 E0.02969
G1 X90.860 Y182.307 E0.04471
G1 X90.285 Y181.005 E0.04464
G1 X89.771 Y179.677 E0.04464
G1 X89.320 Y178.327 E0.04464
G1 X88.934 Y176.957 E0.04464
G1 X88.612 Y175.567 E0.04471
G1 X88.435 Y174.637 E0.02969
G1 X88.286 Y173.700 E0.02976
G1 X88.173 Y172.802 E0.02838
G1 X88.190 Y171.699 E0.03460
G1 X88.468 Y170.677 E0.03321
G1 X88.992 Y169.756 E0.03321
G1 X89.728 Y168.994 E0.03321
G1 X90.630 Y168.439 E0.03321
G1 X91.641 Y168.125 E0.03321
G1 X92.699 Y168.071 E0.03321
G1 X93.737 Y168.282 E0.03321
G1 X94.690 Y168.744 E0.03321
G1 X95.499 Y169.428 E0.03321
G1 X96.112 Y170.292 E0.03321
G1 X96.498 Y171.296 E0.03372
G1 X97.010 Y174.530 E0.10266
G1 X98.067 Y177.781 E0.10721
G1 X99.619 Y180.828 E0.10721
G1 X101.629 Y183.594 E0.10721
G1 X104.036 Y186.001 E0.10672
G1 X105.391 Y187.069 E0.05413
G1 X106.809 Y188.017 E0.05345
G1 X107.718 Y188.545 E0.03296
G1 X110.488 Y189.821 E0.09563
G1 X112.446 Y190.458 E0.06456
G1 X114.127 Y190.847 E0.05413
G1 X117.159 Y191.206 E0.09572
G1 X118.879 Y191.220 E0.05393
G1 X120.248 Y191.134 E0.04301
G1 X121.618 Y190.961 E0.04330
G1 X124.259 Y190.370 E0.08482
G1 X124.954 Y190.156 E0.02282
G1 X128.090 Y188.857 E0.10643
G1 X130.984 Y187.084 E0.10643
G1 X131.571 Y186.643 E0.02301
G1 X134.082 Y184.359 E0.10643
G1 X136.218 Y181.693 E0.10711
G1 X137.760 Y179.037 E0.09631
G1 X138.576 Y177.153 E0.06436
G1 X138.926 Y176.155 E0.03316
G1 X139.719 Y172.852 E0.10652
G1 X139.986 Y169.458 E0.10672
G1 X139.918 Y167.724 E0.05442
G1 X139.533 Y165.018 E0.08570
G1 X138.585 Y161.756 E0.10652
G1 X137.912 Y160.166 E0.05413
G1 X137.120 Y158.642 E0.05383
G1 X135.825 Y156.636 E0.07487
G1 X120.461 Y137.726 E0.76394
G1 X115.637 Y132.025 E0.23415
G1 X115.126 Y131.507 E0.02283
G1 X114.744 Y130.991 E0.02013
G1 X114.438 Y130.427 E0.02013
G1 X114.215 Y129.825 E0.02013
G1 X114.080 Y129.197 E0.02013
G1 X114.035 Y128.557 E0.02013
G1 X114.080 Y127.916 E0.02013
G1 X114.215 Y127.289 E0.02013
G1 X114.438 Y126.687 E0.02013
G1 X114.744 Y126.122 E0.02013
G1 X115.126 Y125.606 E0.02013
G1 X115.209 Y125.521 E0.00374
G1 X115.688 Y125.344 E0.01601
G1 X150.897 Y125.344 E1.10396
G1 X152.314 Y124.213 E0.05683
G1 X153.386 Y123.024 E0.05021
G1 X154.252 Y121.676 E0.05021
G1 X154.887 Y120.206 E0.05021
G1 X155.274 Y118.653 E0.05021
G1 X155.405 Y117.057 E0.05021
G1 X155.274 Y115.461 E0.05021
G1 X154.887 Y113.907 E0.05021
G1 X154.252 Y112.437 E0.05021
G1 X153.386 Y111.090 E0.05021
G1 X152.314 Y109.901 E0.05021
G1 X150.897 Y108.770 E0.05683
G1 X97.347 Y108.770 E1.67903
G1 X96.706 Y108.902 E0.02051
G1 X95.924 Y109.337 E0.02807
G1 X95.424 Y109.838 E0.02220
G1 X95.192 Y110.184 E0.01306
G1 X94.923 Y110.834 E0.02205
G1 X94.835 Y111.505 E0.02124
G1 X94.835 Y113.505 E0.06271
G1 X94.719 Y114.384 E0.02780
G1 X94.400 Y115.155 E0.02616
G1 X93.892 Y115.817 E0.02616
G1 X93.230 Y116.325 E0.02616
G1 X92.459 Y116.644 E0.02616
G1 X91.631 Y116.753 E0.02616
G1 X90.804 Y116.644 E0.02616
G1 X90.033 Y116.325 E0.02616
G1 X89.371 Y115.817 E0.02616
G1 X88.863 Y115.155 E0.02616
G1 X88.544 Y114.384 E0.02616
G1 X88.428 Y113.505 E0.02780
G1 X88.428 Y109.583 E0.12299
G1 X88.491 Y108.617 E0.03034
G1 X88.675 Y107.693 E0.02953
G1 X88.977 Y106.801 E0.02953
G1 X89.393 Y105.956 E0.02953
G1 X89.915 Y105.173 E0.02953
G1 X90.536 Y104.464 E0.02953
G1 X91.243 Y103.842 E0.02953
G1 X92.025 Y103.317 E0.02953
G1 X92.869 Y102.899 E0.02953
G1 X93.761 Y102.595 E0.02953
G1 X94.684 Y102.409 E0.02953
G1 X95.648 Y102.344 E0.03031
G1 X150.897 Y102.344 E1.73229
G1 X152.314 Y101.213 E0.05683
G1 X153.386 Y100.024 E0.05021
G1 X154.252 Y98.676 E0.05021
G1 X154.887 Y97.206 E0.05021
G1 X155.274 Y95.653 E0.05021
G1 X155.405 Y94.057 E0.05021
G1 X155.274 Y92.461 E0.05021
G1 X154.887 Y90.907 E0.05021
G1 X154.252 Y89.437 E0.05021
G1 X153.386 Y88.090 E0.05021
G1 X152.314 Y86.901 E0.05021
G1 X150.897 Y85.770 E0.05683
G1 X97.347 Y85.770 E1.67903
M73 Q1 S74
M73 P1 R74
G1 X96.706 Y85.902 E0.02051
G1 X95.924 Y86.337 E0.02807
G1 X95.424 Y86.838 E0.02220
G1 X95.192 Y87.184 E0.01306
G1 X94.923 Y87.834 E0.02205
G1 X94.835 Y88.505 E0.02124
G1 X94.835 Y90.505 E0.06271
G1 X94.719 Y91.384 E0.02780
G1 X94.400 Y92.155 E0.02616
G1 X93.892 Y92.817 E0.02616
G1 X93.230 Y93.325 E0.02616
G1 X92.459 Y93.644 E0.02616
G1 X91.631 Y93.753 E0.02616
G1 X90.804 Y93.644 E0.02616
G1 X90.033 Y93.325 E0.02616
G1 X89.371 Y92.817 E0.02616
G1 X88.863 Y92.155 E0.02616
G1 X88.544 Y91.384 E0.02616
G1 X88.428 Y90.505 E0.02780
G1 X88.428 Y86.583 E0.12299
G1 X88.491 Y85.617 E0.03034
G1 X88.675 Y84.693 E0.02953
G1 X88.977 Y83.801 E0.02953
G1 X89.393 Y82.956 E0.02953
G1 X89.915 Y82.173 E0.02953
G1 X90.536 Y81.464 E0.02953
G1 X91.243 Y80.842 E0.02953
G1 X92.025 Y80.317 E0.02953
G1 X92.869 Y79.899 E0.02953
G1 X93.761 Y79.595 E0.02953
G1 X94.684 Y79.409 E0.02953
G1 X95.648 Y79.344 E0.03031
G1 X150.897 Y79.344 E1.73229
G1 X152.314 Y78.213 E0.05683
G1 X153.386 Y77.024 E0.05021
G1 X154.252 Y75.676 E0.05021
G1 X154.887 Y74.206 E0.05021
G1 X155.274 Y72.653 E0.05021
G1 X155.405 Y71.057 E0.05021
G1 X155.274 Y69.461 E0.05021
G1 X154.887 Y67.907 E0.05021
G1 X154.252 Y66.437 E0.05021
G1 X153.386 Y65.090 E0.05021
G1 X152.314 Y63.901 E0.05021
G1 X150.897 Y62.770 E0.05683
G1 X97.347 Y62.770 E1.67903
G1 X96.706 Y62.902 E0.02051
G1 X95.924 Y63.337 E0.02807
G1 X95.424 Y63.838 E0.02220
G1 X95.192 Y64.184 E0.01306
G1 X94.923 Y64.834 E0.02205
G1 X94.835 Y65.505 E0.02124
G1 X94.835 Y67.505 E0.06271
G1 X94.719 Y68.384 E0.02780
G1 X94.400 Y69.155 E0.02616
G1 X93.892 Y69.817 E0.02616
G1 X93.230 Y70.325 E0.02616
G1 X92.459 Y70.644 E0.02616
G1 X91.631 Y70.753 E0.02616
G1 X90.804 Y70.644 E0.02616
G1 X90.033 Y70.325 E0.02616
G1 X89.371 Y69.817 E0.02616
G1 X88.863 Y69.155 E0.02616
G1 X88.544 Y68.384 E0.02616
G1 X88.428 Y67.505 E0.02780
G1 X88.428 Y63.583 E0.12299
G1 X88.491 Y62.617 E0.03034
G1 X88.675 Y61.693 E0.02953
G1 X88.977 Y60.801 E0.02953
G1 X89.393 Y59.956 E0.02953
G1 X89.915 Y59.173 E0.02953
G1 X90.536 Y58.464 E0.02953
G1 X91.243 Y57.842 E0.02953
G1 X92.025 Y57.317 E0.02953
G1 X92.869 Y56.899 E0.02953
G1 X93.761 Y56.595 E0.02953
G1 X94.684 Y56.409 E0.02953
G1 X95.648 Y56.344 E0.03031
G1 X150.897 Y56.344 E1.73229
G1 X152.314 Y55.213 E0.05683
G1 X153.386 Y54.024 E0.05021
G1 X154.252 Y52.676 E0.05021
G1 X154.887 Y51.206 E0.05021
G1 X155.274 Y49.653 E0.05021
G1 X155.405 Y48.057 E0.05021
G1 X155.274 Y46.461 E0.05021
G1 X154.887 Y44.907 E0.05021
G1 X154.252 Y43.437 E0.05021
G1 X153.386 Y42.090 E0.05021
G1 X152.314 Y40.901 E0.05021
G1 X150.897 Y39.770 E0.05683
G1 X97.347 Y39.770 E1.67903
G1 X96.706 Y39.902 E0.02051
G1 X95.924 Y40.337 E0.02807
G1 X95.424 Y40.838 E0.02220
G1 X95.192 Y41.184 E0.01306
G1 X94.923 Y41.834 E0.02205
G1 X94.835 Y42.505 E0.02124
G1 X94.835 Y44.505 E0.06271
G1 X94.719 Y45.384 E0.02780
G1 X94.400 Y46.155 E0.02616
G1 X93.892 Y46.817 E0.02616
G1 X93.230 Y47.325 E0.02616
G1 X92.459 Y47.644 E0.02616
G1 X91.631 Y47.753 E0.02616
G1 X90.804 Y47.644 E0.02616
G1 X90.033 Y47.325 E0.02616
G1 X89.371 Y46.817 E0.02616
G1 X88.863 Y46.155 E0.02616
G1 X88.544 Y45.384 E0.02616
G1 X88.428 Y44.505 E0.02780
G1 X88.428 Y40.583 E0.12299
G1 X88.491 Y39.617 E0.03034
G1 X88.675 Y38.693 E0.02953
G1 X88.977 Y37.801 E0.02953
G1 X89.393 Y36.956 E0.02953
G1 X89.915 Y36.173 E0.02953
G1 X90.536 Y35.464 E0.02953
G1 X91.243 Y34.842 E0.02953
G1 X92.029 Y34.316 E0.02967
G1 X92.869 Y33.899 E0.02940
G1 X93.761 Y33.595 E0.02953
G1 X94.684 Y33.409 E0.02953
G1 X95.648 Y33.344 E0.03031
G1 X150.897 Y33.344 E1.73229
G1 X152.314 Y32.213 E0.05683
G1 X153.386 Y31.024 E0.05021
G1 X154.252 Y29.676 E0.05021
G1 X154.887 Y28.206 E0.05021
G1 X155.274 Y26.653 E0.05021
G1 X155.405 Y25.057 E0.05021
G1 X155.274 Y23.461 E0.05021
G1 X154.887 Y21.907 E0.05021
G1 X154.252 Y20.437 E0.05021
G1 X153.386 Y19.090 E0.05021
G1 X152.314 Y17.901 E0.05021
G1 X150.897 Y16.770 E0.05683
G1 X97.347 Y16.770 E1.67903
G1 X96.706 Y16.902 E0.02051
G1 X95.924 Y17.337 E0.02807
G1 X95.424 Y17.838 E0.02220
G1 X95.192 Y18.184 E0.01306
G1 X94.923 Y18.834 E0.02205
G1 X94.835 Y19.505 E0.02124
G1 X94.835 Y21.505 E0.06271
G1 X94.719 Y22.384 E0.02780
G1 X94.400 Y23.155 E0.02616
G1 X93.892 Y23.817 E0.02616
G1 X93.230 Y24.325 E0.02616
G1 X92.459 Y24.644 E0.02616
G1 X91.631 Y24.753 E0.02616
G1 X90.804 Y24.644 E0.02616
G1 X90.033 Y24.325 E0.02616
G1 X89.371 Y23.817 E0.02616
G1 X88.863 Y23.155 E0.02616
G1 X88.544 Y22.384 E0.02616
G1 X88.428 Y21.505 E0.02780
G1 X88.428 Y17.583 E0.12299
G1 X88.491 Y16.617 E0.03034
G1 X88.675 Y15.693 E0.02953
G1 X88.977 Y14.801 E0.02953
G1 X89.393 Y13.956 E0.02953
