; generated by PrusaSlicer 2.2.0+win64 on 2020-10-01 at 19:32:37 UTC

; 

; external perimeters extrusion width = 0.60mm
; perimeters extrusion width = 0.50mm
; infill extrusion width = 0.50mm
; solid infill extrusion width = 0.50mm
; top infill extrusion width = 0.45mm
; first layer extrusion width = 0.42mm

M73 P0 R275
M73 Q0 S280
M201 X1000 Y1000 Z200 E5000 ; sets maximum accelerations, mm/sec^2
M203 X200 Y200 Z12 E120 ; sets maximum feedrates, mm/sec
M204 P1250 R1250 T1250 ; sets acceleration (P, T) and retract acceleration (R), mm/sec^2
M205 X8.00 Y8.00 Z0.40 E4.50 ; sets the jerk limits, mm/sec
M205 S0 T0 ; sets the minimum extruding and travel feed rate, mm/sec
M107
M862.3 P "MK3S" ; printer model check
M862.1 P0.4 ; nozzle diameter check
M115 U3.9.1 ; tell printer latest fw version
G90 ; use absolute coordinates
M83 ; extruder relative mode
M104 S240 ; set extruder temp
M140 S85 ; set bed temp
M190 S85 ; wait for bed temp
M109 S240 ; wait for extruder temp
G28 W ; home all without mesh bed level
G80 ; mesh bed leveling
G1 Y-3.0 F1000.0 ; go outside print area
G92 E0.0
G1 X60.0 E9.0 F1000.0 ; intro line
M73 Q0 S280
M73 P0 R275
G1 X100.0 E12.5 F1000.0 ; intro line
G92 E0.0
M221 S95

; Don't change E values below. Excessive value can damage the printer.

M907 E538 ; set extruder motor current
G21 ; set units to millimeters
G90 ; use absolute coordinates
M83 ; use relative distances for extrusion
M900 K0.08 ; Filament gcode LA 1.5
M900 K45 ; Filament gcode LA 1.0
;BEFORE_LAYER_CHANGE
G92 E0.0
;0.2


G1 Z0.200 F10800.000
;AFTER_LAYER_CHANGE
;0.2
G1 E-1.40000 F2400.00000
G1 Z0.400 F10800.000
G1 X71.056 Y73.333
G1 Z0.200
G1 E1.40000 F2400.00000
M204 S1000
G1 F1200.000
G1 X71.531 Y72.960 E0.01894
G1 X72.114 Y72.710 E0.01989
G1 X72.742 Y72.623 E0.01989
G1 X177.253 Y72.623 E3.27685
G1 X178.151 Y72.801 E0.02872
G1 X178.916 Y73.305 E0.02872
G1 X179.433 Y74.062 E0.02872
G1 X179.626 Y74.957 E0.02872
G1 X179.626 Y135.046 E1.88404
G1 X179.538 Y135.640 E0.01882
G1 X179.305 Y136.193 E0.01882
G1 X178.941 Y136.670 E0.01882
G1 X178.469 Y137.040 E0.01882
G1 X177.886 Y137.290 E0.01989
G1 X177.258 Y137.377 E0.01989
G1 X72.732 Y137.377 E3.27733
G1 X72.130 Y137.294 E0.01906
G1 X71.568 Y137.062 E0.01906
G1 X71.087 Y136.697 E0.01894
G1 X70.711 Y136.220 E0.01906
G1 X70.462 Y135.641 E0.01977
G1 X70.374 Y135.013 E0.01989
G1 X70.374 Y74.970 E1.88261
G1 X70.459 Y74.371 E0.01894
G1 X70.691 Y73.814 E0.01894
G1 X71.020 Y73.381 E0.01706
G1 E-1.40000 F2400.00000
G1 Z0.400 F10800.000
G1 X73.538 Y75.787
G1 Z0.200
G1 E1.40000 F2400.00000
G1 F1200.000
G1 X176.462 Y75.787 E3.22711
G1 X176.462 Y134.213 E1.83190
G1 X73.538 Y134.213 E3.22711
G1 X73.538 Y75.847 E1.83002
G1 X73.161 Y75.410 F10800.000
G1 F1200.000
G1 X176.839 Y75.410 E3.25075
G1 X176.839 Y134.590 E1.85555
G1 X73.161 Y134.590 E3.25075
G1 X73.161 Y75.470 E1.85367
G1 X73.555 Y75.479 F10800.000
G1 E-1.40000 F2400.00000
G1 Z0.400 F10800.000
G1 X176.349 Y76.665
G1 Z0.200
G1 E1.40000 F2400.00000
G1 F1200.000
G1 X175.754 Y76.070 E0.02645
G1 X175.219 Y76.070 E0.01682
G1 X176.179 Y77.030 E0.04269
G1 X176.179 Y77.565 E0.01682
G1 X174.684 Y76.070 E0.06647
G1 X174.150 Y76.070 E0.01682
G1 X176.179 Y78.099 E0.09025
G1 X176.179 Y78.634 E0.01682
G1 X173.615 Y76.070 E0.11403
G1 X173.080 Y76.070 E0.01682
G1 X176.179 Y79.169 E0.13781
G1 X176.179 Y79.704 E0.01682
G1 X172.545 Y76.070 E0.16159
G1 X172.010 Y76.070 E0.01682
G1 X176.179 Y80.239 E0.18538
G1 X176.179 Y80.773 E0.01682
G1 X171.476 Y76.070 E0.20916
G1 X170.941 Y76.070 E0.01682
G1 X176.179 Y81.308 E0.23294
G1 X176.179 Y81.843 E0.01682
G1 X170.406 Y76.070 E0.25672
G1 X169.871 Y76.070 E0.01682
G1 X176.179 Y82.378 E0.28050
G1 X176.179 Y82.913 E0.01682
G1 X169.336 Y76.070 E0.30428
G1 X168.802 Y76.070 E0.01682
G1 X176.179 Y83.447 E0.32806
G1 X176.179 Y83.982 E0.01682
G1 X168.267 Y76.070 E0.35184
G1 X167.732 Y76.070 E0.01682
G1 X176.179 Y84.517 E0.37563
M73 Q0 S279
G1 X176.179 Y85.052 E0.01682
G1 X167.197 Y76.070 E0.39941
M73 P0 R274
G1 X166.662 Y76.070 E0.01682
G1 X176.179 Y85.587 E0.42319
G1 X176.179 Y86.121 E0.01682
G1 X166.128 Y76.070 E0.44697
G1 X165.593 Y76.070 E0.01682
G1 X176.179 Y86.656 E0.47075
G1 X176.179 Y87.191 E0.01682
G1 X165.058 Y76.070 E0.49453
G1 X164.523 Y76.070 E0.01682
G1 X176.179 Y87.726 E0.51831
G1 X176.179 Y88.260 E0.01682
G1 X163.989 Y76.070 E0.54209
G1 X163.454 Y76.070 E0.01682
G1 X176.179 Y88.795 E0.56587
G1 X176.179 Y89.330 E0.01682
G1 X162.919 Y76.070 E0.58966
G1 X162.384 Y76.070 E0.01682
G1 X176.179 Y89.865 E0.61344
G1 X176.179 Y90.400 E0.01682
G1 X161.849 Y76.070 E0.63722
G1 X161.315 Y76.070 E0.01682
G1 X176.179 Y90.934 E0.66100
G1 X176.179 Y91.469 E0.01682
G1 X160.780 Y76.070 E0.68478
G1 X160.245 Y76.070 E0.01682
G1 X176.179 Y92.004 E0.70856
G1 X176.179 Y92.539 E0.01682
G1 X159.710 Y76.070 E0.73234
G1 X159.175 Y76.070 E0.01682
G1 X176.179 Y93.074 E0.75612
G1 X176.179 Y93.608 E0.01682
G1 X158.641 Y76.070 E0.77991
G1 X158.106 Y76.070 E0.01682
G1 X176.179 Y94.143 E0.80369
G1 X176.179 Y94.678 E0.01682
G1 X157.571 Y76.070 E0.82747
G1 X157.036 Y76.070 E0.01682
G1 X176.179 Y95.213 E0.85125
G1 X176.179 Y95.748 E0.01682
G1 X156.501 Y76.070 E0.87503
G1 X155.967 Y76.070 E0.01682
G1 X176.179 Y96.282 E0.89881
G1 X176.179 Y96.817 E0.01682
G1 X155.432 Y76.070 E0.92259
G1 X154.897 Y76.070 E0.01682
G1 X176.179 Y97.352 E0.94637
G1 X176.179 Y97.887 E0.01682
G1 X154.362 Y76.070 E0.97015
G1 X153.827 Y76.070 E0.01682
G1 X176.179 Y98.422 E0.99394
G1 X176.179 Y98.956 E0.01682
G1 X153.293 Y76.070 E1.01772
G1 X152.758 Y76.070 E0.01682
G1 X176.179 Y99.491 E1.04150
G1 X176.179 Y100.026 E0.01682
G1 X152.223 Y76.070 E1.06528
G1 X151.688 Y76.070 E0.01682
G1 X176.179 Y100.561 E1.08906
G1 X176.179 Y101.095 E0.01682
G1 X151.154 Y76.070 E1.11284
G1 X150.619 Y76.070 E0.01682
G1 X176.179 Y101.630 E1.13662
G1 X176.179 Y102.165 E0.01682
G1 X150.084 Y76.070 E1.16040
G1 X149.549 Y76.070 E0.01682
G1 X176.179 Y102.700 E1.18419
G1 X176.179 Y103.235 E0.01682
G1 X149.014 Y76.070 E1.20797
G1 X148.480 Y76.070 E0.01682
G1 X176.179 Y103.769 E1.23175
G1 X176.179 Y104.304 E0.01682
G1 X147.945 Y76.070 E1.25553
G1 X147.410 Y76.070 E0.01682
G1 X176.179 Y104.839 E1.27931
G1 X176.179 Y105.374 E0.01682
G1 X146.875 Y76.070 E1.30309
G1 X146.340 Y76.070 E0.01682
G1 X176.179 Y105.909 E1.32687
G1 X176.179 Y106.443 E0.01682
G1 X145.806 Y76.070 E1.35065
G1 X145.271 Y76.070 E0.01682
G1 X176.179 Y106.978 E1.37444
M73 Q0 S278
M73 P0 R273
G1 X176.179 Y107.513 E0.01682
G1 X144.736 Y76.070 E1.39822
G1 X144.201 Y76.070 E0.01682
G1 X176.179 Y108.048 E1.42200
G1 X176.179 Y108.583 E0.01682
G1 X143.666 Y76.070 E1.44578
G1 X143.132 Y76.070 E0.01682
G1 X176.179 Y109.117 E1.46956
G1 X176.179 Y109.652 E0.01682
G1 X142.597 Y76.070 E1.49334
G1 X142.062 Y76.070 E0.01682
G1 X176.179 Y110.187 E1.51712
G1 X176.179 Y110.722 E0.01682
G1 X141.527 Y76.070 E1.54090
G1 X140.992 Y76.070 E0.01682
G1 X176.179 Y111.257 E1.56468
G1 X176.179 Y111.791 E0.01682
G1 X140.458 Y76.070 E1.58847
G1 X139.923 Y76.070 E0.01682
G1 X176.179 Y112.326 E1.61225
G1 X176.179 Y112.861 E0.01682
G1 X139.388 Y76.070 E1.63603
G1 X138.853 Y76.070 E0.01682
G1 X176.179 Y113.396 E1.65981
G1 X176.179 Y113.930 E0.01682
G1 X138.319 Y76.070 E1.68359
G1 X137.784 Y76.070 E0.01682
G1 X176.179 Y114.465 E1.70737
G1 X176.179 Y115.000 E0.01682
G1 X137.249 Y76.070 E1.73115
G1 X136.714 Y76.070 E0.01682
G1 X176.179 Y115.535 E1.75493
G1 X176.179 Y116.070 E0.01682
G1 X136.179 Y76.070 E1.77872
G1 X135.645 Y76.070 E0.01682
G1 X176.179 Y116.604 E1.80250
G1 X176.179 Y117.139 E0.01682
G1 X135.110 Y76.070 E1.82628
G1 X134.575 Y76.070 E0.01682
G1 X176.179 Y117.674 E1.85006
G1 X176.179 Y118.209 E0.01682
G1 X134.040 Y76.070 E1.87384
G1 X133.505 Y76.070 E0.01682
G1 X176.179 Y118.744 E1.89762
G1 X176.179 Y119.278 E0.01682
G1 X132.971 Y76.070 E1.92140
M73 Q1 S277
M73 P1 R272
G1 X132.436 Y76.070 E0.01682
G1 X176.179 Y119.813 E1.94518
G1 X176.179 Y120.348 E0.01682
G1 X131.901 Y76.070 E1.96897
G1 X131.366 Y76.070 E0.01682
G1 X176.179 Y120.883 E1.99275
G1 X176.179 Y121.418 E0.01682
G1 X130.831 Y76.070 E2.01653
G1 X130.297 Y76.070 E0.01682
G1 X176.179 Y121.952 E2.04031
G1 X176.179 Y122.487 E0.01682
G1 X129.762 Y76.070 E2.06409
G1 X129.227 Y76.070 E0.01682
G1 X176.179 Y123.022 E2.08787
G1 X176.179 Y123.557 E0.01682
G1 X128.692 Y76.070 E2.11165
G1 X128.157 Y76.070 E0.01682
G1 X176.179 Y124.092 E2.13543
G1 X176.179 Y124.626 E0.01682
G1 X127.623 Y76.070 E2.15921
G1 X127.088 Y76.070 E0.01682
G1 X176.179 Y125.161 E2.18300
G1 X176.179 Y125.696 E0.01682
G1 X126.553 Y76.070 E2.20678
G1 X126.018 Y76.070 E0.01682
G1 X176.179 Y126.231 E2.23056
G1 X176.179 Y126.765 E0.01682
G1 X125.484 Y76.070 E2.25434
G1 X124.949 Y76.070 E0.01682
G1 X176.179 Y127.300 E2.27812
G1 X176.179 Y127.835 E0.01682
G1 X124.414 Y76.070 E2.30190
G1 X123.879 Y76.070 E0.01682
G1 X176.179 Y128.370 E2.32568
G1 X176.179 Y128.905 E0.01682
G1 X123.344 Y76.070 E2.34946
M73 Q1 S276
M73 P1 R271
G1 X122.810 Y76.070 E0.01682
G1 X176.179 Y129.439 E2.37325
G1 X176.179 Y129.974 E0.01682
G1 X122.275 Y76.070 E2.39703
G1 X121.740 Y76.070 E0.01682
G1 X176.179 Y130.509 E2.42081
G1 X176.179 Y131.044 E0.01682
G1 X121.205 Y76.070 E2.44459
G1 X120.670 Y76.070 E0.01682
G1 X176.179 Y131.579 E2.46837
G1 X176.179 Y132.113 E0.01682
G1 X120.136 Y76.070 E2.49215
G1 X119.601 Y76.070 E0.01682
G1 X176.179 Y132.648 E2.51593
G1 X176.179 Y133.183 E0.01682
G1 X119.066 Y76.070 E2.53971
G1 X118.531 Y76.070 E0.01682
G1 X176.179 Y133.718 E2.56350
G1 X176.179 Y133.930 E0.00668
G1 X175.857 Y133.930 E0.01014
G1 X117.996 Y76.070 E2.57294
G1 X117.462 Y76.070 E0.01682
G1 X175.322 Y133.930 E2.57294
G1 X174.787 Y133.930 E0.01682
G1 X116.927 Y76.070 E2.57294
G1 X116.392 Y76.070 E0.01682
G1 X174.252 Y133.930 E2.57294
G1 X173.717 Y133.930 E0.01682
G1 X115.857 Y76.070 E2.57294
G1 X115.322 Y76.070 E0.01682
G1 X173.183 Y133.930 E2.57294
M73 Q1 S275
M73 P1 R270
G1 X172.648 Y133.930 E0.01682
G1 X114.788 Y76.070 E2.57294
G1 X114.253 Y76.070 E0.01682
G1 X172.113 Y133.930 E2.57294
G1 X171.578 Y133.930 E0.01682
G1 X113.718 Y76.070 E2.57294
G1 X113.183 Y76.070 E0.01682
G1 X171.044 Y133.930 E2.57294
G1 X170.509 Y133.930 E0.01682
G1 X112.649 Y76.070 E2.57294
G1 X112.114 Y76.070 E0.01682
G1 X169.974 Y133.930 E2.57294
G1 X169.439 Y133.930 E0.01682
G1 X111.579 Y76.070 E2.57294
G1 X111.044 Y76.070 E0.01682
G1 X168.904 Y133.930 E2.57294
G1 X168.370 Y133.930 E0.01682
G1 X110.509 Y76.070 E2.57294
G1 X109.975 Y76.070 E0.01682
G1 X167.835 Y133.930 E2.57294
G1 X167.300 Y133.930 E0.01682
G1 X109.440 Y76.070 E2.57294
G1 X108.905 Y76.070 E0.01682
G1 X166.765 Y133.930 E2.57294
G1 X166.230 Y133.930 E0.01682
G1 X108.370 Y76.070 E2.57294
G1 X107.835 Y76.070 E0.01682
G1 X165.696 Y133.930 E2.57294
G1 X165.161 Y133.930 E0.01682
G1 X107.301 Y76.070 E2.57294
M73 Q2 S274
M73 P2 R269
G1 X106.766 Y76.070 E0.01682
G1 X164.626 Y133.930 E2.57294
G1 X164.091 Y133.930 E0.01682
G1 X106.231 Y76.070 E2.57294
G1 X105.696 Y76.070 E0.01682
G1 X163.556 Y133.930 E2.57294
G1 X163.022 Y133.930 E0.01682
G1 X105.161 Y76.070 E2.57294
G1 X104.627 Y76.070 E0.01682
G1 X162.487 Y133.930 E2.57294
G1 X161.952 Y133.930 E0.01682
G1 X104.092 Y76.070 E2.57294
G1 X103.557 Y76.070 E0.01682
G1 X161.417 Y133.930 E2.57294
G1 X160.882 Y133.930 E0.01682
G1 X103.022 Y76.070 E2.57294
G1 X102.487 Y76.070 E0.01682
G1 X160.348 Y133.930 E2.57294
G1 X159.813 Y133.930 E0.01682
G1 X101.953 Y76.070 E2.57294
G1 X101.418 Y76.070 E0.01682
G1 X159.278 Y133.930 E2.57294
G1 X158.743 Y133.930 E0.01682
G1 X100.883 Y76.070 E2.57294
G1 X100.348 Y76.070 E0.01682
G1 X158.209 Y133.930 E2.57294
G1 X157.674 Y133.930 E0.01682
G1 X99.813 Y76.070 E2.57294
G1 X99.279 Y76.070 E0.01682
G1 X157.139 Y133.930 E2.57294
M73 Q2 S273
M73 P2 R268
G1 X156.604 Y133.930 E0.01682
G1 X98.744 Y76.070 E2.57294
G1 X98.209 Y76.070 E0.01682
G1 X156.069 Y133.930 E2.57294
G1 X155.535 Y133.930 E0.01682
G1 X97.674 Y76.070 E2.57294
G1 X97.140 Y76.070 E0.01682
G1 X155.000 Y133.930 E2.57294
G1 X154.465 Y133.930 E0.01682
G1 X96.605 Y76.070 E2.57294
G1 X96.070 Y76.070 E0.01682
G1 X153.930 Y133.930 E2.57294
G1 X153.395 Y133.930 E0.01682
G1 X95.535 Y76.070 E2.57294
G1 X95.000 Y76.070 E0.01682
G1 X152.861 Y133.930 E2.57294
G1 X152.326 Y133.930 E0.01682
G1 X94.466 Y76.070 E2.57294
G1 X93.931 Y76.070 E0.01682
G1 X151.791 Y133.930 E2.57294
G1 X151.256 Y133.930 E0.01682
G1 X93.396 Y76.070 E2.57294
G1 X92.861 Y76.070 E0.01682
G1 X150.721 Y133.930 E2.57294
G1 X150.187 Y133.930 E0.01682
G1 X92.326 Y76.070 E2.57294
G1 X91.792 Y76.070 E0.01682
G1 X149.652 Y133.930 E2.57294
G1 X149.117 Y133.930 E0.01682
G1 X91.257 Y76.070 E2.57294
M73 Q2 S272
M73 P2 R267
G1 X90.722 Y76.070 E0.01682
G1 X148.582 Y133.930 E2.57294
G1 X148.047 Y133.930 E0.01682
G1 X90.187 Y76.070 E2.57294
G1 X89.652 Y76.070 E0.01682
G1 X147.513 Y133.930 E2.57294
G1 X146.978 Y133.930 E0.01682
G1 X89.118 Y76.070 E2.57294
G1 X88.583 Y76.070 E0.01682
G1 X146.443 Y133.930 E2.57294
G1 X145.908 Y133.930 E0.01682
G1 X88.048 Y76.070 E2.57294
G1 X87.513 Y76.070 E0.01682
G1 X145.374 Y133.930 E2.57294
G1 X144.839 Y133.930 E0.01682
G1 X86.978 Y76.070 E2.57294
G1 X86.444 Y76.070 E0.01682
G1 X144.304 Y133.930 E2.57294
G1 X143.769 Y133.930 E0.01682
G1 X85.909 Y76.070 E2.57294
G1 X85.374 Y76.070 E0.01682
G1 X143.234 Y133.930 E2.57294
G1 X142.700 Y133.930 E0.01682
G1 X84.839 Y76.070 E2.57294
G1 X84.305 Y76.070 E0.01682
G1 X142.165 Y133.930 E2.57294
G1 X141.630 Y133.930 E0.01682
G1 X83.770 Y76.070 E2.57294
G1 X83.235 Y76.070 E0.01682
G1 X141.095 Y133.930 E2.57294
M73 Q3 S271
M73 P3 R266
G1 X140.560 Y133.930 E0.01682
G1 X82.700 Y76.070 E2.57294
G1 X82.165 Y76.070 E0.01682
G1 X140.026 Y133.930 E2.57294
G1 X139.491 Y133.930 E0.01682
G1 X81.631 Y76.070 E2.57294
G1 X81.096 Y76.070 E0.01682
G1 X138.956 Y133.930 E2.57294
G1 X138.421 Y133.930 E0.01682
G1 X80.561 Y76.070 E2.57294
G1 X80.026 Y76.070 E0.01682
G1 X137.886 Y133.930 E2.57294
G1 X137.352 Y133.930 E0.01682
G1 X79.491 Y76.070 E2.57294
G1 X78.957 Y76.070 E0.01682
G1 X136.817 Y133.930 E2.57294
G1 X136.282 Y133.930 E0.01682
G1 X78.422 Y76.070 E2.57294
G1 X77.887 Y76.070 E0.01682
G1 X135.747 Y133.930 E2.57294
G1 X135.212 Y133.930 E0.01682
G1 X77.352 Y76.070 E2.57294
G1 X76.817 Y76.070 E0.01682
G1 X134.678 Y133.930 E2.57294
G1 X134.143 Y133.930 E0.01682
G1 X76.283 Y76.070 E2.57294
G1 X75.748 Y76.070 E0.01682
G1 X133.608 Y133.930 E2.57294
G1 X133.073 Y133.930 E0.01682
G1 X75.213 Y76.070 E2.57294
M73 Q3 S270
M73 P3 R265
G1 X74.678 Y76.070 E0.01682
G1 X132.539 Y133.930 E2.57294
G1 X132.004 Y133.930 E0.01682
G1 X74.143 Y76.070 E2.57294
G1 X73.821 Y76.070 E0.01014
G1 X73.821 Y76.282 E0.00667
G1 X131.469 Y133.930 E2.56350
G1 X130.934 Y133.930 E0.01682
G1 X73.821 Y76.817 E2.53972
G1 X73.821 Y77.352 E0.01682
G1 X130.399 Y133.930 E2.51594
G1 X129.865 Y133.930 E0.01682
G1 X73.821 Y77.886 E2.49216
G1 X73.821 Y78.421 E0.01682
G1 X129.330 Y133.930 E2.46838
G1 X128.795 Y133.930 E0.01682
G1 X73.821 Y78.956 E2.44460
G1 X73.821 Y79.491 E0.01682
G1 X128.260 Y133.930 E2.42081
G1 X127.725 Y133.930 E0.01682
G1 X73.821 Y80.026 E2.39703
G1 X73.821 Y80.560 E0.01682
G1 X127.191 Y133.930 E2.37325
G1 X126.656 Y133.930 E0.01682
G1 X73.821 Y81.095 E2.34947
G1 X73.821 Y81.630 E0.01682
G1 X126.121 Y133.930 E2.32569
G1 X125.586 Y133.930 E0.01682
G1 X73.821 Y82.165 E2.30191
G1 X73.821 Y82.700 E0.01682
G1 X125.051 Y133.930 E2.27813
G1 X124.517 Y133.930 E0.01682
G1 X73.821 Y83.234 E2.25435
M73 Q4 S269
M73 P4 R264
G1 X73.821 Y83.769 E0.01682
G1 X123.982 Y133.930 E2.23056
G1 X123.447 Y133.930 E0.01682
G1 X73.821 Y84.304 E2.20678
G1 X73.821 Y84.839 E0.01682
G1 X122.912 Y133.930 E2.18300
G1 X122.377 Y133.930 E0.01682
G1 X73.821 Y85.374 E2.15922
G1 X73.821 Y85.908 E0.01682
G1 X121.843 Y133.930 E2.13544
G1 X121.308 Y133.930 E0.01682
G1 X73.821 Y86.443 E2.11166
G1 X73.821 Y86.978 E0.01682
G1 X120.773 Y133.930 E2.08788
G1 X120.238 Y133.930 E0.01682
G1 X73.821 Y87.513 E2.06410
G1 X73.821 Y88.047 E0.01682
G1 X119.704 Y133.930 E2.04032
G1 X119.169 Y133.930 E0.01682
G1 X73.821 Y88.582 E2.01653
G1 X73.821 Y89.117 E0.01682
G1 X118.634 Y133.930 E1.99275
G1 X118.099 Y133.930 E0.01682
G1 X73.821 Y89.652 E1.96897
G1 X73.821 Y90.187 E0.01682
