; generated by PrusaSlicer 2.2.0+win64 on 2021-01-12 at 05:05:10 UTC

; 

; external perimeters extrusion width = 0.45mm
; perimeters extrusion width = 0.45mm
; infill extrusion width = 0.45mm
; solid infill extrusion width = 0.45mm
; top infill extrusion width = 0.40mm
; first layer extrusion width = 0.70mm

M73 P0 R85
M73 Q0 S85
M201 X1000 Y1000 Z200 E5000 ; sets maximum accelerations, mm/sec^2
M203 X200 Y200 Z12 E120 ; sets maximum feedrates, mm/sec
M204 P1250 R1250 T1250 ; sets acceleration (P, T) and retract acceleration (R), mm/sec^2
M205 X8.00 Y8.00 Z0.40 E4.50 ; sets the jerk limits, mm/sec
M205 S0 T0 ; sets the minimum extruding and travel feed rate, mm/sec
M107
M862.3 P "MK3S" ; printer model check
M862.1 P0.4 ; nozzle diameter check
M115 U3.9.2 ; tell printer latest fw version
G90 ; use absolute coordinates
M83 ; extruder relative mode
M104 S260 ; set extruder temp
M140 S85 ; set bed temp
M190 S85 ; wait for bed temp
M109 S260 ; wait for extruder temp
G28 W ; home all without mesh bed level
G80 ; mesh bed leveling
G1 Y-3.0 F1000.0 ; go outside print area
G92 E0.0
G1 X60.0 E9.0 F1000.0 ; intro line
M73 Q0 S85
M73 P0 R85
G1 X100.0 E12.5 F1000.0 ; intro line
G92 E0.0
M221 S95

; Don't change E values below. Excessive value can damage the printer.

G21 ; set units to millimeters
G90 ; use absolute coordinates
M83 ; use relative distances for extrusion
M900 K0.08; Filament gcode LA 1.5
;BEFORE_LAYER_CHANGE
G92 E0.0
;0.35


G1 E-1.40000 F2100.00000
G1 Z0.200 F7800.000
G1 Z0.350
;AFTER_LAYER_CHANGE
;0.35
G1 Z0.550
G1 X83.226 Y69.712
G1 Z0.350
G1 E1.40000 F2100.00000
G1 F1800.000
G1 X84.041 Y68.056 E0.16781
G1 X85.090 Y66.574 E0.16512
G1 X85.838 Y65.760 E0.10055
G1 X86.706 Y64.980 E0.10610
G1 X87.628 Y64.306 E0.10385
G1 X88.698 Y63.680 E0.11271
G1 X89.961 Y63.121 E0.12561
G1 X91.076 Y62.766 E0.10634
G1 X92.273 Y62.520 E0.11116
G1 X93.393 Y62.404 E0.10235
G1 X155.988 Y62.387 E5.69180
G1 X157.095 Y62.440 E0.10073
G1 X158.139 Y62.589 E0.09590
G1 X160.048 Y63.122 E0.18024
G1 X161.990 Y64.059 E0.19603
G1 X162.914 Y64.679 E0.10122
G1 X163.773 Y65.384 E0.10104
G1 X164.581 Y66.190 E0.10375
G1 X165.279 Y67.035 E0.09971
G1 X165.915 Y67.973 E0.10307
G1 X166.406 Y68.868 E0.09278
G1 X167.130 Y70.720 E0.18079
G1 X167.543 Y72.797 E0.19254
G1 X167.607 Y74.006 E0.11015
G1 X167.594 Y136.489 E5.68150
G1 X167.376 Y138.290 E0.16500
G1 X166.868 Y140.065 E0.16788
G1 X166.001 Y141.889 E0.18362
G1 X164.914 Y143.432 E0.17162
G1 X164.096 Y144.317 E0.10961
G1 X163.023 Y145.242 E0.12878
G1 X162.002 Y145.939 E0.11244
G1 X160.964 Y146.498 E0.10723
G1 X159.866 Y146.951 E0.10792
G1 X158.684 Y147.301 E0.11211
G1 X157.284 Y147.547 E0.12932
G1 X156.110 Y147.620 E0.10692
G1 X93.527 Y147.608 E5.69061
G1 X91.662 Y147.376 E0.17092
G1 X89.727 Y146.794 E0.18369
G1 X88.071 Y145.980 E0.16781
G1 X86.588 Y144.929 E0.16530
G1 X85.704 Y144.110 E0.10961
G1 X84.771 Y143.031 E0.12965
G1 X84.075 Y142.005 E0.11274
G1 X83.523 Y140.975 E0.10630
G1 X83.072 Y139.886 E0.10710
G1 X82.719 Y138.698 E0.11269
G1 X82.475 Y137.295 E0.12956
G1 X82.403 Y136.121 E0.10695
G1 X82.413 Y73.509 E5.69325
G1 X82.645 Y71.647 E0.17061
G1 X83.209 Y69.770 E0.17823
G1 F6240.000
G1 X84.041 Y68.056 E-0.60896
G1 X85.090 Y66.574 E-0.58057
G1 X85.387 Y66.251 E-0.14047
G1 E-0.07000 F2100.00000
G1 Z0.550 F7800.000
G1 X138.014 Y61.694
G1 Z0.350
G1 E1.40000 F2100.00000
G1 F1800.000
G1 X138.681 Y61.269 E0.07193
G1 X140.281 Y60.477 E0.16231
G1 X141.689 Y59.966 E0.13618
G1 X143.068 Y59.618 E0.12931
G1 X144.450 Y59.406 E0.12711
G1 X145.841 Y59.327 E0.12674
G1 X156.110 Y59.327 E0.93374
G1 X157.121 Y59.371 E0.09201
G1 X158.133 Y59.485 E0.09262
G1 X159.263 Y59.696 E0.10450
G1 X160.525 Y60.046 E0.11911
G1 X161.593 Y60.440 E0.10347
G1 X162.598 Y60.902 E0.10060
G1 X163.695 Y61.514 E0.11425
G1 X164.839 Y62.296 E0.12597
G1 X165.919 Y63.199 E0.12804
G1 X166.688 Y63.961 E0.09847
G1 X167.410 Y64.789 E0.09988
G1 X168.089 Y65.703 E0.10350
G1 X168.621 Y66.533 E0.08961
G1 X169.275 Y67.769 E0.12722
G1 X169.801 Y69.045 E0.12543
G1 X170.206 Y70.357 E0.12487
G1 X170.589 Y72.490 E0.19705
G1 X170.668 Y73.895 E0.12801
G1 X170.649 Y84.708 E0.98325
G1 X170.529 Y86.006 E0.11847
G1 X170.284 Y87.340 E0.12335
G1 X170.038 Y88.263 E0.08684
G1 X169.733 Y89.161 E0.08629
G1 X169.230 Y90.347 E0.11707
G1 X168.642 Y91.453 E0.11392
G1 X168.287 Y92.001 E0.05935
G1 X168.691 Y92.646 E0.06925
G1 X169.292 Y93.798 E0.11810
G1 X169.817 Y95.082 E0.12621
G1 X170.241 Y96.490 E0.13372
G1 X170.547 Y98.133 E0.15196
G1 X170.666 Y99.809 E0.15277
G1 X170.653 Y110.621 E0.98307
G1 X170.511 Y112.123 E0.13717
G1 X170.290 Y113.308 E0.10963
G1 X170.048 Y114.221 E0.08595
G1 X169.746 Y115.117 E0.08590
G1 X169.261 Y116.273 E0.11402
G1 X168.630 Y117.464 E0.12253
G1 X168.288 Y117.993 E0.05732
G1 X168.691 Y118.639 E0.06930
G1 X169.323 Y119.858 E0.12481
G1 X169.833 Y121.118 E0.12359
G1 X170.229 Y122.432 E0.12479
G1 X170.562 Y124.249 E0.16802
G1 X170.667 Y125.827 E0.14379
G1 X170.643 Y136.800 E0.99778
G1 X170.514 Y138.099 E0.11867
G1 X170.273 Y139.375 E0.11805
G1 X170.039 Y140.241 E0.08163
G1 X169.753 Y141.090 E0.08145
G1 X169.290 Y142.205 E0.10977
G1 X168.577 Y143.547 E0.13822
G1 X167.982 Y144.456 E0.09871
G1 X167.339 Y145.304 E0.09681
G1 X166.350 Y146.393 E0.13376
G1 X165.469 Y147.202 E0.10873
G1 X164.528 Y147.935 E0.10846
G1 X163.430 Y148.651 E0.11918
G1 X162.264 Y149.269 E0.12006
G1 X160.694 Y149.903 E0.15395
G1 X159.094 Y150.345 E0.15094
G1 X157.419 Y150.611 E0.15417
G1 X156.097 Y150.682 E0.12046
G1 X145.344 Y150.666 E0.97773
G1 X143.814 Y150.518 E0.13980
G1 X142.636 Y150.295 E0.10898
G1 X141.706 Y150.045 E0.08759
G1 X140.789 Y149.731 E0.08817
G1 X139.658 Y149.250 E0.11173
G1 X138.332 Y148.532 E0.13710
G1 X137.990 Y148.302 E0.03745
G1 X137.428 Y148.665 E0.06086
G1 X136.128 Y149.342 E0.13326
G1 X134.591 Y149.945 E0.15016
G1 X133.029 Y150.364 E0.14711
G1 X131.640 Y150.590 E0.12792
G1 X130.243 Y150.679 E0.12731
G1 X119.330 Y150.664 E0.99233
G1 X117.804 Y150.514 E0.13936
G1 X116.686 Y150.301 E0.10348
G1 X115.729 Y150.045 E0.09014
G1 X114.793 Y149.724 E0.08993
G1 X113.726 Y149.272 E0.10539
G1 X112.430 Y148.577 E0.13373
G1 X112.017 Y148.299 E0.04524
G1 X111.467 Y148.655 E0.05963
G1 X110.104 Y149.364 E0.13972
G1 X108.459 Y149.995 E0.16015
G1 X106.961 Y150.383 E0.14075
G1 X105.564 Y150.601 E0.12852
G1 X104.215 Y150.680 E0.12291
G1 X93.165 Y150.654 E1.00475
G1 X91.882 Y150.522 E0.11727
G1 X90.645 Y150.287 E0.11451
G1 X89.779 Y150.053 E0.08155
G1 X88.930 Y149.767 E0.08145
G1 X87.818 Y149.304 E0.10956
G1 X86.386 Y148.536 E0.14776
G1 X84.674 Y147.320 E0.19098
G1 X83.570 Y146.307 E0.13623
G1 X82.924 Y145.607 E0.08658
G1 X82.179 Y144.674 E0.10857
G1 X81.435 Y143.555 E0.12226
G1 X80.914 Y142.606 E0.09839
G1 X80.413 Y141.503 E0.11020
G1 X79.994 Y140.327 E0.11350
G1 X79.676 Y139.117 E0.11376
G1 X79.410 Y137.414 E0.15669
G1 X79.341 Y136.109 E0.11885
G1 X79.355 Y125.359 E0.97753
G1 X79.497 Y123.867 E0.13625
G1 X79.703 Y122.749 E0.10341
G1 X79.991 Y121.671 E0.10141
G1 X80.459 Y120.375 E0.12534
G1 X80.951 Y119.311 E0.10657
G1 X81.458 Y118.396 E0.09508
G1 X81.720 Y118.001 E0.04318
G1 X81.485 Y117.644 E0.03883
G1 X80.934 Y116.655 E0.10293
G1 X80.455 Y115.612 E0.10438
G1 X80.008 Y114.381 E0.11911
G1 X79.635 Y112.927 E0.13646
G1 X79.426 Y111.578 E0.12413
G1 X79.344 Y110.218 E0.12389
G1 X79.357 Y99.327 E0.99035
G1 X79.507 Y97.801 E0.13946
G1 X79.712 Y96.720 E0.10003
G1 X79.993 Y95.672 E0.09863
G1 X80.460 Y94.380 E0.12495
G1 X80.952 Y93.317 E0.10649
G1 X81.459 Y92.403 E0.09506
G1 X81.720 Y92.008 E0.04302
G1 X81.489 Y91.660 E0.03799
G1 X80.972 Y90.737 E0.09617
G1 X80.491 Y89.709 E0.10326
G1 X80.019 Y88.424 E0.12449
G1 X79.639 Y86.951 E0.13833
G1 X79.423 Y85.558 E0.12816
G1 X79.342 Y84.180 E0.12554
G1 X79.364 Y73.196 E0.99875
G1 X79.500 Y71.860 E0.12209
G1 X79.745 Y70.585 E0.11808
G1 X80.039 Y69.537 E0.09894
G1 X80.413 Y68.501 E0.10019
G1 X80.949 Y67.330 E0.11707
G1 X81.482 Y66.373 E0.09968
G1 X82.108 Y65.427 E0.10314
G1 X83.038 Y64.268 E0.13508
G1 X84.171 Y63.124 E0.14640
G1 X85.419 Y62.111 E0.14618
G1 X86.784 Y61.236 E0.14744
G1 X88.249 Y60.511 E0.14861
G1 X89.697 Y59.978 E0.14034
G1 X91.121 Y59.616 E0.13362
G1 X92.507 Y59.405 E0.12746
G1 X93.888 Y59.327 E0.12579
G1 X104.169 Y59.327 E0.93481
G1 X105.208 Y59.374 E0.09463
G1 X106.226 Y59.492 E0.09313
G1 X107.306 Y59.696 E0.09994
G1 X108.486 Y60.019 E0.11124
G1 X109.628 Y60.437 E0.11061
G1 X110.711 Y60.936 E0.10843
G1 X112.035 Y61.696 E0.13878
G1 X112.710 Y61.265 E0.07284
G1 X114.073 Y60.578 E0.13879
G1 X115.561 Y60.013 E0.14471
G1 X117.073 Y59.622 E0.14203
G1 X118.431 Y59.411 E0.12495
G1 X119.866 Y59.327 E0.13077
G1 X130.132 Y59.327 E0.93343
G1 X131.206 Y59.376 E0.09778
G1 X132.233 Y59.496 E0.09400
G1 X133.403 Y59.724 E0.10840
G1 X134.533 Y60.042 E0.10672
G1 X135.647 Y60.453 E0.10802
G1 X136.724 Y60.954 E0.10801
G1 X137.962 Y61.664 E0.12973
G1 F6240.000
G1 X138.681 Y61.269 E-0.26237
G1 X140.281 Y60.477 E-0.57068
G1 X141.689 Y59.966 E-0.47883
G1 X141.744 Y59.952 E-0.01812
G1 E-0.07000 F2100.00000
G1 Z0.550 F7800.000
G1 X130.125 Y59.951
G1 Z0.350
G1 E1.40000 F2100.00000
G1 F1800.000
G1 X131.145 Y59.998 E0.09286
G1 X132.126 Y60.112 E0.08981
G1 X133.246 Y60.329 E0.10376
G1 X134.351 Y60.640 E0.10437
G1 X135.418 Y61.035 E0.10343
G1 X136.449 Y61.516 E0.10349
G1 X137.443 Y62.080 E0.10389
G1 F6240.000
G1 X136.449 Y61.516 E-0.36529
G1 X135.418 Y61.035 E-0.36386
G1 X134.351 Y60.640 E-0.36366
G1 X133.637 Y60.439 E-0.23719
G1 E-0.07000 F2100.00000
G1 Z0.550 F7800.000
G1 X138.571 Y62.079
G1 Z0.350
G1 E1.40000 F2100.00000
G1 F1800.000
G1 X138.974 Y61.821 E0.04355
G1 X140.542 Y61.045 E0.15907
G1 X141.886 Y60.559 E0.12998
G1 X143.178 Y60.233 E0.12110
G1 X144.501 Y60.029 E0.12171
G1 X145.850 Y59.951 E0.12292
G1 X156.103 Y59.951 E0.93228
G1 X157.082 Y59.995 E0.08914
G1 X158.051 Y60.104 E0.08867
G1 X159.134 Y60.308 E0.10017
G1 X160.321 Y60.637 E0.11198
G1 X161.365 Y61.022 E0.10118
G1 X162.326 Y61.464 E0.09619
G1 X163.355 Y62.039 E0.10714
G1 X164.450 Y62.786 E0.12059
G1 X165.489 Y63.652 E0.12299
G1 X166.240 Y64.397 E0.09619
G1 X166.931 Y65.190 E0.09563
G1 X167.581 Y66.066 E0.09917
G1 X168.087 Y66.858 E0.08548
G1 X168.715 Y68.048 E0.12234
G1 X169.208 Y69.244 E0.11761
G1 X169.595 Y70.486 E0.11832
G1 X169.970 Y72.581 E0.19350
G1 X170.043 Y73.903 E0.12037
G1 X170.024 Y84.693 E0.98115
G1 X169.908 Y85.934 E0.11332
G1 X169.677 Y87.191 E0.11625
G1 X169.443 Y88.072 E0.08287
G1 X169.145 Y88.950 E0.08429
G1 X168.672 Y90.065 E0.11019
G1 X168.097 Y91.147 E0.11137
G1 X167.916 Y91.425 E0.03017
G1 F6240.000
G1 X168.097 Y91.147 E-0.10609
G1 X168.672 Y90.065 E-0.39157
G1 X169.145 Y88.950 E-0.38743
G1 X169.443 Y88.072 E-0.29635
G1 X169.562 Y87.623 E-0.14855
G1 E-0.07000 F2100.00000
G1 Z0.550 F7800.000
G1 X167.915 Y92.584
G1 Z0.350
G1 E1.40000 F2100.00000
G1 F1800.000
G1 X168.143 Y92.947 E0.03893
G1 X168.719 Y94.048 E0.11302
G1 X169.223 Y95.277 E0.12076
G1 X169.638 Y96.654 E0.13079
G1 X169.925 Y98.196 E0.14256
G1 X170.041 Y99.820 E0.14808
G1 X170.028 Y110.605 E0.98069
G1 X169.891 Y112.049 E0.13190
G1 X169.683 Y113.159 E0.10265
G1 X169.446 Y114.051 E0.08395
G1 X169.158 Y114.906 E0.08206
G1 X168.702 Y115.993 E0.10714
G1 X168.085 Y117.158 E0.11991
G1 X167.910 Y117.426 E0.02908
G1 F6240.000
G1 X168.085 Y117.158 E-0.10225
G1 X168.702 Y115.993 E-0.42160
G1 X169.158 Y114.906 E-0.37672
G1 X169.446 Y114.051 E-0.28851
G1 X169.559 Y113.625 E-0.14091
G1 E-0.07000 F2100.00000
G1 Z0.550 F7800.000
G1 X167.910 Y118.568
G1 Z0.350
G1 E1.40000 F2100.00000
G1 F1800.000
G1 X168.143 Y118.939 E0.03985
G1 X168.750 Y120.106 E0.11958
G1 X169.248 Y121.339 E0.12090
G1 X169.625 Y122.595 E0.11926
G1 X169.944 Y124.343 E0.16163
G1 X170.042 Y125.857 E0.13792
G1 X170.020 Y136.753 E0.99080
G1 X169.893 Y138.023 E0.11604
G1 X169.666 Y139.224 E0.11112
G1 X169.444 Y140.051 E0.07790
G1 X169.165 Y140.880 E0.07955
G1 X168.718 Y141.951 E0.10546
G1 X168.046 Y143.217 E0.13038
G1 X167.466 Y144.104 E0.09640
G1 X166.849 Y144.915 E0.09256
G1 X165.917 Y145.943 E0.12618
G1 X165.056 Y146.733 E0.10629
G1 X164.176 Y147.419 E0.10149
G1 X163.125 Y148.106 E0.11411
G1 X161.986 Y148.710 E0.11724
G1 X160.477 Y149.316 E0.14784
G1 X158.945 Y149.738 E0.14452
G1 X157.370 Y149.988 E0.14504
G1 X156.089 Y150.057 E0.11664
G1 X145.360 Y150.041 E0.97557
G1 X143.889 Y149.898 E0.13444
G1 X142.787 Y149.688 E0.10194
G1 X141.879 Y149.444 E0.08555
G1 X141.002 Y149.143 E0.08427
G1 X139.942 Y148.693 E0.10469
G1 X138.554 Y147.929 E0.14406
G1 F6240.000
G1 X139.942 Y148.693 E-0.50653
G1 X141.002 Y149.143 E-0.36808
G1 X141.879 Y149.444 E-0.29631
G1 X142.359 Y149.573 E-0.15908
G1 E-0.07000 F2100.00000
G1 Z0.550 F7800.000
G1 X137.417 Y147.929
G1 Z0.350
G1 E1.40000 F2100.00000
G1 F1800.000
G1 X137.126 Y148.118 E0.03160
G1 X135.854 Y148.780 E0.13033
G1 X134.411 Y149.346 E0.14093
G1 X132.912 Y149.750 E0.14124
G1 X131.585 Y149.967 E0.12228
G1 X130.233 Y150.054 E0.12313
G1 X119.346 Y150.039 E0.98999
G1 X117.880 Y149.893 E0.13392
G1 X116.837 Y149.695 E0.09658
G1 X115.901 Y149.444 E0.08810
G1 X115.007 Y149.137 E0.08599
G1 X114.008 Y148.714 E0.09857
G1 X112.740 Y148.035 E0.13080
G1 X112.578 Y147.924 E0.01789
G1 F6240.000
G1 X112.740 Y148.035 E-0.06290
G1 X114.008 Y148.714 E-0.45988
G1 X115.007 Y149.137 E-0.34657
G1 X115.901 Y149.444 E-0.30233
G1 X116.379 Y149.572 E-0.15832
G1 E-0.07000 F2100.00000
G1 Z0.550 F7800.000
G1 X111.448 Y147.924
G1 Z0.350
G1 E1.40000 F2100.00000
G1 F1800.000
G1 X111.165 Y148.108 E0.03072
G1 X109.831 Y148.801 E0.13666
G1 X108.285 Y149.395 E0.15060
G1 X106.849 Y149.768 E0.13490
G1 X105.483 Y149.981 E0.12569
G1 X104.188 Y150.055 E0.11793
G1 X93.213 Y150.031 E0.99798
G1 X91.985 Y149.905 E0.11223
G1 X90.796 Y149.680 E0.11009
G1 X89.969 Y149.458 E0.07781
G1 X89.140 Y149.179 E0.07955
G1 X88.072 Y148.733 E0.10521
G1 X86.731 Y148.015 E0.13835
G1 X85.081 Y146.846 E0.18389
G1 X84.020 Y145.874 E0.13087
G1 X83.405 Y145.207 E0.08242
G1 X82.691 Y144.316 E0.10381
G1 X81.976 Y143.242 E0.11740
G1 X81.478 Y142.336 E0.09397
G1 X80.997 Y141.280 E0.10551
G1 X80.587 Y140.130 E0.11103
G1 X80.285 Y138.974 E0.10863
G1 X80.033 Y137.365 E0.14808
G1 X79.966 Y136.101 E0.11508
G1 X79.980 Y125.374 E0.97540
G1 X80.117 Y123.941 E0.13097
G1 X80.315 Y122.875 E0.09855
G1 X80.591 Y121.846 E0.09688
G1 X81.042 Y120.600 E0.12049
G1 X81.503 Y119.604 E0.09980
G1 X82.093 Y118.568 E0.10839
G1 F6240.000
G1 X81.503 Y119.604 E-0.38112
G1 X81.042 Y120.600 E-0.35089
G1 X80.591 Y121.846 E-0.42364
G1 X80.450 Y122.373 E-0.17436
G1 E-0.07000 F2100.00000
G1 Z0.550 F7800.000
G1 X82.094 Y117.433
G1 Z0.350
G1 E1.40000 F2100.00000
G1 F1800.000
G1 X81.497 Y116.382 E0.10986
G1 X81.037 Y115.386 E0.09977
G1 X80.609 Y114.210 E0.11378
G1 X80.250 Y112.815 E0.13096
G1 X80.049 Y111.525 E0.11873
G1 X79.968 Y110.209 E0.11989
G1 X79.982 Y99.343 E0.98805
G1 X80.128 Y97.877 E0.13400
G1 X80.323 Y96.848 E0.09519
G1 X80.593 Y95.848 E0.09422
G1 X81.043 Y94.605 E0.12015
G1 X81.504 Y93.610 E0.09972
G1 X82.097 Y92.570 E0.10888
G1 F6240.000
G1 X81.504 Y93.610 E-0.38282
G1 X81.043 Y94.605 E-0.35063
G1 X80.593 Y95.848 E-0.42246
G1 X80.451 Y96.373 E-0.17409
G1 E-0.07000 F2100.00000
G1 Z0.550 F7800.000
G1 X82.098 Y91.447
G1 Z0.350
G1 E1.40000 F2100.00000
G1 F1800.000
G1 X81.523 Y90.442 E0.10525
G1 X81.063 Y89.456 E0.09893
G1 X80.620 Y88.252 E0.11671
G1 X80.254 Y86.840 E0.13267
G1 X80.043 Y85.477 E0.12535
G1 X79.967 Y84.172 E0.11892
G1 X79.987 Y73.243 E0.99372
G1 X80.116 Y71.964 E0.11693
G1 X80.350 Y70.740 E0.11326
G1 X80.630 Y69.739 E0.09456
G1 X80.997 Y68.726 E0.09793
G1 X81.512 Y67.602 E0.11241
G1 X82.022 Y66.688 E0.09523
G1 X82.621 Y65.784 E0.09859
G1 X83.514 Y64.672 E0.12967
G1 X84.602 Y63.576 E0.14040
G1 X85.798 Y62.608 E0.13997
G1 X87.106 Y61.771 E0.14111
G1 X88.510 Y61.078 E0.14239
G1 X89.897 Y60.570 E0.13433
G1 X91.231 Y60.232 E0.12517
G1 X92.558 Y60.028 E0.12204
G1 X93.897 Y59.951 E0.12199
G1 X104.162 Y59.952 E0.93335
G1 X105.148 Y59.996 E0.08978
G1 X106.121 Y60.108 E0.08905
G1 X107.177 Y60.308 E0.09775
G1 X108.284 Y60.611 E0.10428
G1 X109.402 Y61.019 E0.10824
G1 X110.439 Y61.499 E0.10392
G1 X111.470 Y62.087 E0.10796
G1 F6240.000
G1 X110.439 Y61.499 E-0.37959
G1 X109.402 Y61.019 E-0.36538
