; generated by PrusaSlicer 2.3.0+win64 on 2021-01-13 at 22:24:58 UTC

; 

; external perimeters extrusion width = 0.45mm
; perimeters extrusion width = 0.45mm
; infill extrusion width = 0.45mm
; solid infill extrusion width = 0.45mm
; top infill extrusion width = 0.40mm
; first layer extrusion width = 0.70mm

M73 P0 R92
M73 Q0 S93
M201 X1000 Y1000 Z200 E5000 ; sets maximum accelerations, mm/sec^2
M203 X200 Y200 Z12 E120 ; sets maximum feedrates, mm/sec
M204 P1250 R1250 T1250 ; sets acceleration (P, T) and retract acceleration (R), mm/sec^2
M205 X8.00 Y8.00 Z0.40 E4.50 ; sets the jerk limits, mm/sec
M205 S0 T0 ; sets the minimum extruding and travel feed rate, mm/sec
M107
;TYPE:Custom
M862.3 P "MK3S" ; printer model check
M862.1 P0.4 ; nozzle diameter check
M115 U3.9.2 ; tell printer latest fw version
G90 ; use absolute coordinates
M83 ; extruder relative mode
M104 S280 ; set extruder temp
M140 S90 ; set bed temp
M190 S90 ; wait for bed temp
M109 S280 ; wait for extruder temp
G28 W ; home all without mesh bed level
G80 ; mesh bed leveling
G1 Y-3.0 F1000.0 ; go outside print area
G92 E0.0
G1 X60.0 E9.0 F1000.0 ; intro line
G1 X100.0 E12.5 F1000.0 ; intro line
G92 E0.0
M221 S95

; Don't change E values below. Excessive value can damage the printer.

G21 ; set units to millimeters
G90 ; use absolute coordinates
M83 ; use relative distances for extrusion
M900 K0.08; Filament gcode LA 1.5
;LAYER_CHANGE
;Z:0.35
;HEIGHT:0.35
;BEFORE_LAYER_CHANGE
G92 E0.0
;0.35


G1 E-1.40000 F2100.000
G1 Z0.200 F7800.000
G1 Z0.350
;AFTER_LAYER_CHANGE
;0.35
G1 Z0.550
G1 X87.952 Y62.643
G1 Z0.350
G1 E1.40000 F2100.000
;TYPE:Skirt
;WIDTH:0.7
G1 F1800.000
G1 X90.101 Y61.803 E0.20982
G1 X91.554 Y61.474 E0.13548
G1 X93.025 Y61.339 E0.13432
G1 X156.556 Y61.325 E5.77685
G1 X158.567 Y61.495 E0.18348
G1 X160.681 Y62.057 E0.19888
G1 X162.505 Y62.899 E0.18269
G1 X163.688 Y63.649 E0.12739
G1 X164.804 Y64.577 E0.13201
G1 X166.277 Y66.212 E0.20003
G1 X167.334 Y67.907 E0.18164
G1 X168.103 Y69.771 E0.18338
G1 X168.564 Y71.832 E0.19200
G1 X168.675 Y73.438 E0.14646
G1 X168.671 Y136.779 E5.75952
G1 X168.508 Y138.554 E0.16214
G1 X168.022 Y140.472 E0.17991
G1 X167.270 Y142.213 E0.17241
G1 X166.089 Y144.024 E0.19657
G1 X165.114 Y145.133 E0.13432
G1 X163.983 Y146.123 E0.13664
G1 X161.991 Y147.385 E0.21442
G1 X160.619 Y147.967 E0.13549
G1 X159.819 Y148.217 E0.07627
G1 X158.376 Y148.536 E0.13431
G1 X156.721 Y148.673 E0.15108
G1 X93.208 Y148.670 E5.77513
G1 X91.439 Y148.507 E0.16156
G1 X89.522 Y148.020 E0.17990
G1 X87.787 Y147.270 E0.17184
G1 X85.976 Y146.089 E0.19657
G1 X84.867 Y145.114 E0.13432
G1 X83.877 Y143.983 E0.13664
G1 X82.615 Y141.991 E0.21442
G1 X82.033 Y140.619 E0.13549
G1 X81.783 Y139.819 E0.07627
G1 X81.464 Y138.376 E0.13431
G1 X81.327 Y136.721 E0.15108
G1 X81.330 Y73.208 E5.77513
G1 X81.493 Y71.439 E0.16156
G1 X81.980 Y69.522 E0.17990
G1 X82.730 Y67.787 E0.17184
G1 X83.911 Y65.976 E0.19657
G1 X84.882 Y64.871 E0.13374
G1 X86.002 Y63.889 E0.13549
G1 X87.901 Y62.676 E0.20494
;WIPE_START
G1 F6240.000
G1 X90.101 Y61.803 E-0.75657
G1 X91.554 Y61.474 E-0.47636
G1 X91.857 Y61.446 E-0.09707
;WIPE_END
G1 E-0.07000 F2100.000
G1 Z0.550 F7800.000
G1 X81.299 Y57.332
G1 Z0.350
G1 E1.40000 F2100.000
G1 F1800.000
G1 X84.362 Y55.429 E0.32788
G1 X86.916 Y54.353 E0.25202
G1 X89.473 Y53.658 E0.24095
G1 X92.563 Y53.293 E0.28292
G1 X157.432 Y53.293 E5.89849
G1 X160.501 Y53.652 E0.28101
G1 X162.783 Y54.252 E0.21452
G1 X164.980 Y55.106 E0.21435
G1 X167.746 Y56.655 E0.28825
G1 X170.279 Y58.653 E0.29332
G1 X172.566 Y61.165 E0.30897
G1 X174.435 Y64.096 E0.31607
G1 X175.746 Y67.212 E0.30735
G1 X176.520 Y70.507 E0.30782
G1 X176.727 Y72.956 E0.22351
G1 X176.732 Y136.941 E5.81806
M73 Q0 S92
G1 X176.423 Y140.085 E0.28730
G1 X175.629 Y143.137 E0.28669
G1 X174.389 Y145.995 E0.28335
G1 X172.704 Y148.653 E0.28614
G1 X170.917 Y150.727 E0.24893
G1 X168.702 Y152.668 E0.26786
G1 X165.551 Y154.616 E0.33680
G1 X163.084 Y155.647 E0.24314
G1 X160.516 Y156.345 E0.24196
G1 X156.895 Y156.735 E0.33121
G1 X92.964 Y156.727 E5.81321
G1 X89.857 Y156.412 E0.28389
G1 X86.813 Y155.612 E0.28626
G1 X83.961 Y154.365 E0.28300
G1 X81.347 Y152.704 E0.28164
G1 X79.273 Y150.917 E0.24891
G1 X77.332 Y148.702 E0.26786
G1 X75.384 Y145.551 E0.33680
G1 X74.353 Y143.084 E0.24314
G1 X73.655 Y140.516 E0.24196
G1 X73.265 Y136.895 E0.33121
G1 X73.273 Y72.964 E5.81321
G1 X73.588 Y69.857 E0.28389
G1 X74.388 Y66.813 E0.28626
G1 X75.635 Y63.961 E0.28300
G1 X77.296 Y61.347 E0.28164
G1 X79.083 Y59.273 E0.24891
G1 X81.253 Y57.371 E0.26242
G1 X81.665 Y57.841 F7800.000
G1 F1800.000
G1 X84.670 Y55.974 E0.32167
G1 X87.138 Y54.937 E0.24345
G1 X89.614 Y54.267 E0.23318
G1 X92.617 Y53.916 E0.27498
G1 X157.378 Y53.916 E5.88865
G1 X160.364 Y54.262 E0.27340
G1 X162.573 Y54.841 E0.20761
G1 X164.733 Y55.681 E0.21069
G1 X167.418 Y57.188 E0.28002
G1 X169.871 Y59.126 E0.28427
G1 X172.085 Y61.565 E0.29953
G1 X173.893 Y64.409 E0.30639
G1 X175.159 Y67.429 E0.29776
G1 X175.906 Y70.627 E0.29861
G1 X176.102 Y72.969 E0.21377
G1 X176.109 Y136.896 E5.81278
G1 X175.811 Y139.953 E0.27929
G1 X175.046 Y142.911 E0.27786
G1 X173.847 Y145.682 E0.27453
G1 X172.215 Y148.263 E0.27770
G1 X170.489 Y150.272 E0.24082
G1 X168.309 Y152.181 E0.26348
G1 X165.287 Y154.049 E0.32305
G1 X162.862 Y155.063 E0.23901
M73 P0 R91
G1 X160.377 Y155.735 E0.23409
G1 X156.878 Y156.110 E0.31997
G1 X93.010 Y156.104 E5.80747
G1 X89.992 Y155.802 E0.27585
G1 X87.040 Y155.029 E0.27745
G1 X84.275 Y153.824 E0.27424
G1 X81.737 Y152.215 E0.27328
G1 X79.728 Y150.489 E0.24082
G1 X77.819 Y148.309 E0.26348
G1 X75.951 Y145.287 E0.32305
G1 X74.937 Y142.862 E0.23901
G1 X74.265 Y140.377 E0.23409
G1 X73.890 Y136.878 E0.31997
G1 X73.896 Y73.010 E5.80747
G1 X74.198 Y69.992 E0.27585
G1 X74.971 Y67.040 E0.27745
G1 X76.176 Y64.275 E0.27424
G1 X77.785 Y61.737 E0.27328
G1 X79.511 Y59.728 E0.24082
G1 X81.620 Y57.881 E0.25494
G1 X82.032 Y58.351 F7800.000
G1 F1800.000
G1 X84.977 Y56.519 E0.31538
G1 X87.360 Y55.522 E0.23488
G1 X89.753 Y54.877 E0.22542
G1 X92.671 Y54.539 E0.26706
G1 X157.324 Y54.539 E5.87890
G1 X160.228 Y54.873 E0.26575
G1 X162.397 Y55.441 E0.20393
G1 X164.485 Y56.255 E0.20375
G1 X167.090 Y57.720 E0.27180
G1 X169.462 Y59.600 E0.27520
G1 X171.604 Y61.965 E0.29010
G1 X173.351 Y64.721 E0.29671
G1 X174.573 Y67.645 E0.28817
G1 X175.292 Y70.745 E0.28942
G1 X175.477 Y72.982 E0.20409
G1 X175.485 Y136.851 E5.80756
G1 X175.200 Y139.821 E0.27129
G1 X174.463 Y142.686 E0.26903
G1 X173.306 Y145.369 E0.26570
G1 X171.726 Y147.874 E0.26927
G1 X170.060 Y149.816 E0.23266
G1 X167.917 Y151.694 E0.25907
G1 X165.023 Y153.481 E0.30929
G1 X162.640 Y154.478 E0.23488
G1 X160.238 Y155.126 E0.22619
G1 X156.862 Y155.485 E0.30878
G1 X93.056 Y155.481 E5.80179
G1 X90.125 Y155.191 E0.26783
G1 X87.266 Y154.446 E0.26863
G1 X84.588 Y153.283 E0.26547
G1 X82.126 Y151.726 E0.26492
G1 X80.184 Y150.060 E0.23268
G1 X78.306 Y147.917 E0.25907
G1 X76.519 Y145.023 E0.30929
G1 X75.522 Y142.640 E0.23488
G1 X74.874 Y140.238 E0.22619
G1 X74.515 Y136.862 E0.30878
G1 X74.519 Y73.056 E5.80179
M73 P1 R91
M73 Q1 S92
G1 X74.809 Y70.125 E0.26783
G1 X75.554 Y67.266 E0.26863
G1 X76.717 Y64.588 E0.26547
G1 X78.274 Y62.126 E0.26492
G1 X79.940 Y60.184 E0.23268
G1 X81.987 Y58.390 E0.24744
G1 X82.399 Y58.860 F7800.000
G1 F1800.000
G1 X82.475 Y58.793 E0.00923
G1 X85.283 Y57.064 E0.29991
G1 X87.581 Y56.107 E0.22630
G1 X89.893 Y55.486 E0.21768
G1 X92.724 Y55.162 E0.25915
G1 X157.271 Y55.161 E5.86924
G1 X160.092 Y55.483 E0.25812
G1 X162.187 Y56.030 E0.19693
G1 X164.237 Y56.829 E0.20006
G1 X166.762 Y58.252 E0.26351
G1 X169.053 Y60.073 E0.26613
G1 X171.122 Y62.363 E0.28066
G1 X172.809 Y65.032 E0.28703
G1 X173.986 Y67.860 E0.27858
G1 X174.678 Y70.863 E0.28023
G1 X174.852 Y72.995 E0.19446
G1 X174.860 Y136.836 E5.80508
G1 X174.589 Y139.689 E0.26057
G1 X173.864 Y142.507 E0.26455
G1 X172.742 Y145.099 E0.25684
G1 X171.236 Y147.485 E0.25658
G1 X169.631 Y149.361 E0.22449
G1 X167.525 Y151.207 E0.25461
G1 X164.717 Y152.936 E0.29991
G1 X162.419 Y153.893 E0.22630
G1 X160.100 Y154.516 E0.21833
G1 X156.845 Y154.860 E0.29764
G1 X93.102 Y154.857 E5.79617
G1 X90.258 Y154.579 E0.25983
G1 X87.492 Y153.863 E0.25981
G1 X84.901 Y152.742 E0.25670
G1 X82.515 Y151.236 E0.25657
G1 X80.639 Y149.631 E0.22449
G1 X78.793 Y147.525 E0.25461
G1 X77.064 Y144.717 E0.29991
G1 X76.107 Y142.419 E0.22630
G1 X75.484 Y140.100 E0.21833
G1 X75.140 Y136.845 E0.29764
G1 X75.143 Y73.102 E5.79617
G1 X75.421 Y70.258 E0.25983
G1 X76.137 Y67.492 E0.25981
G1 X77.258 Y64.901 E0.25670
G1 X78.764 Y62.515 E0.25657
G1 X80.369 Y60.639 E0.22449
G1 X82.353 Y58.900 E0.23993
G1 X82.765 Y59.370 F7800.000
G1 F1800.000
G1 X82.867 Y59.281 E0.01227
G1 X85.589 Y57.609 E0.29047
G1 X87.801 Y56.692 E0.21772
G1 X90.031 Y56.096 E0.20995
G1 X92.777 Y55.785 E0.25125
G1 X157.219 Y55.784 E5.85969
G1 X159.956 Y56.093 E0.25044
G1 X162.012 Y56.629 E0.19320
G1 X163.989 Y57.403 E0.19302
G1 X166.432 Y58.784 E0.25523
G1 X168.643 Y60.545 E0.25705
G1 X170.640 Y62.761 E0.27122
G1 X172.266 Y65.342 E0.27735
G1 X173.398 Y68.075 E0.26903
G1 X174.057 Y70.937 E0.26704
G1 X174.227 Y73.008 E0.18893
G1 X174.235 Y136.821 E5.80254
G1 X173.969 Y139.605 E0.25424
G1 X173.265 Y142.326 E0.25559
G1 X172.178 Y144.828 E0.24802
G1 X170.746 Y147.097 E0.24400
G1 X169.202 Y148.906 E0.21629
G1 X167.133 Y150.719 E0.25012
G1 X164.411 Y152.391 E0.29047
G1 X162.199 Y153.308 E0.21772
G1 X159.963 Y153.906 E0.21050
G1 X156.829 Y154.235 E0.28654
G1 X93.147 Y154.234 E5.79062
G1 X90.390 Y153.968 E0.25177
G1 X87.672 Y153.264 E0.25531
G1 X85.172 Y152.178 E0.24786
G1 X82.903 Y150.746 E0.24399
G1 X81.094 Y149.202 E0.21629
G1 X79.281 Y147.133 E0.25012
G1 X77.609 Y144.411 E0.29047
G1 X76.692 Y142.199 E0.21772
G1 X76.094 Y139.963 E0.21050
G1 X75.765 Y136.829 E0.28654
G1 X75.766 Y73.147 E5.79062
G1 X76.032 Y70.390 E0.25177
G1 X76.736 Y67.672 E0.25531
G1 X77.822 Y65.172 E0.24786
G1 X79.254 Y62.903 E0.24399
G1 X80.798 Y61.094 E0.21629
G1 X82.720 Y59.409 E0.23239
G1 X83.132 Y59.879 F7800.000
G1 F1800.000
G1 X83.258 Y59.769 E0.01528
G1 X85.894 Y58.155 E0.28097
G1 X88.020 Y57.277 E0.20914
G1 X90.169 Y56.706 E0.20224
G1 X92.829 Y56.408 E0.24337
G1 X157.167 Y56.407 E5.85024
G1 X159.821 Y56.704 E0.24279
G1 X161.801 Y57.218 E0.18610
G1 X163.740 Y57.977 E0.18928
M73 Q1 S91
G1 X166.102 Y59.315 E0.24689
G1 X168.233 Y61.017 E0.24795
G1 X170.157 Y63.159 E0.26178
G1 X171.722 Y65.652 E0.26770
G1 X172.795 Y68.241 E0.25488
G1 X173.436 Y71.011 E0.25853
G1 X173.603 Y73.021 E0.18334
G1 X173.610 Y136.806 E5.79999
G1 X173.350 Y139.520 E0.24787
G1 X172.667 Y142.144 E0.24660
G1 X171.615 Y144.556 E0.23921
G1 X170.256 Y146.709 E0.23153
G1 X168.773 Y148.452 E0.20804
G1 X166.742 Y150.231 E0.24558
G1 X164.106 Y151.845 E0.28097
G1 X161.980 Y152.723 E0.20914
G1 X159.826 Y153.295 E0.20269
G1 X156.813 Y153.610 E0.27549
G1 X93.162 Y153.609 E5.78777
G1 X90.476 Y153.349 E0.24539
G1 X87.854 Y152.666 E0.24634
G1 X85.444 Y151.615 E0.23906
G1 X83.291 Y150.256 E0.23153
G1 X81.548 Y148.773 E0.20804
G1 X79.769 Y146.742 E0.24558
G1 X78.155 Y144.106 E0.28097
G1 X77.277 Y141.980 E0.20914
G1 X76.705 Y139.826 E0.20269
G1 X76.390 Y136.813 E0.27549
G1 X76.391 Y73.162 E5.78777
G1 X76.651 Y70.476 E0.24539
G1 X77.334 Y67.854 E0.24634
G1 X78.385 Y65.444 E0.23906
G1 X79.744 Y63.291 E0.23153
G1 X81.227 Y61.548 E0.20804
G1 X83.087 Y59.919 E0.22484
G1 X83.650 Y60.256 F7800.000
G1 F1800.000
G1 X86.198 Y58.702 E0.27140
G1 X88.238 Y57.863 E0.20056
G1 X90.306 Y57.316 E0.19455
G1 X92.880 Y57.031 E0.23550
G1 X157.116 Y57.030 E5.84089
G1 X159.685 Y57.314 E0.23509
G1 X161.626 Y57.818 E0.18232
G1 X163.491 Y58.550 E0.18213
G1 X165.772 Y59.846 E0.23855
G1 X167.821 Y61.488 E0.23884
G1 X169.673 Y63.555 E0.25233
G1 X171.178 Y65.961 E0.25802
G1 X172.208 Y68.456 E0.24541
G1 X172.815 Y71.086 E0.24545
G1 X172.978 Y73.034 E0.17777
G1 X172.986 Y136.792 E5.79747
M73 P1 R90
G1 X172.738 Y139.387 E0.23703
G1 X172.068 Y141.963 E0.24205
G1 X171.052 Y144.284 E0.23034
G1 X169.765 Y146.322 E0.21920
G1 X168.344 Y147.997 E0.19976
G1 X166.350 Y149.744 E0.24100
G1 X163.802 Y151.298 E0.27140
G1 X161.762 Y152.137 E0.20056
G1 X159.690 Y152.685 E0.19492
G1 X156.797 Y152.986 E0.26449
G1 X93.177 Y152.984 E5.78492
G1 X90.561 Y152.729 E0.23897
G1 X88.036 Y152.068 E0.23734
G1 X85.716 Y151.052 E0.23028
G1 X83.678 Y149.765 E0.21919
G1 X82.003 Y148.344 E0.19976
G1 X80.256 Y146.350 E0.24100
G1 X78.702 Y143.802 E0.27140
G1 X77.863 Y141.762 E0.20056
G1 X77.315 Y139.690 E0.19492
G1 X77.014 Y136.797 E0.26449
G1 X77.016 Y73.177 E5.78492
G1 X77.271 Y70.561 E0.23897
G1 X77.932 Y68.036 E0.23734
G1 X78.948 Y65.716 E0.23028
G1 X80.235 Y63.678 E0.21919
G1 X81.656 Y62.003 E0.19976
G1 X83.605 Y60.296 E0.23554
G1 X84.016 Y60.766 F7800.000
G1 F1800.000
G1 X86.501 Y59.249 E0.26469
G1 X88.455 Y58.450 E0.19198
G1 X90.442 Y57.926 E0.18689
G1 X92.931 Y57.654 E0.22765
G1 X157.065 Y57.653 E5.83165
G1 X159.551 Y57.925 E0.22742
G1 X161.416 Y58.407 E0.17510
G1 X163.241 Y59.123 E0.17834
G1 X165.440 Y60.376 E0.23014
G1 X167.410 Y61.959 E0.22972
G1 X169.189 Y63.951 E0.24288
G1 X170.634 Y66.269 E0.24839
G1 X171.605 Y68.622 E0.23144
G1 X172.195 Y71.161 E0.23699
G1 X172.353 Y73.047 E0.17214
G1 X172.361 Y136.777 E5.79491
G1 X172.119 Y139.302 E0.23066
G1 X171.470 Y141.780 E0.23296
G1 X170.490 Y144.010 E0.22151
G1 X169.274 Y145.935 E0.20699
G1 X167.914 Y147.543 E0.19144
G1 X165.959 Y149.256 E0.23637
G1 X163.499 Y150.751 E0.26176
M73 P2 R90
G1 X161.545 Y151.550 E0.19198
G1 X159.555 Y152.075 E0.18717
G1 X156.781 Y152.361 E0.25355
G1 X93.192 Y152.359 E5.78212
M73 Q2 S91
G1 X90.695 Y152.118 E0.22807
G1 X88.219 Y151.470 E0.23278
G1 X85.990 Y150.490 E0.22143
G1 X84.065 Y149.274 E0.20699
G1 X82.457 Y147.914 E0.19144
G1 X80.744 Y145.959 E0.23637
G1 X79.249 Y143.499 E0.26176
G1 X78.450 Y141.545 E0.19198
G1 X77.925 Y139.555 E0.18717
G1 X77.639 Y136.781 E0.25355
G1 X77.641 Y73.192 E5.78212
G1 X77.882 Y70.695 E0.22807
G1 X78.530 Y68.219 E0.23278
G1 X79.510 Y65.990 E0.22143
G1 X80.726 Y64.065 E0.20699
G1 X82.086 Y62.457 E0.19144
G1 X83.971 Y60.806 E0.22794
G1 X84.383 Y61.276 F7800.000
G1 F1800.000
G1 X86.803 Y59.796 E0.25788
G1 X88.671 Y59.036 E0.18340
G1 X90.578 Y58.537 E0.17924
G1 X92.981 Y58.277 E0.21981
G1 X157.015 Y58.276 E5.82253
G1 X159.417 Y58.536 E0.21970
G1 X161.240 Y59.007 E0.17126
G1 X162.992 Y59.697 E0.17112
G1 X165.068 Y60.879 E0.21730
G1 X166.998 Y62.430 E0.22506
G1 X168.704 Y64.346 E0.23335
G1 X170.090 Y66.576 E0.23873
G1 X171.017 Y68.836 E0.22208
G1 X171.574 Y71.236 E0.22403
G1 X171.728 Y73.061 E0.16652
G1 X171.736 Y136.762 E5.79233
G1 X171.499 Y139.217 E0.22424
G1 X170.872 Y141.597 E0.22382
G1 X169.928 Y143.737 E0.21270
G1 X168.782 Y145.549 E0.19493
G1 X167.484 Y147.088 E0.18308
G1 X165.568 Y148.767 E0.23169
G1 X163.197 Y150.204 E0.25205
G1 X161.329 Y150.964 E0.18340
G1 X159.420 Y151.464 E0.17945
G1 X156.765 Y151.736 E0.24266
G1 X93.207 Y151.734 E5.77929
G1 X90.781 Y151.499 E0.22164
G1 X88.402 Y150.872 E0.22367
G1 X86.263 Y149.927 E0.21262
G1 X84.451 Y148.782 E0.19493
G1 X82.912 Y147.484 E0.18308
G1 X81.233 Y145.568 E0.23169
G1 X79.796 Y143.197 E0.25205
G1 X79.036 Y141.329 E0.18340
G1 X78.536 Y139.420 E0.17945
G1 X78.264 Y136.765 E0.24266
G1 X78.266 Y73.207 E5.77929
G1 X78.501 Y70.781 E0.22164
G1 X79.128 Y68.402 E0.22367
G1 X80.073 Y66.263 E0.21262
G1 X81.218 Y64.451 E0.19493
G1 X82.516 Y62.912 E0.18308
G1 X84.338 Y61.315 E0.22031
G1 X84.750 Y61.785 F7800.000
G1 F1800.000
G1 X84.823 Y61.721 E0.00884
G1 X87.104 Y60.344 E0.24226
G1 X88.886 Y59.623 E0.17482
G1 X90.713 Y59.147 E0.17162
G1 X93.031 Y58.900 E0.21200
G1 X156.965 Y58.900 E5.81352
G1 X159.284 Y59.147 E0.21201
G1 X161.030 Y59.596 E0.16393
G1 X162.742 Y60.270 E0.16729
G1 X164.736 Y61.409 E0.20889
G1 X166.585 Y62.899 E0.21589
G1 X168.218 Y64.741 E0.22383
G1 X169.544 Y66.883 E0.22907
G1 X170.429 Y69.048 E0.21274
G1 X170.953 Y71.311 E0.21117
G1 X171.103 Y73.074 E0.16089
G1 X171.111 Y136.747 E5.78974
G1 X170.880 Y139.131 E0.21779
G1 X170.275 Y141.412 E0.21464
G1 X169.366 Y143.462 E0.20391
G1 X168.290 Y145.163 E0.18301
G1 X167.054 Y146.634 E0.17467
G1 X165.177 Y148.279 E0.22696
G1 X162.896 Y149.656 E0.24226
G1 X161.114 Y150.377 E0.17482
