; generated by PrusaSlicer 2.2.0+win64 on 2021-01-06 at 01:05:32 UTC

; 

; external perimeters extrusion width = 0.45mm
; perimeters extrusion width = 0.45mm
; infill extrusion width = 0.45mm
; solid infill extrusion width = 0.45mm
; top infill extrusion width = 0.40mm
; first layer extrusion width = 0.42mm

M107
M190 S80 ; set bed temperature and wait for it to be reached
M104 S250 ; set temperature
G28 ; home all axes
G1 Z5 F5000 ; lift nozzle
M301 E0 P16.21 I1.30 D50.49
M109 S250 ; set temperature and wait for it to be reached
G21 ; set units to millimeters
G90 ; use absolute coordinates
M82 ; use absolute distances for extrusion
G92 E0
; Filament gcode
G1 Z0.350 F7800.000
G1 E-2.00000 F2400.00000
G92 E0
G1 X54.115 Y45.176 F7800.000
G1 E2.00000 F2400.00000
G1 F1800.000
G1 X55.348 Y44.254 E2.07726
G1 X56.767 Y43.657 E2.15452
G1 X58.288 Y43.418 E2.23179
G1 X141.504 Y43.415 E6.40808
G1 X142.661 Y43.522 E6.46640
G1 X143.785 Y43.841 E6.52503
G1 X144.832 Y44.361 E6.58366
G1 X145.760 Y45.059 E6.64198
G1 X146.546 Y45.916 E6.70030
G1 X147.162 Y46.901 E6.75862
G1 X147.589 Y47.982 E6.81694
G1 X147.811 Y49.129 E6.87557
G1 X148.084 Y109.386 E9.89967
G1 X147.915 Y112.529 E10.05763
G1 X147.549 Y115.715 E10.21857
G1 X146.974 Y118.780 E10.37507
G1 X145.951 Y122.673 E10.57712
G1 X144.880 Y125.784 E10.74221
G1 X143.341 Y129.354 E10.93732
G1 X142.274 Y131.438 E11.05481
G1 X140.268 Y134.803 E11.25144
G1 X137.821 Y138.218 E11.46224
G1 X135.154 Y141.328 E11.66788
G1 X133.553 Y142.960 E11.78262
G1 X131.471 Y144.864 E11.92420
G1 X128.817 Y147.013 E12.09558
G1 X125.405 Y149.344 E12.30297
G1 X122.073 Y151.238 E12.49531
G1 X120.241 Y152.136 E12.59767
G1 X116.242 Y153.778 E12.81465
G1 X112.041 Y155.068 E13.03520
G1 X108.032 Y155.926 E13.24095
G1 X104.200 Y156.420 E13.43487
G1 X101.203 Y156.579 E13.58548
G1 X98.056 Y156.564 E13.74342
G1 X95.959 Y156.434 E13.84885
G1 X91.938 Y155.922 E14.05225
G1 X89.612 Y155.468 E14.17122
G1 X85.924 Y154.496 E14.36261
G1 X81.929 Y153.077 E14.57539
G1 X78.063 Y151.309 E14.78870
G1 X74.539 Y149.305 E14.99219
G1 X72.600 Y148.034 E15.10856
G1 X69.607 Y145.777 E15.29666
G1 X66.408 Y142.924 E15.51176
G1 X63.480 Y139.802 E15.72659
G1 X60.855 Y136.447 E15.94038
G1 X58.639 Y133.050 E16.14393
G1 X56.583 Y129.183 E16.36369
G1 X55.055 Y125.623 E16.55814
G1 X53.865 Y122.065 E16.74640
G1 X52.837 Y117.893 E16.96204
G1 X52.403 Y115.361 E17.09097
G1 X52.009 Y111.616 E17.27995
G1 X51.917 Y109.428 E17.38987
G1 X52.157 Y49.734 E20.38569
G1 X52.223 Y48.847 E20.43032
G1 X52.412 Y47.978 E20.47494
G1 X52.718 Y47.150 E20.51925
G1 X53.140 Y46.367 E20.56388
G1 X54.077 Y45.222 E20.63813
G1 E18.63813 F2400.00000
G92 E0
G1 X110.985 Y76.002 F7800.000
G1 E2.00000 F2400.00000
G1 F1800.000
G1 X110.815 Y75.704 E2.01722
G1 X109.676 Y75.851 E2.07483
G1 X97.517 Y75.860 E2.68507
G1 X90.461 Y75.813 E3.03916
G1 X89.885 Y75.778 E3.06813
G1 X89.366 Y75.802 E3.09421
G1 X89.049 Y75.706 E3.11085
G1 X88.750 Y75.796 E3.12649
G1 X88.042 Y75.514 E3.16473
G1 X87.501 Y75.404 E3.19248
G1 X86.144 Y74.762 E3.26778
G1 X85.739 Y74.460 E3.29313
G1 X84.978 Y74.045 E3.33667
G1 X84.037 Y73.268 E3.39790
G1 X83.859 Y73.008 E3.41370
G1 X83.506 Y72.579 E3.44159
G1 X82.912 Y71.914 E3.48634
G1 X82.623 Y71.426 E3.51480
G1 X82.246 Y71.593 E3.53551
G1 X81.807 Y69.886 E3.62397
G1 X81.751 Y69.589 E3.63914
G1 X81.363 Y68.521 E3.69614
G1 X81.238 Y67.576 E3.74401
G1 X81.163 Y65.979 E3.82424
G1 X81.231 Y65.709 E3.83820
G1 X81.226 Y65.628 E3.84230
G1 X81.315 Y65.132 E3.86758
G1 X81.572 Y63.922 E3.92966
G1 X81.763 Y63.240 E3.96518
G1 X82.171 Y62.366 E4.01363
G1 X82.513 Y61.702 E4.05112
G1 X83.567 Y60.294 E4.13937
G1 X84.168 Y59.613 E4.18495
G1 X84.868 Y59.123 E4.22782
G1 X85.545 Y58.700 E4.26791
G1 X85.501 Y58.387 E4.28374
G1 X87.822 Y57.607 E4.40665
G1 X88.633 Y57.394 E4.44872
G1 X89.826 Y57.198 E4.50943
G1 X99.612 Y57.180 E5.00052
G1 X110.216 Y57.245 E5.53272
G1 X110.702 Y57.264 E5.55711
G1 X110.965 Y57.327 E5.57070
G1 X111.141 Y57.324 E5.57955
G1 X111.797 Y57.494 E5.61353
G1 X112.462 Y57.632 E5.64761
G1 X112.877 Y57.812 E5.67031
G1 X113.586 Y58.187 E5.71056
G1 X114.077 Y58.384 E5.73714
G1 X114.300 Y58.413 E5.74840
G1 X115.617 Y59.551 E5.83576
G1 X115.959 Y59.790 E5.85668
G1 X116.939 Y60.886 E5.93051
G1 X117.354 Y61.484 E5.96701
G1 X117.528 Y61.660 E5.97945
G1 X117.676 Y62.036 E5.99972
G1 X117.827 Y62.263 E6.01337
G1 X117.955 Y62.589 E6.03097
G1 X118.141 Y62.975 E6.05247
G1 X118.285 Y63.403 E6.07513
G1 X118.383 Y63.556 E6.08426
G1 X118.459 Y64.006 E6.10717
G1 X118.517 Y64.131 E6.11408
G1 X118.766 Y65.544 E6.18606
G1 X118.761 Y65.659 E6.19185
G1 X118.854 Y66.348 E6.22673
G1 X118.749 Y67.327 E6.27613
G1 X118.751 Y67.630 E6.29136
G1 X118.362 Y69.140 E6.36962
G1 X118.226 Y69.793 E6.40308
G1 X118.046 Y70.228 E6.42671
G1 X117.869 Y70.759 E6.45483
G1 X117.650 Y71.061 E6.47352
G1 X116.948 Y72.228 E6.54188
G1 X116.862 Y72.286 E6.54708
G1 X116.828 Y72.355 E6.55092
G1 X115.938 Y73.343 E6.61766
G1 X115.690 Y73.457 E6.63135
G1 X114.763 Y74.220 E6.69162
G1 X114.506 Y74.345 E6.70594
G1 X114.199 Y74.619 E6.72661
G1 X113.538 Y74.925 E6.76315
G1 X112.640 Y75.288 E6.81176
G1 X112.551 Y75.292 E6.81621
G1 X111.039 Y75.977 E6.89952
G1 X111.129 Y75.558 F7800.000
G1 F1800.000
G1 X111.000 Y75.332 E6.91257
G1 X109.654 Y75.506 E6.98067
G1 X97.518 Y75.515 E7.58974
G1 X90.473 Y75.468 E7.94329
G1 X89.888 Y75.432 E7.97271
G1 X89.409 Y75.455 E7.99676
G1 X89.049 Y75.346 E8.01566
G1 X88.766 Y75.431 E8.03048
G1 X88.141 Y75.182 E8.06422
G1 X87.610 Y75.074 E8.09142
G1 X86.323 Y74.465 E8.16289
G1 X85.926 Y74.169 E8.18774
G1 X85.172 Y73.758 E8.23086
G1 X84.294 Y73.033 E8.28799
G1 X84.135 Y72.801 E8.30211
G1 X83.768 Y72.355 E8.33111
G1 X83.192 Y71.709 E8.37453
G1 X82.764 Y70.986 E8.41668
G1 X82.479 Y71.113 E8.43234
G1 X82.144 Y69.811 E8.49980
G1 X82.085 Y69.497 E8.51580
G1 X81.700 Y68.439 E8.57234
G1 X81.581 Y67.545 E8.61759
G1 X81.509 Y66.014 E8.69451
G1 X81.579 Y65.741 E8.70863
G1 X81.573 Y65.647 E8.71335
G1 X81.653 Y65.198 E8.73624
G1 X81.907 Y64.004 E8.79751
G1 X82.087 Y63.361 E8.83105
G1 X82.481 Y62.518 E8.87774
G1 X82.807 Y61.885 E8.91344
G1 X83.835 Y60.512 E8.99955
G1 X84.400 Y59.872 E9.04237
G1 X85.058 Y59.411 E9.08274
G1 X85.918 Y58.873 E9.13364
G1 X85.883 Y58.623 E9.14633
G1 X87.921 Y57.938 E9.25424
G1 X88.705 Y57.732 E9.29491
G1 X89.855 Y57.542 E9.35342
G1 X99.611 Y57.525 E9.84304
G1 X110.208 Y57.590 E10.37489
G1 X110.654 Y57.607 E10.39728
G1 X110.927 Y57.673 E10.41137
G1 X111.100 Y57.670 E10.42006
G1 X111.719 Y57.830 E10.45211
G1 X112.357 Y57.962 E10.48484
G1 X112.727 Y58.123 E10.50508
G1 X113.440 Y58.500 E10.54558
G1 X113.989 Y58.720 E10.57524
G1 X114.152 Y58.742 E10.58350
G1 X115.405 Y59.824 E10.66659
G1 X115.729 Y60.049 E10.68638
G1 X116.668 Y61.100 E10.75713
G1 X117.088 Y61.705 E10.79406
G1 X117.233 Y61.852 E10.80445
G1 X117.368 Y62.197 E10.82301
G1 X117.519 Y62.423 E10.83667
G1 X117.639 Y62.727 E10.85307
G1 X117.821 Y63.105 E10.87414
G1 X117.972 Y63.553 E10.89782
G1 X118.055 Y63.682 E10.90555
G1 X118.127 Y64.110 E10.92729
G1 X118.185 Y64.236 E10.93426
G1 X118.420 Y65.567 E11.00210
G1 X118.415 Y65.675 E11.00754
G1 X118.507 Y66.353 E11.04185
G1 X118.404 Y67.309 E11.09013
G1 X118.406 Y67.587 E11.10408
G1 X118.026 Y69.062 E11.18050
G1 X117.895 Y69.691 E11.21275
G1 X117.723 Y70.107 E11.23536
G1 X117.558 Y70.600 E11.26142
G1 X117.349 Y70.887 E11.27926
G1 X117.305 Y70.988 E11.28477
G1 X116.693 Y71.984 E11.34347
G1 X116.593 Y72.052 E11.34952
G1 X116.540 Y72.160 E11.35553
G1 X115.729 Y73.059 E11.41633
G1 X115.506 Y73.163 E11.42869
G1 X114.575 Y73.928 E11.48914
G1 X114.312 Y74.056 E11.50382
G1 X114.008 Y74.328 E11.52430
G1 X113.401 Y74.608 E11.55784
G1 X112.565 Y74.946 E11.60308
G1 X112.469 Y74.950 E11.60790
G1 X111.183 Y75.533 E11.67875
G1 E9.67875 F2400.00000
G92 E0
G1 X82.711 Y70.633 F7800.000
G1 E2.00000 F2400.00000
G1 F1800.000
G1 X82.481 Y69.736 E2.04645
G1 X82.419 Y69.406 E2.06330
G1 X82.037 Y68.356 E2.11938
G1 X81.925 Y67.514 E2.16200
G1 X81.856 Y66.049 E2.23561
G1 X81.926 Y65.773 E2.24990
G1 X81.919 Y65.667 E2.25524
G1 X81.992 Y65.265 E2.27574
G1 X82.242 Y64.087 E2.33619
G1 X82.412 Y63.481 E2.36775
G1 X82.790 Y62.670 E2.41268
G1 X83.100 Y62.069 E2.44661
G1 X84.103 Y60.729 E2.53057
G1 X84.631 Y60.131 E2.57063
G1 X85.249 Y59.698 E2.60849
G1 X86.290 Y59.031 E2.67052
G1 X86.265 Y58.858 E2.67930
G1 X88.019 Y58.268 E2.77221
G1 X88.777 Y58.070 E2.81149
G1 X89.884 Y57.887 E2.86779
G1 X99.610 Y57.870 E3.35594
G1 X110.201 Y57.934 E3.88743
G1 X110.607 Y57.950 E3.90783
G1 X110.889 Y58.018 E3.92241
G1 X111.059 Y58.015 E3.93095
G1 X111.640 Y58.166 E3.96108
G1 X112.252 Y58.293 E3.99244
G1 X112.577 Y58.434 E4.01023
G1 X113.295 Y58.813 E4.05097
G1 X113.850 Y59.050 E4.08122
G1 X114.005 Y59.070 E4.08907
G1 X115.193 Y60.096 E4.16788
G1 X115.498 Y60.309 E4.18654
G1 X116.397 Y61.315 E4.25421
G1 X116.821 Y61.926 E4.29158
G1 X116.938 Y62.044 E4.29991
G1 X117.061 Y62.357 E4.31677
G1 X117.212 Y62.584 E4.33044
G1 X117.323 Y62.865 E4.34563
G1 X117.501 Y63.236 E4.36627
G1 X117.658 Y63.702 E4.39098
G1 X117.726 Y63.809 E4.39730
G1 X117.794 Y64.213 E4.41787
G1 X117.853 Y64.340 E4.42490
G1 X118.074 Y65.590 E4.48860
G1 X118.070 Y65.691 E4.49369
G1 X118.159 Y66.357 E4.52742
G1 X118.059 Y67.292 E4.57458
G1 X118.061 Y67.544 E4.58727
G1 X117.690 Y68.984 E4.66185
G1 X117.564 Y69.589 E4.69287
G1 X117.399 Y69.986 E4.71447
G1 X117.248 Y70.440 E4.73847
G1 X117.049 Y70.714 E4.75547
G1 X116.999 Y70.827 E4.76167
G1 X116.438 Y71.741 E4.81548
G1 X116.324 Y71.818 E4.82238
G1 X116.252 Y71.964 E4.83057
G1 X115.520 Y72.776 E4.88542
G1 X115.321 Y72.868 E4.89645
G1 X114.387 Y73.635 E4.95708
G1 X114.118 Y73.767 E4.97212
G1 X113.816 Y74.036 E4.99241
G1 X113.264 Y74.291 E5.02296
G1 X112.490 Y74.604 E5.06482
G1 X112.387 Y74.609 E5.07001
G1 X111.272 Y75.114 E5.13143
G1 X111.185 Y74.960 E5.14032
G1 X109.632 Y75.161 E5.21891
G1 X97.519 Y75.171 E5.82680
G1 X90.485 Y75.124 E6.17981
G1 X89.891 Y75.087 E6.20969
G1 X89.452 Y75.107 E6.23170
G1 X89.027 Y74.992 E6.25384
G1 X88.782 Y75.066 E6.26669
G1 X88.240 Y74.851 E6.29593
G1 X87.720 Y74.745 E6.32257
G1 X86.501 Y74.168 E6.39022
G1 X86.113 Y73.878 E6.41457
G1 X85.366 Y73.471 E6.45726
G1 X84.551 Y72.798 E6.51030
G1 X84.411 Y72.593 E6.52274
G1 X84.030 Y72.130 E6.55284
G1 X83.471 Y71.505 E6.59492
G1 X82.905 Y70.547 E6.65077
G1 X82.766 Y70.608 E6.65837
G1 X82.314 Y70.586 F7800.000
G1 E4.65837 F2400.00000
G92 E0
G1 X59.602 Y50.859 F7800.000
G1 E2.00000 F2400.00000
G1 F1800.000
G1 X140.398 Y50.859 E6.05484
G1 X140.398 Y103.984 E8.72095
G1 X140.637 Y107.603 E8.90297
G1 X140.640 Y109.274 E8.98682
G1 X140.496 Y111.907 E9.11920
G1 X140.197 Y114.544 E9.25238
G1 X139.716 Y117.119 E9.38381
G1 X138.833 Y120.488 E9.55861
G1 X137.943 Y123.081 E9.69618
G1 X136.598 Y126.195 E9.86643
G1 X135.784 Y127.789 E9.95623
G1 X133.987 Y130.805 E10.13246
G1 X131.960 Y133.627 E10.30681
G1 X129.716 Y136.243 E10.47981
G1 X128.393 Y137.594 E10.57467
G1 X126.517 Y139.306 E10.70212
G1 X124.457 Y140.977 E10.83523
G1 X121.569 Y142.963 E11.01113
G1 X118.542 Y144.683 E11.18586
G1 X116.876 Y145.485 E11.27866
G1 X113.734 Y146.767 E11.44898
G1 X110.390 Y147.808 E11.62473
G1 X106.970 Y148.557 E11.80044
G1 X103.494 Y149.008 E11.97636
G1 X100.904 Y149.140 E12.10654
G1 X98.273 Y149.122 E12.23858
G1 X96.509 Y149.009 E12.32725
G1 X93.080 Y148.565 E12.50081
G1 X91.318 Y148.221 E12.59089
G1 X87.975 Y147.339 E12.76440
G1 X86.385 Y146.805 E12.84859
G1 X84.608 Y146.131 E12.94395
G1 X81.450 Y144.678 E13.11840
G1 X78.503 Y143.003 E13.28850
G1 X76.923 Y141.972 E13.38321
G1 X74.125 Y139.858 E13.55918
G1 X71.524 Y137.515 E13.73491
G1 X69.133 Y134.957 E13.91062
G1 X66.972 Y132.202 E14.08636
G1 X65.055 Y129.272 E14.26208
G1 X63.398 Y126.187 E14.43780
G1 X62.013 Y122.971 E14.61354
G1 X60.917 Y119.676 E14.78781
G1 X60.127 Y116.380 E14.95791
G1 X59.800 Y114.520 E15.05267
G1 X59.440 Y111.139 E15.22332
G1 X59.361 Y109.351 E15.31315
G1 X59.402 Y106.715 E15.44545
G1 X59.602 Y103.987 E15.58271
G1 X59.602 Y50.919 E18.24597
G1 X59.257 Y50.514 F7800.000
G1 F1800.000
G1 X140.743 Y50.514 E22.33543
G1 X140.743 Y103.972 E25.01827
G1 X140.982 Y107.591 E25.20028
G1 X140.985 Y109.283 E25.28517
G1 X140.840 Y111.936 E25.41854
G1 X140.538 Y114.596 E25.55285
G1 X140.053 Y117.194 E25.68552
G1 X139.163 Y120.588 E25.86158
G1 X138.265 Y123.205 E26.00046
G1 X136.911 Y126.342 E26.17194
G1 X136.086 Y127.956 E26.26286
G1 X134.275 Y130.995 E26.44040
G1 X132.231 Y133.840 E26.61623
G1 X129.970 Y136.476 E26.79055
G1 X128.633 Y137.842 E26.88646
G1 X126.742 Y139.567 E27.01490
G1 X124.664 Y141.253 E27.14920
G1 X121.753 Y143.255 E27.32653
G1 X118.703 Y144.988 E27.50259
G1 X117.016 Y145.800 E27.59651
G1 X113.851 Y147.092 E27.76811
G1 X110.479 Y148.142 E27.94534
G1 X107.029 Y148.897 E28.12255
G1 X103.525 Y149.352 E28.29989
G1 X100.911 Y149.485 E28.43125
G1 X98.260 Y149.466 E28.56429
G1 X96.476 Y149.352 E28.65401
G1 X93.024 Y148.905 E28.82869
G1 X91.241 Y148.557 E28.91989
G1 X87.876 Y147.669 E29.09452
G1 X86.269 Y147.130 E29.17962
G1 X84.475 Y146.449 E29.27592
G1 X81.293 Y144.986 E29.45170
G1 X78.324 Y143.298 E29.62307
G1 X76.725 Y142.254 E29.71891
G1 X73.906 Y140.125 E29.89622
G1 X71.282 Y137.761 E30.07344
G1 X68.871 Y135.181 E30.25065
G1 X66.691 Y132.403 E30.42788
G1 X64.758 Y129.448 E30.60509
G1 X63.087 Y126.337 E30.78230
G1 X61.690 Y123.094 E30.95953
G1 X60.585 Y119.771 E31.13529
G1 X59.789 Y116.450 E31.30666
G1 X59.459 Y114.568 E31.40254
G1 X59.096 Y111.165 E31.57431
G1 X59.016 Y109.356 E31.66520
G1 X59.057 Y106.700 E31.79851
G1 X59.257 Y103.974 E31.93564
G1 X59.257 Y50.574 E34.61557
G1 X58.912 Y50.169 F7800.000
G1 F1800.000
G1 X141.088 Y50.169 E38.73964
G1 X141.088 Y103.961 E41.43922
G1 X141.327 Y107.580 E41.62122
G1 X141.330 Y109.292 E41.70716
G1 X141.184 Y111.965 E41.84152
G1 X140.879 Y114.647 E41.97695
G1 X140.390 Y117.270 E42.11087
G1 X139.494 Y120.688 E42.28819
G1 X138.586 Y123.330 E42.42838
G1 X137.223 Y126.489 E42.60108
G1 X136.388 Y128.123 E42.69313
G1 X134.564 Y131.184 E42.87198
G1 X132.503 Y134.053 E43.04929
G1 X130.224 Y136.710 E43.22492
G1 X128.872 Y138.090 E43.32190
G1 X126.967 Y139.829 E43.45133
G1 X124.871 Y141.530 E43.58681
G1 X121.936 Y143.548 E43.76557
G1 X118.863 Y145.294 E43.94296
G1 X117.157 Y146.116 E44.03800
G1 X113.967 Y147.417 E44.21087
G1 X110.567 Y148.476 E44.38959
G1 X107.089 Y149.237 E44.56829
G1 X103.556 Y149.696 E44.74706
G1 X100.919 Y149.830 E44.87960
G1 X98.248 Y149.811 E45.01363
G1 X96.443 Y149.696 E45.10440
G1 X92.969 Y149.246 E45.28020
G1 X91.164 Y148.894 E45.37252
G1 X87.777 Y148.000 E45.54829
G1 X86.152 Y147.455 E45.63429
G1 X84.341 Y146.768 E45.73152
G1 X81.135 Y145.293 E45.90863
G1 X78.144 Y143.593 E46.08128
G1 X76.526 Y142.537 E46.17825
G1 X73.686 Y140.391 E46.35690
G1 X71.040 Y138.008 E46.53561
G1 X68.609 Y135.406 E46.71431
G1 X66.411 Y132.604 E46.89303
G1 X64.461 Y129.624 E47.07173
G1 X62.776 Y126.487 E47.25044
G1 X61.368 Y123.217 E47.42915
G1 X60.253 Y119.866 E47.60640
G1 X59.451 Y116.520 E47.77905
G1 X59.117 Y114.616 E47.87605
G1 X58.752 Y111.191 E48.04894
G1 X58.671 Y109.360 E48.14088
G1 X58.713 Y106.684 E48.27520
G1 X58.912 Y103.962 E48.41220
G1 X58.912 Y50.229 E51.10880
G1 X59.258 Y50.370 F7800.000
G1 E49.10880 F2400.00000
G92 E0
G1 X82.238 Y71.710 F7800.000
G1 E2.00000 F2400.00000
G1 F1800.000
G1 X136.557 Y126.029 E5.85855
G1 E3.85855 F2400.00000
G92 E0
G1 X69.022 Y134.647 F7800.000
G1 E2.00000 F2400.00000
G1 F1800.000
G1 X71.707 Y137.332 E2.19072
G1 X74.290 Y139.659 E2.36537
G1 X75.237 Y140.374 E2.42500
G1 X68.160 Y133.296 E2.92777
G1 X67.182 Y132.051 E3.00730
G1 X66.766 Y131.415 E3.04546
G1 X77.186 Y141.835 E3.78563
G1 X78.591 Y142.752 E3.86989
G1 X65.843 Y130.003 E4.77546
G1 X65.277 Y129.139 E4.82732
G1 X65.058 Y128.730 E4.85066
G1 X79.731 Y143.404 E5.89300
G1 X80.863 Y144.047 E5.95836
G1 X64.491 Y127.675 E7.12131
G1 X63.924 Y126.621 E7.18144
G1 X81.908 Y144.605 E8.45890
G1 X82.812 Y145.020 E8.50888
G1 X63.453 Y125.661 E9.88405
G1 X63.084 Y124.804 E9.93094
G1 X83.716 Y145.436 E11.39656
G1 X84.620 Y145.852 E11.44654
G1 X62.714 Y123.946 E13.00260
G1 X62.345 Y123.088 E13.04950
G1 X85.418 Y146.162 E14.68849
G1 X86.205 Y146.460 E14.73075
