; generated by PrusaSlicer 2.2.0+win64 on 2020-09-24 at 06:29:14 UTC

; 

; external perimeters extrusion width = 0.45mm
; perimeters extrusion width = 0.45mm
; infill extrusion width = 0.45mm
; solid infill extrusion width = 0.45mm
; top infill extrusion width = 0.40mm
; first layer extrusion width = 0.42mm

M73 P0 R482
M73 Q0 S486
M201 X1000 Y1000 Z200 E5000 ; sets maximum accelerations, mm/sec^2
M203 X200 Y200 Z12 E120 ; sets maximum feedrates, mm/sec
M204 P1250 R1250 T1250 ; sets acceleration (P, T) and retract acceleration (R), mm/sec^2
M205 X8.00 Y8.00 Z0.40 E4.50 ; sets the jerk limits, mm/sec
M205 S0 T0 ; sets the minimum extruding and travel feed rate, mm/sec
M107
M862.3 P "MK3S" ; printer model check
M862.1 P0.4 ; nozzle diameter check
M115 U3.9.0 ; tell printer latest fw version
G90 ; use absolute coordinates
M83 ; extruder relative mode
M104 S240 ; set extruder temp
M140 S85 ; set bed temp
M190 S85 ; wait for bed temp
M109 S240 ; wait for extruder temp
G28 W ; home all without mesh bed level
G80 ; mesh bed leveling
G1 Y-3.0 F1000.0 ; go outside print area
G92 E0.0
G1 X60.0 E9.0 F1000.0 ; intro line
M73 Q0 S486
M73 P0 R482
G1 X100.0 E12.5 F1000.0 ; intro line
G92 E0.0
M221 S95

; Don't change E values below. Excessive value can damage the printer.
M907 E430 ; set extruder motor current
G21 ; set units to millimeters
G90 ; use absolute coordinates
M83 ; use relative distances for extrusion
M900 K0.08 ; Filament gcode LA 1.5
M900 K45 ; Filament gcode LA 1.0
;BEFORE_LAYER_CHANGE
G92 E0.0
;0.2


G1 E-1.40000 F2100.00000
G1 Z0.200 F10800.000
;AFTER_LAYER_CHANGE
;0.2
G1 Z0.400
G1 X87.678 Y73.269
G1 Z0.200
G1 E1.40000 F2100.00000
M204 S1000
G1 F1200.000
G1 X88.484 Y73.123 E0.02567
G1 X161.504 Y73.123 E2.28949
G1 X162.399 Y73.299 E0.02860
G1 X163.162 Y73.800 E0.02860
G1 X163.679 Y74.551 E0.02860
G1 X163.876 Y75.442 E0.02860
G1 X163.877 Y134.534 E1.85280
G1 X163.816 Y135.036 E0.01585
G1 X163.648 Y135.517 E0.01597
G1 X163.382 Y135.952 E0.01597
G1 X163.030 Y136.319 E0.01597
G1 X162.322 Y136.731 E0.02567
G1 X161.516 Y136.877 E0.02567
G1 X88.492 Y136.877 E2.28961
G1 X87.979 Y136.819 E0.01621
G1 X87.493 Y136.653 E0.01609
G1 X87.054 Y136.387 E0.01609
G1 X86.681 Y136.030 E0.01621
G1 X86.271 Y135.325 E0.02555
G1 X86.123 Y134.524 E0.02555
G1 X86.123 Y75.489 E1.85101
G1 X86.181 Y74.979 E0.01609
G1 X86.347 Y74.493 E0.01609
G1 X86.613 Y74.054 E0.01609
G1 X86.970 Y73.681 E0.01621
G1 X87.626 Y73.300 E0.02379
G1 F8640.000
G1 X88.484 Y73.123 E-0.20211
G1 X93.368 Y73.123 E-1.12789
G1 E-0.07000 F2100.00000
G1 Z0.400 F10800.000
G1 X89.287 Y76.287
G1 Z0.200
G1 E1.40000 F2100.00000
G1 F1200.000
G1 X160.713 Y76.287 E2.23951
G1 X160.713 Y133.713 E1.80055
G1 X89.287 Y133.713 E2.23951
G1 X89.287 Y76.347 E1.79867
G1 X88.910 Y75.910 F10800.000
G1 F1200.000
G1 X161.090 Y75.910 E2.26315
G1 X161.090 Y134.090 E1.82419
G1 X88.910 Y134.090 E2.26315
G1 X88.910 Y75.970 E1.82231
G1 X89.300 Y76.000 F10800.000
G1 F8640.000
G1 X94.670 Y75.965 E-1.33000
G1 E-0.07000 F2100.00000
G1 Z0.400 F10800.000
G1 X160.600 Y77.166
G1 Z0.200
G1 E1.40000 F2100.00000
G1 F1200.000
G1 X160.004 Y76.570 E0.02651
G1 X159.469 Y76.570 E0.01685
G1 X160.430 Y77.531 E0.04279
G1 X160.430 Y78.066 E0.01685
G1 X158.934 Y76.570 E0.06661
G1 X158.398 Y76.570 E0.01685
G1 X160.430 Y78.602 E0.09044
G1 X160.430 Y79.137 E0.01685
G1 X157.863 Y76.570 E0.11427
G1 X157.328 Y76.570 E0.01685
G1 X160.430 Y79.672 E0.13810
G1 X160.430 Y80.208 E0.01685
G1 X156.792 Y76.570 E0.16192
G1 X156.257 Y76.570 E0.01685
G1 X160.430 Y80.743 E0.18575
G1 X160.430 Y81.278 E0.01685
G1 X155.722 Y76.570 E0.20958
G1 X155.186 Y76.570 E0.01685
G1 X160.430 Y81.814 E0.23341
G1 X160.430 Y82.349 E0.01685
G1 X154.651 Y76.570 E0.25723
G1 X154.116 Y76.570 E0.01685
G1 X160.430 Y82.884 E0.28106
G1 X160.430 Y83.420 E0.01685
G1 X153.580 Y76.570 E0.30489
G1 X153.045 Y76.570 E0.01685
G1 X160.430 Y83.955 E0.32872
G1 X160.430 Y84.490 E0.01685
G1 X152.510 Y76.570 E0.35254
G1 X151.974 Y76.570 E0.01685
G1 X160.430 Y85.025 E0.37637
G1 X160.430 Y85.561 E0.01685
G1 X151.439 Y76.570 E0.40020
G1 X150.904 Y76.570 E0.01685
G1 X160.430 Y86.096 E0.42403
G1 X160.430 Y86.631 E0.01685
G1 X150.369 Y76.570 E0.44785
G1 X149.833 Y76.570 E0.01685
G1 X160.430 Y87.167 E0.47168
G1 X160.430 Y87.702 E0.01685
G1 X149.298 Y76.570 E0.49551
G1 X148.763 Y76.570 E0.01685
G1 X160.430 Y88.237 E0.51933
G1 X160.430 Y88.773 E0.01685
G1 X148.227 Y76.570 E0.54316
G1 X147.692 Y76.570 E0.01685
G1 X160.430 Y89.308 E0.56699
G1 X160.430 Y89.843 E0.01685
G1 X147.157 Y76.570 E0.59082
G1 X146.621 Y76.570 E0.01685
G1 X160.430 Y90.379 E0.61464
G1 X160.430 Y90.914 E0.01685
G1 X146.086 Y76.570 E0.63847
M73 Q0 S485
G1 X145.551 Y76.570 E0.01685
G1 X160.430 Y91.449 E0.66230
M73 P0 R481
G1 X160.430 Y91.985 E0.01685
G1 X145.015 Y76.570 E0.68613
G1 X144.480 Y76.570 E0.01685
G1 X160.430 Y92.520 E0.70995
G1 X160.430 Y93.055 E0.01685
G1 X143.945 Y76.570 E0.73378
G1 X143.410 Y76.570 E0.01685
G1 X160.430 Y93.590 E0.75761
G1 X160.430 Y94.126 E0.01685
G1 X142.874 Y76.570 E0.78144
G1 X142.339 Y76.570 E0.01685
G1 X160.430 Y94.661 E0.80526
G1 X160.430 Y95.196 E0.01685
G1 X141.804 Y76.570 E0.82909
G1 X141.268 Y76.570 E0.01685
G1 X160.430 Y95.732 E0.85292
G1 X160.430 Y96.267 E0.01685
G1 X140.733 Y76.570 E0.87675
G1 X140.198 Y76.570 E0.01685
G1 X160.430 Y96.802 E0.90057
G1 X160.430 Y97.338 E0.01685
G1 X139.662 Y76.570 E0.92440
G1 X139.127 Y76.570 E0.01685
G1 X160.430 Y97.873 E0.94823
G1 X160.430 Y98.408 E0.01685
G1 X138.592 Y76.570 E0.97206
G1 X138.056 Y76.570 E0.01685
G1 X160.430 Y98.944 E0.99588
G1 X160.430 Y99.479 E0.01685
G1 X137.521 Y76.570 E1.01971
G1 X136.986 Y76.570 E0.01685
G1 X160.430 Y100.014 E1.04354
G1 X160.430 Y100.550 E0.01685
G1 X136.450 Y76.570 E1.06736
G1 X135.915 Y76.570 E0.01685
G1 X160.430 Y101.085 E1.09119
G1 X160.430 Y101.620 E0.01685
G1 X135.380 Y76.570 E1.11502
G1 X134.845 Y76.570 E0.01685
G1 X160.430 Y102.155 E1.13885
G1 X160.430 Y102.691 E0.01685
G1 X134.309 Y76.570 E1.16267
G1 X133.774 Y76.570 E0.01685
G1 X160.430 Y103.226 E1.18650
G1 X160.430 Y103.761 E0.01685
G1 X133.239 Y76.570 E1.21033
G1 X132.703 Y76.570 E0.01685
G1 X160.430 Y104.297 E1.23416
G1 X160.430 Y104.832 E0.01685
G1 X132.168 Y76.570 E1.25798
G1 X131.633 Y76.570 E0.01685
G1 X160.430 Y105.367 E1.28181
G1 X160.430 Y105.903 E0.01685
G1 X131.097 Y76.570 E1.30564
G1 X130.562 Y76.570 E0.01685
G1 X160.430 Y106.438 E1.32947
G1 X160.430 Y106.973 E0.01685
G1 X130.027 Y76.570 E1.35329
G1 X129.491 Y76.570 E0.01685
G1 X160.430 Y107.509 E1.37712
G1 X160.430 Y108.044 E0.01685
G1 X128.956 Y76.570 E1.40095
G1 X128.421 Y76.570 E0.01685
G1 X160.430 Y108.579 E1.42478
G1 X160.430 Y109.114 E0.01685
G1 X127.886 Y76.570 E1.44860
G1 X127.350 Y76.570 E0.01685
G1 X160.430 Y109.650 E1.47243
M73 Q0 S484
G1 X160.430 Y110.185 E0.01685
G1 X126.815 Y76.570 E1.49626
M73 P0 R480
G1 X126.280 Y76.570 E0.01685
G1 X160.430 Y110.720 E1.52008
G1 X160.430 Y111.256 E0.01685
G1 X125.744 Y76.570 E1.54391
G1 X125.209 Y76.570 E0.01685
G1 X160.430 Y111.791 E1.56774
G1 X160.430 Y112.326 E0.01685
G1 X124.674 Y76.570 E1.59157
G1 X124.138 Y76.570 E0.01685
G1 X160.430 Y112.862 E1.61539
G1 X160.430 Y113.397 E0.01685
G1 X123.603 Y76.570 E1.63922
G1 X123.068 Y76.570 E0.01685
G1 X160.430 Y113.932 E1.66305
G1 X160.430 Y114.468 E0.01685
G1 X122.532 Y76.570 E1.68688
G1 X121.997 Y76.570 E0.01685
G1 X160.430 Y115.003 E1.71070
G1 X160.430 Y115.538 E0.01685
G1 X121.462 Y76.570 E1.73453
G1 X120.926 Y76.570 E0.01685
G1 X160.430 Y116.074 E1.75836
G1 X160.430 Y116.609 E0.01685
G1 X120.391 Y76.570 E1.78219
G1 X119.856 Y76.570 E0.01685
G1 X160.430 Y117.144 E1.80601
G1 X160.430 Y117.679 E0.01685
G1 X119.321 Y76.570 E1.82984
G1 X118.785 Y76.570 E0.01685
G1 X160.430 Y118.215 E1.85367
G1 X160.430 Y118.750 E0.01685
G1 X118.250 Y76.570 E1.87750
G1 X117.715 Y76.570 E0.01685
G1 X160.430 Y119.285 E1.90132
G1 X160.430 Y119.821 E0.01685
G1 X117.179 Y76.570 E1.92515
G1 X116.644 Y76.570 E0.01685
G1 X160.430 Y120.356 E1.94898
G1 X160.430 Y120.891 E0.01685
G1 X116.109 Y76.570 E1.97281
G1 X115.573 Y76.570 E0.01685
G1 X160.430 Y121.427 E1.99663
M73 Q0 S483
G1 X160.430 Y121.962 E0.01685
G1 X115.038 Y76.570 E2.02046
M73 P0 R478
G1 X114.503 Y76.570 E0.01685
G1 X160.430 Y122.497 E2.04429
G1 X160.430 Y123.033 E0.01685
G1 X113.967 Y76.570 E2.06811
G1 X113.432 Y76.570 E0.01685
G1 X160.430 Y123.568 E2.09194
G1 X160.430 Y124.103 E0.01685
G1 X112.897 Y76.570 E2.11577
G1 X112.361 Y76.570 E0.01685
G1 X160.430 Y124.639 E2.13960
G1 X160.430 Y125.174 E0.01685
G1 X111.826 Y76.570 E2.16342
G1 X111.291 Y76.570 E0.01685
G1 X160.430 Y125.709 E2.18725
G1 X160.430 Y126.244 E0.01685
G1 X110.756 Y76.570 E2.21108
G1 X110.220 Y76.570 E0.01685
G1 X160.430 Y126.780 E2.23491
G1 X160.430 Y127.315 E0.01685
G1 X109.685 Y76.570 E2.25873
G1 X109.150 Y76.570 E0.01685
G1 X160.430 Y127.850 E2.28256
G1 X160.430 Y128.386 E0.01685
G1 X108.614 Y76.570 E2.30639
G1 X108.079 Y76.570 E0.01685
G1 X160.430 Y128.921 E2.33022
G1 X160.430 Y129.456 E0.01685
G1 X107.544 Y76.570 E2.35404
G1 X107.008 Y76.570 E0.01685
G1 X160.430 Y129.992 E2.37787
G1 X160.430 Y130.527 E0.01685
G1 X106.473 Y76.570 E2.40170
M73 Q0 S482
G1 X105.938 Y76.570 E0.01685
G1 X160.430 Y131.062 E2.42553
M73 P0 R477
G1 X160.430 Y131.598 E0.01685
G1 X105.402 Y76.570 E2.44935
G1 X104.867 Y76.570 E0.01685
G1 X160.430 Y132.133 E2.47318
G1 X160.430 Y132.668 E0.01685
G1 X104.332 Y76.570 E2.49701
G1 X103.797 Y76.570 E0.01685
G1 X160.430 Y133.203 E2.52083
G1 X160.430 Y133.430 E0.00713
G1 X160.121 Y133.430 E0.00972
G1 X103.261 Y76.570 E2.53092
G1 X102.726 Y76.570 E0.01685
G1 X159.586 Y133.430 E2.53092
G1 X159.051 Y133.430 E0.01685
G1 X102.191 Y76.570 E2.53092
G1 X101.655 Y76.570 E0.01685
G1 X158.516 Y133.430 E2.53092
G1 X157.980 Y133.430 E0.01685
G1 X101.120 Y76.570 E2.53092
G1 X100.585 Y76.570 E0.01685
G1 X157.445 Y133.430 E2.53092
G1 X156.910 Y133.430 E0.01685
G1 X100.049 Y76.570 E2.53092
G1 X99.514 Y76.570 E0.01685
G1 X156.374 Y133.430 E2.53092
G1 X155.839 Y133.430 E0.01685
G1 X98.979 Y76.570 E2.53092
G1 X98.443 Y76.570 E0.01685
G1 X155.304 Y133.430 E2.53092
M73 Q1 S481
G1 X154.768 Y133.430 E0.01685
G1 X97.908 Y76.570 E2.53092
M73 P1 R476
G1 X97.373 Y76.570 E0.01685
G1 X154.233 Y133.430 E2.53092
G1 X153.698 Y133.430 E0.01685
G1 X96.837 Y76.570 E2.53092
G1 X96.302 Y76.570 E0.01685
G1 X153.162 Y133.430 E2.53092
G1 X152.627 Y133.430 E0.01685
G1 X95.767 Y76.570 E2.53092
G1 X95.232 Y76.570 E0.01685
G1 X152.092 Y133.430 E2.53092
G1 X151.556 Y133.430 E0.01685
G1 X94.696 Y76.570 E2.53092
G1 X94.161 Y76.570 E0.01685
G1 X151.021 Y133.430 E2.53092
G1 X150.486 Y133.430 E0.01685
G1 X93.626 Y76.570 E2.53092
G1 X93.090 Y76.570 E0.01685
G1 X149.951 Y133.430 E2.53092
G1 X149.415 Y133.430 E0.01685
G1 X92.555 Y76.570 E2.53092
G1 X92.020 Y76.570 E0.01685
G1 X148.880 Y133.430 E2.53092
G1 X148.345 Y133.430 E0.01685
G1 X91.484 Y76.570 E2.53092
G1 X90.949 Y76.570 E0.01685
G1 X147.809 Y133.430 E2.53092
G1 X147.274 Y133.430 E0.01685
G1 X90.414 Y76.570 E2.53092
M73 Q1 S480
G1 X89.878 Y76.570 E0.01685
G1 X146.739 Y133.430 E2.53092
M73 P1 R475
G1 X146.203 Y133.430 E0.01685
G1 X89.570 Y76.797 E2.52083
G1 X89.570 Y77.332 E0.01685
G1 X145.668 Y133.430 E2.49700
G1 X145.133 Y133.430 E0.01685
G1 X89.570 Y77.867 E2.47317
G1 X89.570 Y78.403 E0.01685
G1 X144.597 Y133.430 E2.44935
G1 X144.062 Y133.430 E0.01685
G1 X89.570 Y78.938 E2.42552
G1 X89.570 Y79.473 E0.01685
G1 X143.527 Y133.430 E2.40169
G1 X142.991 Y133.430 E0.01685
G1 X89.570 Y80.008 E2.37787
G1 X89.570 Y80.544 E0.01685
G1 X142.456 Y133.430 E2.35404
G1 X141.921 Y133.430 E0.01685
G1 X89.570 Y81.079 E2.33021
G1 X89.570 Y81.614 E0.01685
G1 X141.386 Y133.430 E2.30638
G1 X140.850 Y133.430 E0.01685
G1 X89.570 Y82.150 E2.28256
G1 X89.570 Y82.685 E0.01685
G1 X140.315 Y133.430 E2.25873
G1 X139.780 Y133.430 E0.01685
G1 X89.570 Y83.220 E2.23490
G1 X89.570 Y83.756 E0.01685
G1 X139.244 Y133.430 E2.21107
G1 X138.709 Y133.430 E0.01685
G1 X89.570 Y84.291 E2.18725
M73 Q1 S479
G1 X89.570 Y84.826 E0.01685
G1 X138.174 Y133.430 E2.16342
M73 P1 R474
G1 X137.638 Y133.430 E0.01685
G1 X89.570 Y85.362 E2.13959
G1 X89.570 Y85.897 E0.01685
G1 X137.103 Y133.430 E2.11576
G1 X136.568 Y133.430 E0.01685
G1 X89.570 Y86.432 E2.09194
G1 X89.570 Y86.968 E0.01685
G1 X136.032 Y133.430 E2.06811
G1 X135.497 Y133.430 E0.01685
G1 X89.570 Y87.503 E2.04428
G1 X89.570 Y88.038 E0.01685
G1 X134.962 Y133.430 E2.02045
G1 X134.427 Y133.430 E0.01685
G1 X89.570 Y88.573 E1.99663
G1 X89.570 Y89.109 E0.01685
G1 X133.891 Y133.430 E1.97280
G1 X133.356 Y133.430 E0.01685
G1 X89.570 Y89.644 E1.94897
G1 X89.570 Y90.179 E0.01685
G1 X132.821 Y133.430 E1.92514
G1 X132.285 Y133.430 E0.01685
G1 X89.570 Y90.715 E1.90132
G1 X89.570 Y91.250 E0.01685
G1 X131.750 Y133.430 E1.87749
G1 X131.215 Y133.430 E0.01685
G1 X89.570 Y91.785 E1.85366
G1 X89.570 Y92.321 E0.01685
G1 X130.679 Y133.430 E1.82984
G1 X130.144 Y133.430 E0.01685
G1 X89.570 Y92.856 E1.80601
G1 X89.570 Y93.391 E0.01685
G1 X129.609 Y133.430 E1.78218
G1 X129.073 Y133.430 E0.01685
G1 X89.570 Y93.927 E1.75835
G1 X89.570 Y94.462 E0.01685
G1 X128.538 Y133.430 E1.73453
G1 X128.003 Y133.430 E0.01685
G1 X89.570 Y94.997 E1.71070
M73 Q1 S478
G1 X89.570 Y95.533 E0.01685
G1 X127.467 Y133.430 E1.68687
M73 P1 R473
G1 X126.932 Y133.430 E0.01685
G1 X89.570 Y96.068 E1.66304
G1 X89.570 Y96.603 E0.01685
G1 X126.397 Y133.430 E1.63922
G1 X125.862 Y133.430 E0.01685
G1 X89.570 Y97.138 E1.61539
G1 X89.570 Y97.674 E0.01685
G1 X125.326 Y133.430 E1.59156
G1 X124.791 Y133.430 E0.01685
G1 X89.570 Y98.209 E1.56773
G1 X89.570 Y98.744 E0.01685
G1 X124.256 Y133.430 E1.54391
G1 X123.720 Y133.430 E0.01685
G1 X89.570 Y99.280 E1.52008
G1 X89.570 Y99.815 E0.01685
G1 X123.185 Y133.430 E1.49625
G1 X122.650 Y133.430 E0.01685
G1 X89.570 Y100.350 E1.47242
G1 X89.570 Y100.886 E0.01685
G1 X122.114 Y133.430 E1.44860
G1 X121.579 Y133.430 E0.01685
G1 X89.570 Y101.421 E1.42477
G1 X89.570 Y101.956 E0.01685
G1 X121.044 Y133.430 E1.40094
G1 X120.508 Y133.430 E0.01685
G1 X89.570 Y102.492 E1.37712
G1 X89.570 Y103.027 E0.01685
G1 X119.973 Y133.430 E1.35329
G1 X119.438 Y133.430 E0.01685
G1 X89.570 Y103.562 E1.32946
G1 X89.570 Y104.097 E0.01685
G1 X118.903 Y133.430 E1.30563
G1 X118.367 Y133.430 E0.01685
G1 X89.570 Y104.633 E1.28181
G1 X89.570 Y105.168 E0.01685
G1 X117.832 Y133.430 E1.25798
G1 X117.297 Y133.430 E0.01685
G1 X89.570 Y105.703 E1.23415
G1 X89.570 Y106.239 E0.01685
G1 X116.761 Y133.430 E1.21032
G1 X116.226 Y133.430 E0.01685
G1 X89.570 Y106.774 E1.18650
G1 X89.570 Y107.309 E0.01685
G1 X115.691 Y133.430 E1.16267
G1 X115.155 Y133.430 E0.01685
G1 X89.570 Y107.845 E1.13884
G1 X89.570 Y108.380 E0.01685
G1 X114.620 Y133.430 E1.11501
G1 X114.085 Y133.430 E0.01685
G1 X89.570 Y108.915 E1.09119
G1 X89.570 Y109.451 E0.01685
G1 X113.549 Y133.430 E1.06736
M73 Q1 S477
G1 X113.014 Y133.430 E0.01685
G1 X89.570 Y109.986 E1.04353
G1 X89.570 Y110.521 E0.01685
G1 X112.479 Y133.430 E1.01970
M73 P1 R472
G1 X111.943 Y133.430 E0.01685
G1 X89.570 Y111.057 E0.99588
G1 X89.570 Y111.592 E0.01685
G1 X111.408 Y133.430 E0.97205
G1 X110.873 Y133.430 E0.01685
G1 X89.570 Y112.127 E0.94822
G1 X89.570 Y112.662 E0.01685
G1 X110.338 Y133.430 E0.92440
G1 X109.802 Y133.430 E0.01685
G1 X89.570 Y113.198 E0.90057
G1 X89.570 Y113.733 E0.01685
G1 X109.267 Y133.430 E0.87674
G1 X108.732 Y133.430 E0.01685
G1 X89.570 Y114.268 E0.85291
G1 X89.570 Y114.804 E0.01685
G1 X108.196 Y133.430 E0.82909
G1 X107.661 Y133.430 E0.01685
G1 X89.570 Y115.339 E0.80526
G1 X89.570 Y115.874 E0.01685
G1 X107.126 Y133.430 E0.78143
G1 X106.590 Y133.430 E0.01685
G1 X89.570 Y116.410 E0.75760
G1 X89.570 Y116.945 E0.01685
G1 X106.055 Y133.430 E0.73378
G1 X105.520 Y133.430 E0.01685
G1 X89.570 Y117.480 E0.70995
G1 X89.570 Y118.016 E0.01685
G1 X104.984 Y133.430 E0.68612
G1 X104.449 Y133.430 E0.01685
G1 X89.570 Y118.551 E0.66229
G1 X89.570 Y119.086 E0.01685
G1 X103.914 Y133.430 E0.63847
G1 X103.378 Y133.430 E0.01685
G1 X89.570 Y119.622 E0.61464
G1 X89.570 Y120.157 E0.01685
G1 X102.843 Y133.430 E0.59081
G1 X102.308 Y133.430 E0.01685
G1 X89.570 Y120.692 E0.56698
G1 X89.570 Y121.227 E0.01685
G1 X101.773 Y133.430 E0.54316
G1 X101.237 Y133.430 E0.01685
G1 X89.570 Y121.763 E0.51933
