; generated by PrusaSlicer 2.2.0+win64 on 2020-10-13 at 04:58:18 UTC

; 

; external perimeters extrusion width = 0.45mm
; perimeters extrusion width = 0.45mm
; infill extrusion width = 0.45mm
; solid infill extrusion width = 0.45mm
; top infill extrusion width = 0.40mm
; first layer extrusion width = 0.42mm

M73 P0 R103
M73 Q0 S104
M201 X1000 Y1000 Z200 E5000 ; sets maximum accelerations, mm/sec^2
M203 X200 Y200 Z12 E120 ; sets maximum feedrates, mm/sec
M204 P1250 R1250 T1250 ; sets acceleration (P, T) and retract acceleration (R), mm/sec^2
M205 X8.00 Y8.00 Z0.40 E4.50 ; sets the jerk limits, mm/sec
M205 S0 T0 ; sets the minimum extruding and travel feed rate, mm/sec
M107
M862.3 P "MK3S" ; printer model check
M862.1 P0.4 ; nozzle diameter check
M115 U3.9.1 ; tell printer latest fw version
G90 ; use absolute coordinates
M83 ; extruder relative mode
M104 S240 ; set extruder temp
M140 S85 ; set bed temp
M190 S85 ; wait for bed temp
M109 S240 ; wait for extruder temp
G28 W ; home all without mesh bed level
G80 ; mesh bed leveling
G1 Y-3.0 F1000.0 ; go outside print area
G92 E0.0
G1 X60.0 E9.0 F1000.0 ; intro line
M73 Q0 S104
M73 P0 R103
G1 X100.0 E12.5 F1000.0 ; intro line
G92 E0.0
M221 S95

; Don't change E values below. Excessive value can damage the printer.
M907 E430 ; set extruder motor current
G21 ; set units to millimeters
G90 ; use absolute coordinates
M83 ; use relative distances for extrusion
M900 K0.08 ; Filament gcode LA 1.5
M900 K45 ; Filament gcode LA 1.0
;BEFORE_LAYER_CHANGE
G92 E0.0
;0.2


G1 Z0.200 F10800.000
;AFTER_LAYER_CHANGE
;0.2
G1 E-2.00000 F2700.00000
G1 Z0.400 F10800.000
G1 X105.202 Y66.774
G1 Z0.200
G1 E2.00000 F2700.00000
M204 S1000
G1 F1200.000
G1 X106.054 Y66.625 E0.02711
G1 X142.466 Y66.623 E1.14170
G1 X143.081 Y66.685 E0.01937
G1 X143.654 Y66.859 E0.01878
G1 X144.200 Y67.151 E0.01943
G1 X144.623 Y67.489 E0.01696
G1 X145.013 Y67.941 E0.01871
G1 X145.319 Y68.477 E0.01935
G1 X145.513 Y69.063 E0.01935
G1 X145.588 Y69.658 E0.01880
G1 X145.590 Y140.261 E2.21373
G1 X145.514 Y140.933 E0.02119
G1 X145.281 Y141.603 E0.02222
G1 X144.802 Y142.324 E0.02715
G1 X144.132 Y142.893 E0.02759
G1 X143.387 Y143.237 E0.02572
G1 X142.548 Y143.376 E0.02664
G1 X106.143 Y143.377 E1.14145
G1 X105.469 Y143.299 E0.02127
G1 X104.808 Y143.068 E0.02198
G1 X104.078 Y142.581 E0.02751
G1 X103.515 Y141.913 E0.02739
G1 X103.173 Y141.166 E0.02575
G1 X103.036 Y140.298 E0.02754
G1 X103.035 Y69.739 E2.21235
G1 X103.112 Y69.061 E0.02137
G1 X103.345 Y68.394 E0.02215
G1 X103.809 Y67.691 E0.02643
G1 X104.423 Y67.152 E0.02560
G1 X105.148 Y66.800 E0.02527
G1 E-2.00000 F2700.00000
G1 Z0.400 F10800.000
G1 X106.200 Y69.787
G1 Z0.200
G1 E2.00000 F2700.00000
G1 F1200.000
G1 X142.424 Y69.790 E1.13579
G1 X142.425 Y140.213 E2.20805
G1 X106.200 Y140.213 E1.13584
G1 X106.200 Y69.847 E2.20627
G1 X105.989 Y69.460 F10800.000
G1 F1200.000
G1 X106.097 Y69.418 E0.00365
G1 X106.178 Y69.410 E0.00255
G1 X142.492 Y69.413 E1.13859
G1 X142.594 Y69.441 E0.00330
G1 X142.712 Y69.526 E0.00455
G1 X142.784 Y69.651 E0.00453
G1 X142.803 Y69.771 E0.00382
G1 X142.803 Y140.234 E2.20930
G1 X142.754 Y140.419 E0.00598
G1 X142.636 Y140.540 E0.00531
G1 X142.528 Y140.582 E0.00365
G1 X142.447 Y140.590 E0.00255
G1 X106.178 Y140.590 E1.13716
G1 X106.097 Y140.582 E0.00255
G1 X105.989 Y140.540 E0.00365
G1 X105.871 Y140.419 E0.00531
G1 X105.822 Y140.234 E0.00598
G1 X105.822 Y69.766 E2.20947
G1 X105.871 Y69.581 E0.00598
G1 X105.940 Y69.495 E0.00347
G1 X106.094 Y69.510 F10800.000
G1 E-2.00000 F2700.00000
G1 Z0.400 F10800.000
G1 X106.313 Y139.336
G1 Z0.200
G1 E2.00000 F2700.00000
G1 F1200.000
G1 X106.906 Y139.930 E0.02636
G1 X107.440 Y139.930 E0.01677
G1 X106.482 Y138.972 E0.04254
G1 X106.482 Y138.438 E0.01677
G1 X107.974 Y139.930 E0.06625
G1 X108.508 Y139.930 E0.01677
G1 X106.482 Y137.904 E0.08997
G1 X106.482 Y137.370 E0.01677
G1 X109.042 Y139.930 E0.11368
G1 X109.577 Y139.930 E0.01677
G1 X106.482 Y136.836 E0.13739
G1 X106.482 Y136.302 E0.01677
G1 X110.111 Y139.930 E0.16110
G1 X110.645 Y139.930 E0.01677
G1 X106.482 Y135.768 E0.18482
G1 X106.482 Y135.234 E0.01677
G1 X111.179 Y139.930 E0.20853
G1 X111.713 Y139.930 E0.01677
G1 X106.482 Y134.700 E0.23224
G1 X106.482 Y134.166 E0.01677
G1 X112.247 Y139.930 E0.25595
G1 X112.781 Y139.930 E0.01677
G1 X106.482 Y133.632 E0.27967
G1 X106.482 Y133.098 E0.01677
G1 X113.315 Y139.930 E0.30338
G1 X113.849 Y139.930 E0.01677
G1 X106.482 Y132.564 E0.32709
G1 X106.482 Y132.030 E0.01677
G1 X114.383 Y139.930 E0.35080
G1 X114.917 Y139.930 E0.01677
G1 X106.482 Y131.496 E0.37452
G1 X106.482 Y130.962 E0.01677
G1 X115.451 Y139.930 E0.39823
G1 X115.985 Y139.930 E0.01677
G1 X106.482 Y130.428 E0.42194
G1 X106.482 Y129.894 E0.01677
G1 X116.519 Y139.930 E0.44565
G1 X117.053 Y139.930 E0.01677
G1 X106.482 Y129.360 E0.46937
G1 X106.482 Y128.826 E0.01677
G1 X117.587 Y139.930 E0.49308
G1 X118.121 Y139.930 E0.01677
G1 X106.482 Y128.292 E0.51679
G1 X106.482 Y127.758 E0.01677
G1 X118.655 Y139.930 E0.54050
G1 X119.189 Y139.930 E0.01677
G1 X106.482 Y127.224 E0.56422
G1 X106.482 Y126.690 E0.01677
G1 X119.723 Y139.930 E0.58793
G1 X120.257 Y139.930 E0.01677
G1 X106.482 Y126.156 E0.61164
G1 X106.482 Y125.622 E0.01677
G1 X120.791 Y139.930 E0.63535
G1 X121.325 Y139.930 E0.01677
G1 X106.482 Y125.088 E0.65906
G1 X106.482 Y124.554 E0.01677
G1 X121.859 Y139.930 E0.68278
G1 X122.393 Y139.930 E0.01677
G1 X106.482 Y124.020 E0.70649
G1 X106.482 Y123.486 E0.01677
G1 X122.927 Y139.930 E0.73020
G1 X123.461 Y139.930 E0.01677
G1 X106.482 Y122.952 E0.75391
G1 X106.482 Y122.417 E0.01677
G1 X123.995 Y139.930 E0.77763
M73 Q1 S103
G1 X124.529 Y139.930 E0.01677
G1 X106.482 Y121.883 E0.80134
M73 P1 R102
G1 X106.482 Y121.349 E0.01677
G1 X125.063 Y139.930 E0.82505
G1 X125.597 Y139.930 E0.01677
G1 X106.482 Y120.815 E0.84876
G1 X106.482 Y120.281 E0.01677
G1 X126.131 Y139.930 E0.87248
G1 X126.665 Y139.930 E0.01677
G1 X106.482 Y119.747 E0.89619
G1 X106.482 Y119.213 E0.01677
G1 X127.199 Y139.930 E0.91990
G1 X127.733 Y139.930 E0.01677
G1 X106.482 Y118.679 E0.94361
G1 X106.482 Y118.145 E0.01677
G1 X128.267 Y139.930 E0.96733
G1 X128.801 Y139.930 E0.01677
G1 X106.482 Y117.611 E0.99104
G1 X106.482 Y117.077 E0.01677
G1 X129.335 Y139.930 E1.01475
G1 X129.869 Y139.930 E0.01677
G1 X106.482 Y116.543 E1.03846
G1 X106.482 Y116.009 E0.01677
G1 X130.403 Y139.930 E1.06218
G1 X130.937 Y139.930 E0.01677
G1 X106.482 Y115.475 E1.08589
G1 X106.482 Y114.941 E0.01677
G1 X131.471 Y139.930 E1.10960
G1 X132.005 Y139.930 E0.01677
G1 X106.482 Y114.407 E1.13331
G1 X106.482 Y113.873 E0.01677
G1 X132.539 Y139.930 E1.15703
G1 X133.073 Y139.930 E0.01677
G1 X106.482 Y113.339 E1.18074
G1 X106.482 Y112.805 E0.01677
G1 X133.607 Y139.930 E1.20445
G1 X134.141 Y139.930 E0.01677
G1 X106.482 Y112.271 E1.22816
G1 X106.482 Y111.737 E0.01677
G1 X134.675 Y139.930 E1.25188
G1 X135.209 Y139.930 E0.01677
G1 X106.482 Y111.203 E1.27559
G1 X106.482 Y110.669 E0.01677
G1 X135.743 Y139.930 E1.29930
G1 X136.277 Y139.930 E0.01677
G1 X106.482 Y110.135 E1.32301
G1 X106.482 Y109.601 E0.01677
G1 X136.811 Y139.930 E1.34673
G1 X137.345 Y139.930 E0.01677
G1 X106.482 Y109.067 E1.37044
G1 X106.482 Y108.533 E0.01677
G1 X137.879 Y139.930 E1.39415
G1 X138.413 Y139.930 E0.01677
G1 X106.482 Y107.999 E1.41786
G1 X106.482 Y107.465 E0.01677
G1 X138.948 Y139.930 E1.44158
G1 X139.482 Y139.930 E0.01677
G1 X106.482 Y106.931 E1.46529
G1 X106.482 Y106.397 E0.01677
G1 X140.016 Y139.930 E1.48900
G1 X140.550 Y139.930 E0.01677
G1 X106.482 Y105.863 E1.51271
G1 X106.482 Y105.329 E0.01677
G1 X141.084 Y139.930 E1.53643
M73 Q2 S102
G1 X141.618 Y139.930 E0.01677
G1 X106.482 Y104.795 E1.56014
M73 P2 R101
G1 X106.482 Y104.261 E0.01677
G1 X142.143 Y139.921 E1.58345
G1 X142.143 Y139.387 E0.01677
G1 X106.482 Y103.727 E1.58345
G1 X106.482 Y103.193 E0.01677
G1 X142.143 Y138.853 E1.58345
G1 X142.143 Y138.319 E0.01677
G1 X106.482 Y102.659 E1.58345
G1 X106.482 Y102.125 E0.01677
G1 X142.143 Y137.785 E1.58345
G1 X142.143 Y137.251 E0.01677
G1 X106.482 Y101.591 E1.58345
G1 X106.482 Y101.057 E0.01677
G1 X142.143 Y136.717 E1.58345
G1 X142.143 Y136.183 E0.01677
G1 X106.482 Y100.523 E1.58345
G1 X106.482 Y99.989 E0.01677
G1 X142.143 Y135.649 E1.58345
G1 X142.143 Y135.115 E0.01677
G1 X106.482 Y99.455 E1.58345
G1 X106.482 Y98.921 E0.01677
G1 X142.142 Y134.581 E1.58345
G1 X142.142 Y134.047 E0.01677
G1 X106.482 Y98.387 E1.58344
G1 X106.482 Y97.853 E0.01677
G1 X142.142 Y133.513 E1.58344
G1 X142.142 Y132.979 E0.01677
G1 X106.482 Y97.319 E1.58344
G1 X106.482 Y96.785 E0.01677
G1 X142.142 Y132.445 E1.58344
G1 X142.142 Y131.911 E0.01677
G1 X106.482 Y96.251 E1.58344
G1 X106.482 Y95.717 E0.01677
G1 X142.142 Y131.377 E1.58344
G1 X142.142 Y130.843 E0.01677
G1 X106.482 Y95.183 E1.58344
G1 X106.482 Y94.649 E0.01677
G1 X142.142 Y130.309 E1.58344
G1 X142.142 Y129.775 E0.01677
G1 X106.482 Y94.115 E1.58344
G1 X106.482 Y93.581 E0.01677
G1 X142.142 Y129.241 E1.58344
G1 X142.142 Y128.706 E0.01677
G1 X106.482 Y93.046 E1.58344
G1 X106.482 Y92.512 E0.01677
G1 X142.142 Y128.172 E1.58344
M73 Q2 S101
G1 X142.142 Y127.638 E0.01677
G1 X106.482 Y91.978 E1.58344
M73 P3 R100
G1 X106.482 Y91.444 E0.01677
G1 X142.142 Y127.104 E1.58344
G1 X142.142 Y126.570 E0.01677
G1 X106.482 Y90.910 E1.58344
G1 X106.482 Y90.376 E0.01677
G1 X142.142 Y126.036 E1.58344
G1 X142.142 Y125.502 E0.01677
G1 X106.482 Y89.842 E1.58344
G1 X106.482 Y89.308 E0.01677
G1 X142.142 Y124.968 E1.58344
G1 X142.142 Y124.434 E0.01677
G1 X106.482 Y88.774 E1.58344
G1 X106.482 Y88.240 E0.01677
G1 X142.142 Y123.900 E1.58343
G1 X142.142 Y123.366 E0.01677
G1 X106.482 Y87.706 E1.58343
G1 X106.482 Y87.172 E0.01677
G1 X142.142 Y122.832 E1.58343
G1 X142.142 Y122.298 E0.01677
G1 X106.482 Y86.638 E1.58343
G1 X106.482 Y86.104 E0.01677
G1 X142.142 Y121.764 E1.58343
G1 X142.142 Y121.230 E0.01677
G1 X106.482 Y85.570 E1.58343
G1 X106.482 Y85.036 E0.01677
G1 X142.142 Y120.696 E1.58343
G1 X142.142 Y120.162 E0.01677
G1 X106.482 Y84.502 E1.58343
G1 X106.482 Y83.968 E0.01677
G1 X142.142 Y119.628 E1.58343
G1 X142.142 Y119.094 E0.01677
G1 X106.482 Y83.434 E1.58343
G1 X106.482 Y82.900 E0.01677
G1 X142.142 Y118.560 E1.58343
G1 X142.142 Y118.026 E0.01677
G1 X106.482 Y82.366 E1.58343
G1 X106.482 Y81.832 E0.01677
G1 X142.142 Y117.492 E1.58343
G1 X142.142 Y116.958 E0.01677
G1 X106.482 Y81.298 E1.58343
G1 X106.482 Y80.764 E0.01677
G1 X142.142 Y116.424 E1.58343
G1 X142.142 Y115.890 E0.01677
G1 X106.482 Y80.230 E1.58343
G1 X106.482 Y79.696 E0.01677
G1 X142.142 Y115.356 E1.58343
M73 Q3 S100
G1 X142.142 Y114.822 E0.01677
G1 X106.482 Y79.162 E1.58343
M73 P4 R99
G1 X106.482 Y78.628 E0.01677
G1 X142.142 Y114.288 E1.58342
G1 X142.142 Y113.754 E0.01677
G1 X106.482 Y78.094 E1.58342
G1 X106.482 Y77.560 E0.01677
G1 X142.142 Y113.220 E1.58342
G1 X142.142 Y112.686 E0.01677
G1 X106.482 Y77.026 E1.58342
G1 X106.482 Y76.492 E0.01677
G1 X142.142 Y112.152 E1.58342
G1 X142.142 Y111.618 E0.01677
G1 X106.482 Y75.958 E1.58342
G1 X106.482 Y75.424 E0.01677
G1 X142.142 Y111.083 E1.58342
G1 X142.142 Y110.549 E0.01677
G1 X106.482 Y74.890 E1.58342
G1 X106.482 Y74.356 E0.01677
G1 X142.142 Y110.015 E1.58342
G1 X142.142 Y109.481 E0.01677
G1 X106.482 Y73.822 E1.58342
G1 X106.482 Y73.288 E0.01677
G1 X142.142 Y108.947 E1.58342
G1 X142.142 Y108.413 E0.01677
G1 X106.482 Y72.754 E1.58342
G1 X106.482 Y72.220 E0.01677
G1 X142.142 Y107.879 E1.58342
G1 X142.142 Y107.345 E0.01677
G1 X106.482 Y71.686 E1.58342
G1 X106.482 Y71.152 E0.01677
G1 X142.142 Y106.811 E1.58342
G1 X142.142 Y106.277 E0.01677
G1 X106.482 Y70.618 E1.58342
G1 X106.482 Y70.084 E0.01677
G1 X142.142 Y105.743 E1.58342
G1 X142.142 Y105.209 E0.01677
G1 X107.003 Y70.070 E1.56031
G1 X107.537 Y70.070 E0.01677
G1 X142.142 Y104.675 E1.53660
G1 X142.142 Y104.141 E0.01677
G1 X108.071 Y70.070 E1.51288
G1 X108.605 Y70.070 E0.01677
G1 X142.142 Y103.607 E1.48917
G1 X142.142 Y103.073 E0.01677
G1 X109.139 Y70.070 E1.46545
G1 X109.673 Y70.070 E0.01677
G1 X142.142 Y102.539 E1.44174
M73 Q4 S99
G1 X142.142 Y102.005 E0.01677
G1 X110.207 Y70.070 E1.41802
M73 P5 R98
G1 X110.741 Y70.070 E0.01677
G1 X142.142 Y101.471 E1.39431
G1 X142.142 Y100.937 E0.01677
G1 X111.275 Y70.070 E1.37059
G1 X111.809 Y70.070 E0.01677
G1 X142.142 Y100.403 E1.34688
G1 X142.142 Y99.869 E0.01677
G1 X112.343 Y70.070 E1.32316
G1 X112.877 Y70.070 E0.01677
G1 X142.142 Y99.335 E1.29945
G1 X142.142 Y98.801 E0.01677
G1 X113.411 Y70.071 E1.27573
G1 X113.946 Y70.071 E0.01677
G1 X142.142 Y98.267 E1.25202
G1 X142.142 Y97.733 E0.01677
G1 X114.480 Y70.071 E1.22830
G1 X115.014 Y70.071 E0.01677
G1 X142.142 Y97.199 E1.20459
G1 X142.142 Y96.665 E0.01677
G1 X115.548 Y70.071 E1.18087
G1 X116.082 Y70.071 E0.01677
G1 X142.142 Y96.131 E1.15716
G1 X142.142 Y95.597 E0.01677
G1 X116.616 Y70.071 E1.13344
G1 X117.150 Y70.071 E0.01677
G1 X142.142 Y95.063 E1.10973
G1 X142.142 Y94.529 E0.01677
G1 X117.684 Y70.071 E1.08601
G1 X118.218 Y70.071 E0.01677
G1 X142.142 Y93.995 E1.06230
G1 X142.142 Y93.460 E0.01677
G1 X118.752 Y70.071 E1.03858
G1 X119.286 Y70.071 E0.01677
G1 X142.142 Y92.926 E1.01487
G1 X142.142 Y92.392 E0.01677
G1 X119.820 Y70.071 E0.99115
G1 X120.354 Y70.071 E0.01677
G1 X142.142 Y91.858 E0.96744
G1 X142.142 Y91.324 E0.01677
G1 X120.888 Y70.071 E0.94372
G1 X121.422 Y70.071 E0.01677
G1 X142.142 Y90.790 E0.92001
G1 X142.142 Y90.256 E0.01677
G1 X121.957 Y70.071 E0.89629
G1 X122.491 Y70.071 E0.01677
G1 X142.141 Y89.722 E0.87258
G1 X142.141 Y89.188 E0.01677
G1 X123.025 Y70.071 E0.84886
G1 X123.559 Y70.071 E0.01677
G1 X142.141 Y88.654 E0.82515
G1 X142.141 Y88.120 E0.01677
G1 X124.093 Y70.071 E0.80143
G1 X124.627 Y70.072 E0.01677
G1 X142.141 Y87.586 E0.77771
G1 X142.141 Y87.052 E0.01677
G1 X125.161 Y70.072 E0.75400
G1 X125.695 Y70.072 E0.01677
G1 X142.141 Y86.518 E0.73028
G1 X142.141 Y85.984 E0.01677
G1 X126.229 Y70.072 E0.70657
G1 X126.763 Y70.072 E0.01677
G1 X142.141 Y85.450 E0.68285
G1 X142.141 Y84.916 E0.01677
G1 X127.297 Y70.072 E0.65914
G1 X127.831 Y70.072 E0.01677
G1 X142.141 Y84.382 E0.63542
G1 X142.141 Y83.848 E0.01677
G1 X128.365 Y70.072 E0.61171
G1 X128.899 Y70.072 E0.01677
G1 X142.141 Y83.314 E0.58799
G1 X142.141 Y82.780 E0.01677
G1 X129.433 Y70.072 E0.56428
G1 X129.968 Y70.072 E0.01677
G1 X142.141 Y82.246 E0.54056
M73 Q5 S98
G1 X142.141 Y81.712 E0.01677
G1 X130.502 Y70.072 E0.51685
G1 X131.036 Y70.072 E0.01677
G1 X142.141 Y81.178 E0.49313
M73 P5 R97
G1 X142.141 Y80.644 E0.01677
G1 X131.570 Y70.072 E0.46942
G1 X132.104 Y70.072 E0.01677
G1 X142.141 Y80.110 E0.44570
G1 X142.141 Y79.576 E0.01677
G1 X132.638 Y70.072 E0.42199
G1 X133.172 Y70.072 E0.01677
G1 X142.141 Y79.042 E0.39827
G1 X142.141 Y78.508 E0.01677
G1 X133.706 Y70.072 E0.37456
G1 X134.240 Y70.072 E0.01677
G1 X142.141 Y77.974 E0.35084
G1 X142.141 Y77.440 E0.01677
G1 X134.774 Y70.072 E0.32713
G1 X135.308 Y70.073 E0.01677
G1 X142.141 Y76.906 E0.30341
G1 X142.141 Y76.372 E0.01677
G1 X135.842 Y70.073 E0.27970
G1 X136.376 Y70.073 E0.01677
G1 X142.141 Y75.837 E0.25598
G1 X142.141 Y75.303 E0.01677
G1 X136.910 Y70.073 E0.23227
G1 X137.444 Y70.073 E0.01677
G1 X142.141 Y74.769 E0.20855
G1 X142.141 Y74.235 E0.01677
G1 X137.979 Y70.073 E0.18484
G1 X138.513 Y70.073 E0.01677
G1 X142.141 Y73.701 E0.16112
G1 X142.141 Y73.167 E0.01677
G1 X139.047 Y70.073 E0.13741
G1 X139.581 Y70.073 E0.01677
G1 X142.141 Y72.633 E0.11369
G1 X142.141 Y72.099 E0.01677
G1 X140.115 Y70.073 E0.08998
G1 X140.649 Y70.073 E0.01677
G1 X142.141 Y71.565 E0.06626
G1 X142.141 Y71.031 E0.01677
G1 X141.183 Y70.073 E0.04255
G1 X141.717 Y70.073 E0.01677
G1 X142.311 Y70.667 E0.02637
;BEFORE_LAYER_CHANGE
G92 E0.0
;0.3


G1 Z0.300 F10800.000
;AFTER_LAYER_CHANGE
;0.3
M140 S90 ; set bed temperature
G1 E-2.00000 F2700.00000
G1 Z0.500 F10800.000
G1 X145.319 Y68.477
G1 Z0.300
G1 E2.00000 F2700.00000
G1 F3000.000
G1 X145.513 Y69.063 E0.01022
G1 X145.588 Y69.658 E0.00994
G1 X145.590 Y140.261 E1.16986
G1 X145.514 Y140.933 E0.01120
G1 X145.281 Y141.603 E0.01174
G1 X144.802 Y142.324 E0.01435
G1 X144.132 Y142.893 E0.01458
G1 X143.387 Y143.237 E0.01359
G1 X142.548 Y143.376 E0.01408
G1 X106.143 Y143.377 E0.60321
G1 X105.469 Y143.299 E0.01124
G1 X104.808 Y143.068 E0.01162
G1 X104.078 Y142.581 E0.01454
G1 X103.515 Y141.913 E0.01447
