; generated by PrusaSlicer 2.2.0+win64 on 2020-10-02 at 20:00:30 UTC

; 

; external perimeters extrusion width = 0.60mm
; perimeters extrusion width = 0.50mm
; infill extrusion width = 0.50mm
; solid infill extrusion width = 0.50mm
; top infill extrusion width = 0.45mm
; support material extrusion width = 0.38mm
; first layer extrusion width = 0.42mm

M73 P0 R133
M73 Q0 S134
M201 X1000 Y1000 Z200 E5000 ; sets maximum accelerations, mm/sec^2
M203 X200 Y200 Z12 E120 ; sets maximum feedrates, mm/sec
M204 P1250 R1250 T1250 ; sets acceleration (P, T) and retract acceleration (R), mm/sec^2
M205 X8.00 Y8.00 Z0.40 E4.50 ; sets the jerk limits, mm/sec
M205 S0 T0 ; sets the minimum extruding and travel feed rate, mm/sec
M107
M862.3 P "MK3S" ; printer model check
M862.1 P0.4 ; nozzle diameter check
M115 U3.9.1 ; tell printer latest fw version
G90 ; use absolute coordinates
M83 ; extruder relative mode
M104 S240 ; set extruder temp
M140 S85 ; set bed temp
M190 S85 ; wait for bed temp
M109 S240 ; wait for extruder temp
G28 W ; home all without mesh bed level
G80 ; mesh bed leveling
G1 Y-3.0 F1000.0 ; go outside print area
G92 E0.0
G1 X60.0 E9.0 F1000.0 ; intro line
M73 Q0 S134
M73 P0 R133
G1 X100.0 E12.5 F1000.0 ; intro line
G92 E0.0
M221 S95

; Don't change E values below. Excessive value can damage the printer.

M907 E538 ; set extruder motor current
G21 ; set units to millimeters
G90 ; use absolute coordinates
M83 ; use relative distances for extrusion
M900 K0.08 ; Filament gcode LA 1.5
M900 K45 ; Filament gcode LA 1.0
;BEFORE_LAYER_CHANGE
G92 E0.0
;0.2


G1 Z0.200 F10800.000
;AFTER_LAYER_CHANGE
;0.2
G1 E-2.00000 F2700.00000
G1 Z0.400 F10800.000
G1 X92.895 Y64.233
G1 Z0.200
G1 E2.00000 F2700.00000
M204 S1000
G1 F1200.000
G1 X93.751 Y63.509 E0.03515
G1 X94.576 Y63.067 E0.02935
G1 X95.230 Y62.877 E0.02134
G1 X96.418 Y62.755 E0.03746
G1 X97.322 Y62.778 E0.02835
G1 X98.425 Y62.951 E0.03501
G1 X99.555 Y63.275 E0.03685
G1 X101.283 Y63.984 E0.05857
G1 X171.803 Y97.919 E2.45379
G1 X173.474 Y98.790 E0.05908
G1 X175.106 Y100.015 E0.06398
G1 X175.679 Y100.630 E0.02634
G1 X176.602 Y102.126 E0.05511
G1 X176.930 Y103.437 E0.04238
G1 X176.940 Y104.374 E0.02939
G1 X176.634 Y105.448 E0.03499
G1 X174.352 Y110.183 E0.16481
G1 X173.478 Y111.420 E0.04748
G1 X173.068 Y111.831 E0.01823
G1 X172.521 Y112.173 E0.02022
G1 X170.871 Y112.910 E0.05667
G1 X169.584 Y113.141 E0.04099
G1 X168.985 Y113.150 E0.01880
G1 X167.086 Y112.905 E0.06004
G1 X166.104 Y112.573 E0.03248
G1 X93.672 Y77.792 E2.51933
G1 X92.492 Y77.011 E0.04436
G1 X91.268 Y75.859 E0.05271
G1 X90.808 Y75.246 E0.02403
G1 X89.862 Y73.190 E0.07096
G1 X89.661 Y72.089 E0.03509
G1 X89.683 Y71.301 E0.02471
G1 X90.199 Y69.541 E0.05752
G1 X92.332 Y65.097 E0.15454
G1 X92.862 Y64.283 E0.03047
G1 E-2.00000 F2700.00000
G1 Z0.400 F10800.000
G1 X131.433 Y86.390
G1 Z0.200
G1 E2.00000 F2700.00000
G1 F1200.000
G1 X134.208 Y87.724 E0.09654
G1 X132.874 Y90.500 E0.09656
G1 X130.099 Y89.166 E0.09654
G1 X131.407 Y86.445 E0.09468
G1 X131.610 Y86.894 F10800.000
G1 F1200.000
G1 X133.705 Y87.901 E0.07290
G1 X132.698 Y89.997 E0.07292
G1 X130.602 Y88.990 E0.07290
G1 X131.584 Y86.948 E0.07104
G1 X131.684 Y86.501 F10800.000
G1 E-2.00000 F2700.00000
G1 Z0.400 F10800.000
G1 X128.278 Y84.875
G1 Z0.200
G1 E2.00000 F2700.00000
G1 F1200.000
G1 X131.054 Y86.208 E0.09654
G1 X129.720 Y88.984 E0.09656
G1 X126.944 Y87.650 E0.09654
G1 X128.252 Y84.929 E0.09468
G1 X128.455 Y85.378 F10800.000
G1 F1200.000
G1 X130.551 Y86.385 E0.07290
G1 X129.543 Y88.481 E0.07292
G1 X127.448 Y87.474 E0.07290
G1 X128.429 Y85.432 E0.07104
G1 X128.529 Y84.985 F10800.000
G1 E-2.00000 F2700.00000
G1 Z0.400 F10800.000
G1 X125.124 Y83.359
G1 Z0.200
G1 E2.00000 F2700.00000
G1 F1200.000
G1 X127.899 Y84.692 E0.09654
G1 X126.565 Y87.468 E0.09656
G1 X123.790 Y86.134 E0.09654
G1 X125.098 Y83.413 E0.09468
G1 X125.300 Y83.862 F10800.000
G1 F1200.000
G1 X127.396 Y84.869 E0.07290
G1 X126.389 Y86.965 E0.07292
G1 X124.293 Y85.958 E0.07290
G1 X125.274 Y83.916 E0.07104
G1 X125.374 Y83.469 F10800.000
G1 E-2.00000 F2700.00000
G1 Z0.400 F10800.000
G1 X121.969 Y81.843
G1 Z0.200
G1 E2.00000 F2700.00000
G1 F1200.000
G1 X124.744 Y83.176 E0.09654
G1 X123.410 Y85.952 E0.09656
G1 X120.635 Y84.619 E0.09654
G1 X121.943 Y81.897 E0.09468
G1 X122.146 Y82.346 F10800.000
G1 F1200.000
G1 X124.241 Y83.353 E0.07290
G1 X123.234 Y85.449 E0.07292
G1 X121.138 Y84.442 E0.07290
G1 X122.120 Y82.400 E0.07104
G1 X122.220 Y81.953 F10800.000
G1 E-2.00000 F2700.00000
G1 Z0.400 F10800.000
G1 X119.252 Y84.150
G1 Z0.200
G1 E2.00000 F2700.00000
G1 F1200.000
G1 X121.349 Y79.766 E0.15235
G1 X121.493 Y79.083 E0.02190
G1 X121.411 Y78.712 E0.01194
G1 X121.759 Y78.939 E0.01304
G1 X122.675 Y79.408 E0.03227
G1 X137.852 Y86.712 E0.52811
G1 X140.981 Y88.214 E0.10882
G1 X141.916 Y88.639 E0.03220
G1 X142.359 Y88.787 E0.01466
G1 X142.027 Y88.947 E0.01157
G1 X141.580 Y89.487 E0.02198
G1 X139.434 Y93.956 E0.15543
G1 X129.094 Y88.816 E0.36203
G1 X119.306 Y84.176 E0.33963
G1 X118.744 Y84.326 F10800.000
G1 F1200.000
G1 X120.989 Y79.644 E0.16281
G1 X121.108 Y79.085 E0.01792
G1 X120.981 Y78.518 E0.01820
G1 X120.756 Y78.044 E0.01647
G1 X120.516 Y77.729 E0.01241
G1 X121.126 Y78.022 E0.02122
G1 X121.513 Y78.328 E0.01547
G1 X121.948 Y78.613 E0.01630
G1 X122.842 Y79.070 E0.03149
G1 X138.015 Y86.372 E0.52796
G1 X141.140 Y87.873 E0.10869
G1 X142.053 Y88.288 E0.03146
G1 X142.548 Y88.452 E0.01633
G1 X143.031 Y88.559 E0.01552
G1 X143.670 Y88.866 E0.02223
G1 X143.293 Y88.875 E0.01182
G1 X142.786 Y89.000 E0.01639
G1 X142.265 Y89.251 E0.01814
G1 X141.900 Y89.692 E0.01794
G1 X139.608 Y94.463 E0.16597
G1 X128.930 Y89.155 E0.37390
G1 X118.798 Y84.352 E0.35156
G1 X119.074 Y84.101 F10800.000
G1 E-2.00000 F2700.00000
G1 Z0.400 F10800.000
G1 X103.469 Y76.512
G1 Z0.200
G1 E2.00000 F2700.00000
G1 F1200.000
G1 X96.924 Y73.553 E0.22520
G1 X96.332 Y73.250 E0.02088
G1 X95.540 Y72.393 E0.03656
G1 X95.600 Y71.942 E0.01426
G1 X97.576 Y67.817 E0.14341
G1 X97.630 Y67.761 E0.00244
G1 X98.423 Y67.937 E0.02547
G1 X98.904 Y68.004 E0.01524
G1 X101.521 Y69.270 E0.09113
G1 X102.862 Y69.879 E0.04620
G1 X105.417 Y71.103 E0.08881
G1 X105.883 Y71.308 E0.01598
G1 X106.318 Y71.451 E0.01433
G1 X105.926 Y71.647 E0.01375
G1 X105.581 Y72.189 E0.02012
G1 X104.597 Y74.072 E0.06663
G1 X103.495 Y76.458 E0.08240
G1 X103.648 Y77.007 F10800.000
G1 F1200.000
G1 X96.761 Y73.893 E0.23701
G1 X96.100 Y73.555 E0.02327
G1 X95.143 Y72.519 E0.04422
G1 X95.235 Y71.833 E0.02169
G1 X97.263 Y67.599 E0.14720
G1 X97.504 Y67.349 E0.01089
G1 X98.490 Y67.565 E0.03167
G1 X99.015 Y67.639 E0.01662
G1 X101.681 Y68.929 E0.09285
G1 X103.022 Y69.537 E0.04618
G1 X105.574 Y70.760 E0.08873
G1 X106.018 Y70.955 E0.01522
G1 X106.492 Y71.111 E0.01562
G1 X106.955 Y71.205 E0.01483
G1 X107.653 Y71.540 E0.02426
G1 X107.242 Y71.550 E0.01288
G1 X106.728 Y71.667 E0.01651
G1 X106.188 Y71.938 E0.01896
G1 X105.908 Y72.378 E0.01634
G1 X104.936 Y74.238 E0.06582
G1 X103.675 Y76.953 E0.09386
G1 X103.418 Y76.680 F10800.000
G1 E-2.00000 F2700.00000
G1 Z0.400 F10800.000
G1 X157.463 Y96.042
G1 Z0.200
G1 E2.00000 F2700.00000
G1 F1200.000
G1 X157.894 Y96.317 E0.01603
G1 X158.365 Y96.562 E0.01663
G1 X161.041 Y97.849 E0.09310
G1 X163.135 Y98.921 E0.07378
G1 X170.224 Y102.308 E0.24632
G1 X170.753 Y102.696 E0.02057
G1 X171.210 Y103.078 E0.01869
G1 X171.195 Y103.188 E0.00347
G1 X169.235 Y107.252 E0.14147
G1 X168.828 Y107.642 E0.01769
G1 X168.605 Y107.700 E0.00722
G1 X167.834 Y107.524 E0.02479
G1 X167.656 Y107.505 E0.00563
G1 X163.030 Y105.297 E0.16071
G1 X155.295 Y101.496 E0.27022
G1 X157.403 Y97.088 E0.15319
G1 X157.546 Y96.406 E0.02186
G1 X157.476 Y96.101 E0.00982
G1 E-2.00000 F2700.00000
G1 Z0.400 F10800.000
G1 X156.578 Y95.065
G1 Z0.200
G1 E2.00000 F2700.00000
G1 F1200.000
G1 X157.261 Y95.393 E0.02376
G1 X157.644 Y95.710 E0.01558
G1 X158.083 Y95.991 E0.01633
G1 X158.534 Y96.224 E0.01592
G1 X161.208 Y97.511 E0.09307
G1 X163.302 Y98.583 E0.07377
G1 X170.418 Y101.983 E0.24726
G1 X170.986 Y102.398 E0.02206
G1 X171.613 Y102.923 E0.02565
G1 X171.560 Y103.299 E0.01189
G1 X169.535 Y107.498 E0.14619
G1 X169.418 Y107.586 E0.00457
G1 X169.022 Y107.982 E0.01757
G1 X168.611 Y108.088 E0.01331
G1 X167.772 Y107.896 E0.02698
G1 X167.552 Y107.873 E0.00696
G1 X162.866 Y105.636 E0.16280
G1 X154.788 Y101.667 E0.28219
G1 X157.043 Y96.967 E0.16346
G1 X157.160 Y96.409 E0.01785
G1 X157.032 Y95.844 E0.01817
G1 X156.809 Y95.370 E0.01643
G1 X156.614 Y95.113 E0.01011
G1 X156.897 Y95.306 F10800.000
G1 X157.107 Y95.529
G1 F1200.000
G1 X157.219 Y95.634 E0.00074
G1 E-2.00000 F2700.00000
G1 Z0.400 F10800.000
G1 X156.970 Y102.193
G1 Z0.200
G1 E2.00000 F2700.00000
G1 F1200.000
G1 X155.824 Y101.047 E0.05144
G1 X155.998 Y100.682 E0.01283
G1 X157.659 Y102.343 E0.07452
G1 X158.720 Y102.864 E0.03749
G1 X156.173 Y100.317 E0.11427
G1 X156.347 Y99.952 E0.01283
G1 X159.781 Y103.385 E0.15403
G1 X160.842 Y103.907 E0.03749
G1 X156.522 Y99.587 E0.19379
G1 X156.696 Y99.222 E0.01283
G1 X161.903 Y104.428 E0.23354
G1 X162.963 Y104.949 E0.03749
G1 X156.871 Y98.857 E0.27330
G1 X157.045 Y98.492 E0.01283
G1 X164.001 Y105.447 E0.31200
G1 X165.033 Y105.939 E0.03628
G1 X157.220 Y98.127 E0.35047
G1 X157.394 Y97.762 E0.01283
G1 X166.065 Y106.432 E0.38895
G1 X167.097 Y106.925 E0.03628
G1 X157.569 Y97.397 E0.42742
G1 X157.673 Y97.180 E0.00763
G1 X157.711 Y96.999 E0.00586
G1 X167.978 Y107.267 E0.46061
G1 X168.601 Y107.409 E0.02026
G1 X168.648 Y107.397 E0.00154
G1 X157.880 Y96.629 E0.48305
G1 X158.945 Y97.155 E0.03770
G1 X168.937 Y107.146 E0.44821
G1 X169.003 Y107.083 E0.00290
G1 X169.136 Y106.806 E0.00975
G1 X159.985 Y97.655 E0.41052
G1 X161.032 Y98.162 E0.03689
G1 X169.312 Y106.442 E0.37144
G1 X169.487 Y106.078 E0.01282
G1 X162.137 Y98.728 E0.32972
G1 X163.227 Y99.279 E0.03874
G1 X169.663 Y105.714 E0.28868
G1 X169.838 Y105.350 E0.01282
G1 X164.260 Y99.772 E0.25021
G1 X165.294 Y100.266 E0.03632
G1 X170.014 Y104.986 E0.21174
G1 X170.189 Y104.622 E0.01282
G1 X166.327 Y100.760 E0.17327
G1 X167.360 Y101.253 E0.03632
G1 X170.365 Y104.258 E0.13480
G1 X170.540 Y103.894 E0.01282
G1 X168.393 Y101.747 E0.09633
G1 X169.426 Y102.240 E0.03632
G1 X170.843 Y103.657 E0.06356
G1 E-2.00000 F2700.00000
G1 Z0.400 F10800.000
G1 X133.220 Y90.043
G1 Z0.200
G1 E2.00000 F2700.00000
G1 F1200.000
G1 X134.230 Y91.053 E0.04579
G1 X135.314 Y91.592 E0.03880
G1 X133.524 Y89.802 E0.08114
G1 X133.701 Y89.434 E0.01309
G1 X136.398 Y92.131 E0.12225
G1 X137.482 Y92.669 E0.03880
G1 X133.878 Y89.065 E0.16336
G1 X134.055 Y88.697 E0.01309
G1 X138.566 Y93.208 E0.20447
G1 X139.303 Y93.575 E0.02639
G1 X139.359 Y93.457 E0.00419
G1 X134.231 Y88.329 E0.23243
G1 X134.408 Y87.961 E0.01309
G1 X139.663 Y93.216 E0.23819
G1 E-2.00000 F2700.00000
G1 Z0.400 F10800.000
G1 X141.658 Y89.215
G1 Z0.200
G1 E2.00000 F2700.00000
G1 F1200.000
G1 X140.959 Y88.515 E0.03172
G1 X139.913 Y88.015 E0.03715
G1 X141.305 Y89.406 E0.06308
G1 X141.128 Y89.775 E0.01309
G1 X138.863 Y87.509 E0.10268
G1 X137.812 Y87.004 E0.03736
G1 X140.951 Y90.143 E0.14227
G1 X140.774 Y90.511 E0.01309
G1 X136.762 Y86.499 E0.18187
G1 X135.711 Y85.993 E0.03736
G1 X140.597 Y90.879 E0.22146
G1 X140.421 Y91.248 E0.01309
G1 X134.661 Y85.488 E0.26106
G1 X133.611 Y84.983 E0.03736
G1 X140.244 Y91.616 E0.30066
G1 X140.067 Y91.984 E0.01309
G1 X132.560 Y84.477 E0.34025
G1 X131.510 Y83.972 E0.03736
G1 X139.890 Y92.352 E0.37985
G1 X139.713 Y92.721 E0.01309
G1 X130.459 Y83.467 E0.41944
G1 X129.409 Y82.961 E0.03736
G1 X133.534 Y87.086 E0.18696
G1 X132.484 Y86.582 E0.03731
G1 X128.358 Y82.456 E0.18701
G1 X127.308 Y81.951 E0.03736
G1 X131.435 Y86.078 E0.18705
G1 X130.386 Y85.573 E0.03731
G1 X126.258 Y81.445 E0.18710
G1 X125.207 Y80.940 E0.03736
G1 X129.336 Y85.069 E0.18715
G1 X128.287 Y84.565 E0.03731
G1 X124.157 Y80.435 E0.18720
G1 X123.106 Y79.929 E0.03736
G1 X127.237 Y84.061 E0.18725
G1 X126.188 Y83.556 E0.03731
G1 X122.025 Y79.393 E0.18869
G1 X121.747 Y79.251 E0.01001
G1 X121.675 Y79.589 E0.01107
G1 X125.139 Y83.052 E0.15698
G1 X124.089 Y82.548 E0.03731
G1 X121.548 Y80.006 E0.11521
G1 X121.371 Y80.375 E0.01310
G1 X123.040 Y82.044 E0.07564
G1 X121.991 Y81.539 E0.03731
G1 X121.195 Y80.744 E0.03607
G1 X121.018 Y81.112 E0.01310
G1 X121.686 Y81.779 E0.03024
G1 X121.509 Y82.148 E0.01309
G1 X120.842 Y81.481 E0.03022
G1 X120.666 Y81.850 E0.01310
G1 X121.332 Y82.516 E0.03019
G1 X121.155 Y82.884 E0.01309
G1 X120.489 Y82.219 E0.03016
G1 X120.313 Y82.587 E0.01310
G1 X120.978 Y83.252 E0.03014
G1 X120.801 Y83.620 E0.01309
G1 X120.137 Y82.956 E0.03011
G1 X119.960 Y83.325 E0.01310
G1 X120.624 Y83.989 E0.03009
G1 X120.447 Y84.357 E0.01309
G1 X119.657 Y83.566 E0.03583
G1 E-2.00000 F2700.00000
G1 Z0.400 F10800.000
G1 X105.620 Y71.918
G1 Z0.200
G1 E2.00000 F2700.00000
G1 F1200.000
G1 X104.844 Y71.142 E0.03467
G1 X103.811 Y70.648 E0.03620
M73 Q0 S133
G1 X105.293 Y72.129 E0.06626
G1 X105.109 Y72.483 E0.01260
G1 X102.779 Y70.153 E0.10418
G1 X101.793 Y69.705 E0.03424
G1 X104.924 Y72.836 E0.14001
M73 P0 R132
G1 X104.740 Y73.189 E0.01260
G1 X100.774 Y69.223 E0.17733
G1 X99.731 Y68.718 E0.03662
G1 X104.555 Y73.542 E0.21569
G1 X104.371 Y73.895 E0.01260
G1 X98.742 Y68.267 E0.25168
G1 X98.373 Y68.215 E0.01178
G1 X98.090 Y68.152 E0.00917
G1 X104.199 Y74.261 E0.27313
G1 X104.028 Y74.629 E0.01281
G1 X97.672 Y68.272 E0.28422
G1 X97.498 Y68.636 E0.01275
G1 X103.858 Y74.996 E0.28440
G1 X103.688 Y75.364 E0.01281
G1 X97.323 Y68.999 E0.28459
G1 X97.149 Y69.363 E0.01275
G1 X103.518 Y75.732 E0.28477
G1 X103.348 Y76.099 E0.01281
G1 X96.975 Y69.726 E0.28495
G1 X96.801 Y70.090 E0.01275
G1 X102.454 Y75.743 E0.25275
G1 X101.473 Y75.299 E0.03405
G1 X96.627 Y70.453 E0.21666
G1 X96.453 Y70.817 E0.01275
G1 X100.491 Y74.855 E0.18057
G1 X99.510 Y74.412 E0.03405
G1 X96.279 Y71.181 E0.14447
G1 X96.105 Y71.544 E0.01275
G1 X98.528 Y73.968 E0.10838
G1 X97.547 Y73.524 E0.03405
G1 X95.930 Y71.908 E0.07228
G1 X95.875 Y72.024 E0.00406
G1 X95.838 Y72.299 E0.00877
G1 X96.499 Y73.014 E0.03080
G1 X96.897 Y73.412 E0.01779
;BEFORE_LAYER_CHANGE
G92 E0.0
;0.5


G1 Z0.500 F10800.000
;AFTER_LAYER_CHANGE
;0.5
M140 S90 ; set bed temperature
G1 E-2.00000 F2700.00000
G1 Z0.700 F10800.000
G1 X89.862 Y73.190
G1 Z0.500
G1 E2.00000 F2700.00000
G1 X89.661 Y72.089 E0.04964
G1 X89.683 Y71.301 E0.03496
G1 X90.199 Y69.541 E0.08136
G1 X92.332 Y65.097 E0.21862
G1 X92.895 Y64.233 E0.04576
G1 X93.751 Y63.509 E0.04972
G1 X94.576 Y63.067 E0.04152
G1 X95.230 Y62.877 E0.03019
G1 X96.418 Y62.755 E0.05299
G1 X97.322 Y62.778 E0.04010
G1 X98.425 Y62.951 E0.04953
G1 X99.555 Y63.275 E0.05213
G1 X101.283 Y63.984 E0.08286
G1 X171.803 Y97.919 E3.47121
G1 X173.474 Y98.790 E0.08358
G1 X175.106 Y100.015 E0.09050
G1 X175.679 Y100.630 E0.03726
G1 X176.602 Y102.126 E0.07797
G1 X176.930 Y103.437 E0.05995
G1 X176.940 Y104.374 E0.04158
G1 X176.634 Y105.448 E0.04950
G1 X174.352 Y110.183 E0.23315
G1 X173.478 Y111.420 E0.06716
G1 X173.068 Y111.831 E0.02578
G1 X172.521 Y112.173 E0.02861
G1 X170.871 Y112.910 E0.08016
G1 X169.584 Y113.141 E0.05798
G1 X168.985 Y113.150 E0.02660
G1 X167.086 Y112.905 E0.08493
G1 X166.104 Y112.573 E0.04595
G1 X93.672 Y77.792 E3.56392
G1 X92.492 Y77.011 E0.06275
G1 X91.268 Y75.859 E0.07457
G1 X90.808 Y75.246 E0.03399
G1 X89.887 Y73.245 E0.09772
G1 E-2.00000
G1 Z0.700 F10800.000
G1 X130.104 Y89.159
G1 Z0.500
G1 E2.00000 F2700.00000
M204 S800
G1 F1800.000
G1 X131.437 Y86.386 E0.16717
G1 X134.209 Y87.719 E0.16714
G1 X132.877 Y90.492 E0.16717
G1 X130.158 Y89.185 E0.16388
M204 S1000
G1 X130.752 Y88.932 F10800.000
M204 S800
G1 F1800.000
G1 X131.664 Y87.034 E0.14066
G1 X133.561 Y87.946 E0.14063
G1 X132.649 Y89.844 E0.14066
G1 X130.806 Y88.958 E0.13662
M204 S1000
G1 X130.359 Y88.858 F10800.000
G1 E-2.00000 F2700.00000
G1 Z0.700 F10800.000
G1 X128.282 Y84.870
G1 Z0.500
G1 E2.00000 F2700.00000
M204 S800
G1 F1800.000
G1 X131.055 Y86.203 E0.16714
G1 X129.722 Y88.976 E0.16717
G1 X126.949 Y87.643 E0.16714
G1 X128.256 Y84.924 E0.16391
M204 S1000
G1 X128.509 Y85.518 F10800.000
M204 S800
G1 F1800.000
G1 X130.407 Y86.430 E0.14063
G1 X129.495 Y88.328 E0.14066
G1 X127.597 Y87.416 E0.14063
G1 X128.483 Y85.572 E0.13666
M204 S1000
G1 X128.583 Y85.125 F10800.000
G1 E-2.00000 F2700.00000
