; generated by PrusaSlicer 2.2.0+win64 on 2021-01-06 at 22:01:20 UTC

; 

; external perimeters extrusion width = 0.45mm
; perimeters extrusion width = 0.45mm
; infill extrusion width = 0.45mm
; solid infill extrusion width = 0.45mm
; top infill extrusion width = 0.40mm
; first layer extrusion width = 0.42mm

M107
M190 S80 ; set bed temperature and wait for it to be reached
M104 S250 ; set temperature
G28 ; home all axes
G1 Z5 F5000 ; lift nozzle
M301 E0 P16.21 I1.30 D50.49
M109 S250 ; set temperature and wait for it to be reached
G21 ; set units to millimeters
G90 ; use absolute coordinates
M82 ; use absolute distances for extrusion
G92 E0
; Filament gcode
G1 Z0.350 F7800.000
G1 E-2.00000 F2400.00000
G92 E0
G1 X75.171 Y3.473 F7800.000
G1 E2.00000 F2400.00000
G1 F1800.000
G1 X75.960 Y3.051 E2.04494
G1 X76.795 Y2.746 E2.08956
G1 X77.665 Y2.560 E2.13418
G1 X78.558 Y2.498 E2.17912
G1 X79.445 Y2.562 E2.22374
G1 X80.314 Y2.748 E2.26836
G1 X81.149 Y3.055 E2.31299
G1 X81.933 Y3.475 E2.35761
G1 X181.710 Y66.500 E8.28033
G1 X182.366 Y66.983 E8.32122
G1 X182.959 Y67.551 E8.36241
G1 X183.474 Y68.190 E8.40361
G1 X183.899 Y68.885 E8.44449
G1 X184.439 Y70.300 E8.52051
G1 X184.629 Y71.803 E8.59654
G1 X184.628 Y191.972 E14.62732
G1 X184.555 Y192.808 E14.66945
G1 X184.371 Y193.634 E14.71190
G1 X184.079 Y194.427 E14.75434
G1 X183.683 Y195.175 E14.79678
G1 X183.192 Y195.863 E14.83922
G1 X182.618 Y196.476 E14.88135
G1 X181.963 Y197.011 E14.92380
G1 X181.243 Y197.454 E14.96624
G1 X179.822 Y197.997 E15.04257
G1 X178.313 Y198.186 E15.11890
G1 X21.610 Y198.185 E22.98320
G1 X20.767 Y198.115 E23.02564
G1 X19.941 Y197.933 E23.06808
G1 X19.141 Y197.640 E23.11084
G1 X18.393 Y197.246 E23.15328
G1 X17.703 Y196.757 E23.19572
G1 X17.081 Y196.175 E23.23847
G1 X16.546 Y195.520 E23.28092
G1 X16.102 Y194.800 E23.32336
G1 X15.564 Y193.397 E23.39876
G1 X15.371 Y191.907 E23.47416
G1 X15.402 Y125.125 E26.82568
G1 X15.550 Y124.261 E26.86968
G1 X28.570 Y70.895 E29.62646
G1 X28.901 Y70.076 E29.67077
G1 X29.339 Y69.317 E29.71477
G1 X71.731 Y6.796 E33.50567
G1 X72.274 Y6.148 E33.54812
G1 X74.144 Y4.278 E33.68084
G1 X75.123 Y3.510 E33.74330
G1 E31.74330 F2400.00000
G92 E0
G1 X146.255 Y76.462 F7800.000
G1 E2.00000 F2400.00000
G1 F1800.000
G1 X142.435 Y76.462 E2.19171
G1 X142.435 Y72.642 E2.38342
G1 X146.255 Y72.642 E2.57513
G1 X146.255 Y76.402 E2.76383
G1 X146.358 Y76.849 F7800.000
G1 E0.76383 F2400.00000
G92 E0
G1 X150.657 Y76.462 F7800.000
G1 E2.00000 F2400.00000
G1 F1800.000
G1 X150.657 Y72.642 E2.19171
G1 X154.477 Y72.642 E2.38342
G1 X154.477 Y76.462 E2.57513
G1 X150.717 Y76.462 E2.76383
G1 X150.271 Y76.566 F7800.000
G1 E0.76383 F2400.00000
G92 E0
G1 X158.879 Y76.462 F7800.000
G1 E2.00000 F2400.00000
G1 F1800.000
G1 X158.879 Y72.642 E2.19171
G1 X162.699 Y72.642 E2.38342
G1 X162.699 Y76.462 E2.57513
G1 X158.939 Y76.462 E2.76383
G1 X158.493 Y76.566 F7800.000
G1 E0.76383 F2400.00000
G92 E0
G1 X167.102 Y76.462 F7800.000
G1 E2.00000 F2400.00000
G1 F1800.000
G1 X167.102 Y72.642 E2.19171
G1 X170.922 Y72.642 E2.38342
G1 X170.922 Y76.462 E2.57513
G1 X167.162 Y76.462 E2.76383
G1 X166.715 Y76.566 F7800.000
G1 E0.76383 F2400.00000
G92 E0
G1 X138.033 Y76.462 F7800.000
G1 E2.00000 F2400.00000
G1 F1800.000
G1 X134.213 Y76.462 E2.19171
G1 X134.213 Y72.642 E2.38342
G1 X138.033 Y72.642 E2.57513
G1 X138.033 Y76.402 E2.76383
G1 X138.136 Y76.849 F7800.000
G1 E0.76383 F2400.00000
G92 E0
G1 X129.810 Y76.462 F7800.000
G1 E2.00000 F2400.00000
G1 F1800.000
G1 X125.990 Y76.462 E2.19171
G1 X125.990 Y72.642 E2.38342
G1 X129.810 Y72.642 E2.57513
G1 X129.810 Y76.402 E2.76383
G1 X129.914 Y76.849 F7800.000
G1 E0.76383 F2400.00000
G92 E0
G1 X121.588 Y76.462 F7800.000
G1 E2.00000 F2400.00000
G1 F1800.000
G1 X117.768 Y76.462 E2.19171
G1 X117.768 Y72.642 E2.38342
G1 X121.588 Y72.642 E2.57513
G1 X121.588 Y76.402 E2.76383
G1 X121.692 Y76.849 F7800.000
G1 E0.76383 F2400.00000
G92 E0
G1 X113.366 Y76.462 F7800.000
G1 E2.00000 F2400.00000
G1 F1800.000
G1 X109.546 Y76.462 E2.19171
G1 X109.546 Y72.642 E2.38342
G1 X113.366 Y72.642 E2.57513
G1 X113.366 Y76.402 E2.76383
G1 X113.470 Y76.849 F7800.000
G1 E0.76383 F2400.00000
G92 E0
G1 X105.144 Y76.462 F7800.000
G1 E2.00000 F2400.00000
G1 F1800.000
G1 X101.324 Y76.462 E2.19171
G1 X101.324 Y72.642 E2.38342
G1 X105.144 Y72.642 E2.57513
G1 X105.144 Y76.402 E2.76383
G1 X105.247 Y76.849 F7800.000
G1 E0.76383 F2400.00000
G92 E0
G1 X142.090 Y129.298 F7800.000
G1 E2.00000 F2400.00000
G1 F1800.000
G1 X146.600 Y129.298 E2.22633
G1 X146.600 Y133.807 E2.45265
G1 X142.090 Y133.807 E2.67898
G1 X142.090 Y129.358 E2.90230
G1 X142.435 Y129.642 F7800.000
G1 F1800.000
G1 X146.255 Y129.642 E3.09401
G1 X146.255 Y133.462 E3.28572
G1 X142.435 Y133.462 E3.47743
G1 X142.435 Y129.702 E3.66613
G1 X142.331 Y129.256 F7800.000
G1 E1.66613 F2400.00000
G92 E0
G1 X142.090 Y124.116 F7800.000
G1 E2.00000 F2400.00000
G1 F1800.000
G1 X146.600 Y124.116 E2.22633
G1 X146.600 Y128.626 E2.45265
G1 X142.090 Y128.626 E2.67898
G1 X142.090 Y124.176 E2.90230
G1 X142.435 Y124.461 F7800.000
G1 F1800.000
G1 X146.255 Y124.461 E3.09401
G1 X146.255 Y128.281 E3.28572
G1 X142.435 Y128.281 E3.47743
G1 X142.435 Y124.521 E3.66613
G1 X142.331 Y124.074 F7800.000
G1 E1.66613 F2400.00000
G92 E0
G1 X142.090 Y118.934 F7800.000
G1 E2.00000 F2400.00000
G1 F1800.000
G1 X146.600 Y118.934 E2.22633
G1 X146.600 Y123.444 E2.45265
G1 X142.090 Y123.444 E2.67898
G1 X142.090 Y118.994 E2.90230
G1 X142.435 Y119.279 F7800.000
G1 F1800.000
G1 X146.255 Y119.279 E3.09401
G1 X146.255 Y123.099 E3.28572
G1 X142.435 Y123.099 E3.47743
G1 X142.435 Y119.339 E3.66613
G1 X142.331 Y118.892 F7800.000
G1 E1.66613 F2400.00000
G92 E0
G1 X142.090 Y113.752 F7800.000
G1 E2.00000 F2400.00000
G1 F1800.000
G1 X146.600 Y113.752 E2.22633
G1 X146.600 Y118.262 E2.45265
G1 X142.090 Y118.262 E2.67898
G1 X142.090 Y113.812 E2.90230
G1 X142.435 Y114.097 F7800.000
G1 F1800.000
G1 X146.255 Y114.097 E3.09401
G1 X146.255 Y117.917 E3.28572
G1 X142.435 Y117.917 E3.47743
G1 X142.435 Y114.157 E3.66613
G1 X142.331 Y113.711 F7800.000
G1 E1.66613 F2400.00000
G92 E0
G1 X142.090 Y108.570 F7800.000
G1 E2.00000 F2400.00000
G1 F1800.000
G1 X146.600 Y108.570 E2.22633
G1 X146.600 Y113.080 E2.45265
G1 X142.090 Y113.080 E2.67898
G1 X142.090 Y108.630 E2.90230
G1 X142.435 Y108.915 F7800.000
G1 F1800.000
G1 X146.255 Y108.915 E3.09401
G1 X146.255 Y112.735 E3.28572
G1 X142.435 Y112.735 E3.47743
G1 X142.435 Y108.975 E3.66613
G1 X142.331 Y108.529 F7800.000
G1 E1.66613 F2400.00000
G92 E0
G1 X142.090 Y103.388 F7800.000
G1 E2.00000 F2400.00000
G1 F1800.000
G1 X146.600 Y103.388 E2.22633
G1 X146.600 Y107.898 E2.45265
G1 X142.090 Y107.898 E2.67898
G1 X142.090 Y103.448 E2.90230
G1 X142.435 Y103.733 F7800.000
G1 F1800.000
G1 X146.255 Y103.733 E3.09401
G1 X146.255 Y107.553 E3.28572
G1 X142.435 Y107.553 E3.47743
G1 X142.435 Y103.793 E3.66613
G1 X142.331 Y103.347 F7800.000
G1 E1.66613 F2400.00000
G92 E0
G1 X142.090 Y98.207 F7800.000
G1 E2.00000 F2400.00000
G1 F1800.000
G1 X146.600 Y98.207 E2.22633
G1 X146.600 Y102.716 E2.45265
G1 X142.090 Y102.716 E2.67898
G1 X142.090 Y98.267 E2.90230
G1 X142.435 Y98.552 F7800.000
G1 F1800.000
G1 X146.255 Y98.552 E3.09401
G1 X146.255 Y102.372 E3.28572
G1 X142.435 Y102.372 E3.47743
G1 X142.435 Y98.612 E3.66613
G1 X142.331 Y98.165 F7800.000
G1 E1.66613 F2400.00000
G92 E0
G1 X142.090 Y93.025 F7800.000
G1 E2.00000 F2400.00000
G1 F1800.000
G1 X146.600 Y93.025 E2.22633
G1 X146.600 Y97.535 E2.45265
G1 X142.090 Y97.535 E2.67898
G1 X142.090 Y93.085 E2.90230
G1 X142.435 Y93.370 F7800.000
G1 F1800.000
G1 X146.255 Y93.370 E3.09401
G1 X146.255 Y97.190 E3.28572
G1 X142.435 Y97.190 E3.47743
G1 X142.435 Y93.430 E3.66613
G1 X142.331 Y92.983 F7800.000
G1 E1.66613 F2400.00000
G92 E0
G1 X142.090 Y87.843 F7800.000
G1 E2.00000 F2400.00000
G1 F1800.000
G1 X146.600 Y87.843 E2.22633
G1 X146.600 Y92.353 E2.45265
G1 X142.090 Y92.353 E2.67898
G1 X142.090 Y87.903 E2.90230
G1 X142.435 Y88.188 F7800.000
G1 F1800.000
G1 X146.255 Y88.188 E3.09401
G1 X146.255 Y92.008 E3.28572
G1 X142.435 Y92.008 E3.47743
G1 X142.435 Y88.248 E3.66613
G1 X142.331 Y87.802 F7800.000
G1 E1.66613 F2400.00000
G92 E0
G1 X142.090 Y82.661 F7800.000
G1 E2.00000 F2400.00000
G1 F1800.000
G1 X146.600 Y82.661 E2.22633
G1 X146.600 Y87.171 E2.45265
G1 X142.090 Y87.171 E2.67898
G1 X142.090 Y82.721 E2.90230
G1 X142.435 Y83.006 F7800.000
G1 F1800.000
G1 X146.255 Y83.006 E3.09401
G1 X146.255 Y86.826 E3.28572
G1 X142.435 Y86.826 E3.47743
G1 X142.435 Y83.066 E3.66613
G1 X142.331 Y82.620 F7800.000
G1 E1.66613 F2400.00000
G92 E0
G1 X142.090 Y77.479 F7800.000
G1 E2.00000 F2400.00000
G1 F1800.000
G1 X146.600 Y77.479 E2.22633
G1 X146.600 Y81.989 E2.45265
G1 X142.090 Y81.989 E2.67898
G1 X142.090 Y77.539 E2.90230
G1 X142.435 Y77.824 F7800.000
G1 F1800.000
G1 X146.255 Y77.824 E3.09401
G1 X146.255 Y81.644 E3.28572
G1 X142.435 Y81.644 E3.47743
G1 X142.435 Y77.884 E3.66613
G1 X142.331 Y77.438 F7800.000
G1 E1.66613 F2400.00000
G92 E0
G1 X166.757 Y77.479 F7800.000
G1 E2.00000 F2400.00000
G1 F1800.000
G1 X171.266 Y77.479 E2.22633
G1 X171.266 Y81.989 E2.45265
G1 X166.757 Y81.989 E2.67898
G1 X166.757 Y77.539 E2.90230
G1 X167.102 Y77.824 F7800.000
G1 F1800.000
G1 X170.922 Y77.824 E3.09401
G1 X170.922 Y81.644 E3.28572
G1 X167.102 Y81.644 E3.47743
G1 X167.102 Y77.884 E3.66613
G1 X166.998 Y77.438 F7800.000
G1 E1.66613 F2400.00000
G92 E0
G1 X166.757 Y82.661 F7800.000
G1 E2.00000 F2400.00000
G1 F1800.000
G1 X171.266 Y82.661 E2.22633
G1 X171.266 Y87.171 E2.45265
G1 X166.757 Y87.171 E2.67898
G1 X166.757 Y82.721 E2.90230
G1 X167.102 Y83.006 F7800.000
G1 F1800.000
G1 X170.922 Y83.006 E3.09401
G1 X170.922 Y86.826 E3.28572
G1 X167.102 Y86.826 E3.47743
G1 X167.102 Y83.066 E3.66613
G1 X166.998 Y82.620 F7800.000
G1 E1.66613 F2400.00000
G92 E0
G1 X166.757 Y87.843 F7800.000
G1 E2.00000 F2400.00000
G1 F1800.000
G1 X171.266 Y87.843 E2.22633
G1 X171.266 Y92.353 E2.45265
G1 X166.757 Y92.353 E2.67898
G1 X166.757 Y87.903 E2.90230
G1 X167.102 Y88.188 F7800.000
G1 F1800.000
G1 X170.922 Y88.188 E3.09401
G1 X170.922 Y92.008 E3.28572
G1 X167.102 Y92.008 E3.47743
G1 X167.102 Y88.248 E3.66613
G1 X166.998 Y87.802 F7800.000
G1 E1.66613 F2400.00000
G92 E0
G1 X166.757 Y93.025 F7800.000
G1 E2.00000 F2400.00000
G1 F1800.000
G1 X171.266 Y93.025 E2.22633
G1 X171.266 Y97.535 E2.45265
G1 X166.757 Y97.535 E2.67898
G1 X166.757 Y93.085 E2.90230
G1 X167.102 Y93.370 F7800.000
G1 F1800.000
G1 X170.922 Y93.370 E3.09401
G1 X170.922 Y97.190 E3.28572
G1 X167.102 Y97.190 E3.47743
G1 X167.102 Y93.430 E3.66613
G1 X166.998 Y92.983 F7800.000
G1 E1.66613 F2400.00000
G92 E0
G1 X166.757 Y98.207 F7800.000
G1 E2.00000 F2400.00000
G1 F1800.000
G1 X171.266 Y98.207 E2.22633
G1 X171.266 Y102.716 E2.45265
G1 X166.757 Y102.716 E2.67898
G1 X166.757 Y98.267 E2.90230
G1 X167.102 Y98.552 F7800.000
G1 F1800.000
G1 X170.922 Y98.552 E3.09401
G1 X170.922 Y102.372 E3.28572
G1 X167.102 Y102.372 E3.47743
G1 X167.102 Y98.612 E3.66613
G1 X166.998 Y98.165 F7800.000
G1 E1.66613 F2400.00000
G92 E0
G1 X166.757 Y103.388 F7800.000
G1 E2.00000 F2400.00000
G1 F1800.000
G1 X171.266 Y103.388 E2.22633
G1 X171.266 Y107.898 E2.45265
G1 X166.757 Y107.898 E2.67898
G1 X166.757 Y103.448 E2.90230
G1 X167.102 Y103.733 F7800.000
G1 F1800.000
G1 X170.922 Y103.733 E3.09401
G1 X170.922 Y107.553 E3.28572
G1 X167.102 Y107.553 E3.47743
G1 X167.102 Y103.793 E3.66613
G1 X166.998 Y103.347 F7800.000
G1 E1.66613 F2400.00000
G92 E0
G1 X166.757 Y108.570 F7800.000
G1 E2.00000 F2400.00000
G1 F1800.000
G1 X171.266 Y108.570 E2.22633
G1 X171.266 Y113.080 E2.45265
G1 X166.757 Y113.080 E2.67898
G1 X166.757 Y108.630 E2.90230
G1 X167.102 Y108.915 F7800.000
G1 F1800.000
G1 X170.922 Y108.915 E3.09401
G1 X170.922 Y112.735 E3.28572
G1 X167.102 Y112.735 E3.47743
G1 X167.102 Y108.975 E3.66613
G1 X166.998 Y108.529 F7800.000
G1 E1.66613 F2400.00000
G92 E0
G1 X166.757 Y113.752 F7800.000
G1 E2.00000 F2400.00000
G1 F1800.000
G1 X171.266 Y113.752 E2.22633
G1 X171.266 Y118.262 E2.45265
G1 X166.757 Y118.262 E2.67898
G1 X166.757 Y113.812 E2.90230
G1 X167.102 Y114.097 F7800.000
G1 F1800.000
G1 X170.922 Y114.097 E3.09401
G1 X170.922 Y117.917 E3.28572
G1 X167.102 Y117.917 E3.47743
G1 X167.102 Y114.157 E3.66613
G1 X166.998 Y113.711 F7800.000
G1 E1.66613 F2400.00000
G92 E0
G1 X166.757 Y118.934 F7800.000
G1 E2.00000 F2400.00000
G1 F1800.000
G1 X171.266 Y118.934 E2.22633
G1 X171.266 Y123.444 E2.45265
G1 X166.757 Y123.444 E2.67898
G1 X166.757 Y118.994 E2.90230
G1 X167.102 Y119.279 F7800.000
G1 F1800.000
G1 X170.922 Y119.279 E3.09401
G1 X170.922 Y123.099 E3.28572
G1 X167.102 Y123.099 E3.47743
G1 X167.102 Y119.339 E3.66613
G1 X166.998 Y118.892 F7800.000
G1 E1.66613 F2400.00000
G92 E0
G1 X166.757 Y124.116 F7800.000
G1 E2.00000 F2400.00000
G1 F1800.000
G1 X171.266 Y124.116 E2.22633
G1 X171.266 Y128.626 E2.45265
G1 X166.757 Y128.626 E2.67898
G1 X166.757 Y124.176 E2.90230
G1 X167.102 Y124.461 F7800.000
G1 F1800.000
G1 X170.922 Y124.461 E3.09401
G1 X170.922 Y128.281 E3.28572
G1 X167.102 Y128.281 E3.47743
G1 X167.102 Y124.521 E3.66613
G1 X166.998 Y124.074 F7800.000
G1 E1.66613 F2400.00000
G92 E0
G1 X166.757 Y129.298 F7800.000
G1 E2.00000 F2400.00000
G1 F1800.000
G1 X171.266 Y129.298 E2.22633
G1 X171.266 Y133.807 E2.45265
G1 X166.757 Y133.807 E2.67898
G1 X166.757 Y129.358 E2.90230
G1 X167.102 Y129.642 F7800.000
G1 F1800.000
G1 X170.922 Y129.642 E3.09401
G1 X170.922 Y133.462 E3.28572
G1 X167.102 Y133.462 E3.47743
G1 X167.102 Y129.702 E3.66613
G1 X166.998 Y129.256 F7800.000
G1 E1.66613 F2400.00000
G92 E0
G1 X166.757 Y134.479 F7800.000
G1 E2.00000 F2400.00000
G1 F1800.000
G1 X171.266 Y134.479 E2.22633
G1 X171.266 Y138.989 E2.45265
G1 X166.757 Y138.989 E2.67898
G1 X166.757 Y134.539 E2.90230
G1 X167.102 Y134.824 F7800.000
G1 F1800.000
G1 X170.922 Y134.824 E3.09401
G1 X170.922 Y138.644 E3.28572
G1 X167.102 Y138.644 E3.47743
G1 X167.102 Y134.884 E3.66613
G1 X166.998 Y134.438 F7800.000
G1 E1.66613 F2400.00000
G92 E0
G1 X166.757 Y139.661 F7800.000
G1 E2.00000 F2400.00000
G1 F1800.000
G1 X171.266 Y139.661 E2.22633
G1 X171.266 Y144.171 E2.45265
G1 X166.757 Y144.171 E2.67898
G1 X166.757 Y139.721 E2.90230
G1 X167.102 Y140.006 F7800.000
G1 F1800.000
G1 X170.922 Y140.006 E3.09401
G1 X170.922 Y143.826 E3.28572
G1 X167.102 Y143.826 E3.47743
G1 X167.102 Y140.066 E3.66613
G1 X166.998 Y139.620 F7800.000
G1 E1.66613 F2400.00000
G92 E0
G1 X166.757 Y144.843 F7800.000
G1 E2.00000 F2400.00000
G1 F1800.000
G1 X171.266 Y144.843 E2.22633
G1 X171.266 Y149.353 E2.45265
G1 X166.757 Y149.353 E2.67898
G1 X166.757 Y144.903 E2.90230
G1 X167.102 Y145.188 F7800.000
G1 F1800.000
G1 X170.922 Y145.188 E3.09401
G1 X170.922 Y149.008 E3.28572
G1 X167.102 Y149.008 E3.47743
G1 X167.102 Y145.248 E3.66613
G1 X166.998 Y144.802 F7800.000
G1 E1.66613 F2400.00000
G92 E0
G1 X166.757 Y150.025 F7800.000
G1 E2.00000 F2400.00000
G1 F1800.000
G1 X171.266 Y150.025 E2.22633
G1 X171.266 Y154.535 E2.45265
G1 X166.757 Y154.535 E2.67898
G1 X166.757 Y150.085 E2.90230
G1 X167.102 Y150.370 F7800.000
G1 F1800.000
G1 X170.922 Y150.370 E3.09401
G1 X170.922 Y154.190 E3.28572
G1 X167.102 Y154.190 E3.47743
G1 X167.102 Y150.430 E3.66613
G1 X166.998 Y149.983 F7800.000
G1 E1.66613 F2400.00000
G92 E0
G1 X166.757 Y155.207 F7800.000
G1 E2.00000 F2400.00000
G1 F1800.000
G1 X171.266 Y155.207 E2.22633
G1 X171.266 Y159.716 E2.45265
G1 X166.757 Y159.716 E2.67898
G1 X166.757 Y155.267 E2.90230
G1 X167.102 Y155.552 F7800.000
G1 F1800.000
G1 X170.922 Y155.552 E3.09401
G1 X170.922 Y159.372 E3.28572
G1 X167.102 Y159.372 E3.47743
G1 X167.102 Y155.612 E3.66613
G1 X166.998 Y155.165 F7800.000
G1 E1.66613 F2400.00000
G92 E0
G1 X166.757 Y160.388 F7800.000
G1 E2.00000 F2400.00000
G1 F1800.000
G1 X171.266 Y160.388 E2.22633
G1 X171.266 Y164.898 E2.45265
G1 X166.757 Y164.898 E2.67898
G1 X166.757 Y160.448 E2.90230
G1 X167.102 Y160.733 F7800.000
G1 F1800.000
G1 X170.922 Y160.733 E3.09401
G1 X170.922 Y164.553 E3.28572
G1 X167.102 Y164.553 E3.47743
G1 X167.102 Y160.793 E3.66613
G1 X166.998 Y160.347 F7800.000
G1 E1.66613 F2400.00000
G92 E0
G1 X166.757 Y165.570 F7800.000
G1 E2.00000 F2400.00000
G1 F1800.000
G1 X171.266 Y165.570 E2.22633
G1 X171.266 Y170.080 E2.45265
