; generated by PrusaSlicer 2.2.0+win64 on 2020-09-26 at 00:22:06 UTC

; 

; external perimeters extrusion width = 0.45mm
; perimeters extrusion width = 0.45mm
; infill extrusion width = 0.45mm
; solid infill extrusion width = 0.45mm
; top infill extrusion width = 0.40mm
; first layer extrusion width = 0.42mm

M73 P0 R98
M73 Q0 S99
M201 X1000 Y1000 Z200 E5000 ; sets maximum accelerations, mm/sec^2
M203 X200 Y200 Z12 E120 ; sets maximum feedrates, mm/sec
M204 P1250 R1250 T1250 ; sets acceleration (P, T) and retract acceleration (R), mm/sec^2
M205 X8.00 Y8.00 Z0.40 E4.50 ; sets the jerk limits, mm/sec
M205 S0 T0 ; sets the minimum extruding and travel feed rate, mm/sec
M107
M862.3 P "MK3S" ; printer model check
M862.1 P0.4 ; nozzle diameter check
M115 U3.9.0 ; tell printer latest fw version
G90 ; use absolute coordinates
M83 ; extruder relative mode
M104 S240 ; set extruder temp
M140 S85 ; set bed temp
M190 S85 ; wait for bed temp
M109 S240 ; wait for extruder temp
G28 W ; home all without mesh bed level
G80 ; mesh bed leveling
G1 Y-3.0 F1000.0 ; go outside print area
G92 E0.0
G1 X60.0 E9.0 F1000.0 ; intro line
M73 Q0 S99
M73 P0 R98
G1 X100.0 E12.5 F1000.0 ; intro line
G92 E0.0
M221 S95

; Don't change E values below. Excessive value can damage the printer.
M907 E430 ; set extruder motor current
G21 ; set units to millimeters
G90 ; use absolute coordinates
M83 ; use relative distances for extrusion
M900 K0.08 ; Filament gcode LA 1.5
M900 K45 ; Filament gcode LA 1.0
;BEFORE_LAYER_CHANGE
G92 E0.0
;0.2


G1 E-1.40000 F2100.00000
G1 Z0.200 F10800.000
;AFTER_LAYER_CHANGE
;0.2
G1 Z0.400
G1 X81.616 Y79.813
G1 Z0.200
G1 E1.40000 F2100.00000
M204 S1000
G1 F1200.000
G1 X83.704 Y78.980 E0.07048
G1 X129.338 Y70.399 E1.45591
G1 X134.684 Y69.828 E0.16857
G1 X140.004 Y69.641 E0.16690
G1 X145.316 Y69.828 E0.16666
G1 X150.643 Y70.396 E0.16798
G1 X155.894 Y71.336 E0.16726
G1 X159.736 Y72.306 E0.12422
G1 X161.050 Y72.695 E0.04298
G1 X162.330 Y73.183 E0.04294
G1 X163.705 Y73.834 E0.04772
G1 X165.027 Y74.603 E0.04795
G1 X166.221 Y75.433 E0.04561
G1 X167.271 Y76.287 E0.04243
G1 X168.250 Y77.217 E0.04235
G1 X169.274 Y78.350 E0.04788
G1 X170.156 Y79.504 E0.04554
G1 X170.946 Y80.728 E0.04568
G1 X171.665 Y82.074 E0.04783
G1 X172.248 Y83.419 E0.04596
G1 X172.374 Y84.152 E0.02331
G1 X172.377 Y134.028 E1.56384
G1 X172.209 Y135.403 E0.04344
G1 X172.066 Y135.912 E0.01657
G1 X171.512 Y137.188 E0.04363
G1 X170.603 Y138.393 E0.04733
G1 X169.417 Y139.355 E0.04789
G1 X168.936 Y139.632 E0.01740
G1 X167.614 Y140.151 E0.04453
G1 X166.009 Y140.359 E0.05072
G1 X79.958 Y139.394 E2.69825
G1 X79.133 Y139.231 E0.02637
G1 X78.419 Y138.793 E0.02626
G1 X78.089 Y138.431 E0.01538
G1 X77.838 Y138.005 E0.01550
G1 X77.681 Y137.540 E0.01538
G1 X77.623 Y137.053 E0.01538
G1 X77.624 Y86.663 E1.57994
G1 X77.843 Y84.900 E0.05570
G1 X77.990 Y84.377 E0.01704
G1 X78.700 Y82.721 E0.05648
G1 X79.859 Y81.191 E0.06020
G1 X81.569 Y79.850 E0.06812
G1 F8640.000
G1 X83.704 Y78.980 E-0.53234
G1 X87.099 Y78.342 E-0.79766
G1 E-0.07000 F2100.00000
G1 Z0.400 F10800.000
G1 X80.787 Y136.231
G1 Z0.200
G1 E1.40000 F2100.00000
G1 F1200.000
G1 X80.787 Y86.775 E1.55063
G1 X80.958 Y85.480 E0.04097
G1 X81.438 Y84.321 E0.03934
G1 X82.202 Y83.325 E0.03934
G1 X83.197 Y82.562 E0.03934
G1 X84.356 Y82.081 E0.03934
G1 X85.600 Y81.918 E0.03934
G1 X86.844 Y82.081 E0.03934
G1 X88.003 Y82.562 E0.03934
G1 X88.998 Y83.325 E0.03934
G1 X89.762 Y84.321 E0.03934
G1 X90.242 Y85.480 E0.03934
G1 X90.405 Y86.718 E0.03915
G1 X85.367 Y120.923 E1.08407
G1 X85.323 Y122.518 E0.05000
G1 X85.500 Y124.111 E0.05026
G1 X85.897 Y125.664 E0.05026
G1 X86.505 Y127.147 E0.05026
G1 X87.313 Y128.532 E0.05026
G1 X88.305 Y129.791 E0.05026
G1 X89.462 Y130.900 E0.05026
G1 X90.744 Y131.826 E0.04957
G1 X92.178 Y132.588 E0.05092
G1 X93.685 Y133.135 E0.05028
G1 X95.254 Y133.466 E0.05026
G1 X96.825 Y133.576 E0.04940
G1 X99.802 Y133.576 E0.09333
G1 X101.021 Y133.509 E0.03829
G1 X102.247 Y133.306 E0.03896
G1 X103.444 Y132.970 E0.03896
G1 X104.596 Y132.505 E0.03896
G1 X105.691 Y131.917 E0.03896
G1 X106.715 Y131.213 E0.03896
G1 X107.656 Y130.402 E0.03896
G1 X108.503 Y129.492 E0.03896
G1 X109.245 Y128.495 E0.03896
G1 X109.874 Y127.423 E0.03896
G1 X110.382 Y126.289 E0.03896
G1 X110.787 Y125.030 E0.04149
G1 X110.787 Y82.988 E1.31819
G1 X110.854 Y82.366 E0.01962
G1 X110.981 Y81.749 E0.01974
G1 X111.167 Y81.148 E0.01974
G1 X111.410 Y80.567 E0.01974
G1 X111.708 Y80.013 E0.01974
G1 X112.058 Y79.489 E0.01974
G1 X112.457 Y79.002 E0.01974
G1 X112.901 Y78.556 E0.01974
G1 X113.386 Y78.155 E0.01974
G1 X113.908 Y77.802 E0.01974
G1 X114.461 Y77.502 E0.01974
G1 X115.045 Y77.254 E0.01990
G1 X119.882 Y75.664 E0.15962
G1 X124.823 Y74.418 E0.15978
G1 X129.840 Y73.523 E0.15978
G1 X134.907 Y72.985 E0.15978
G1 X140.019 Y72.806 E0.16037
G1 X145.093 Y72.985 E0.15920
G1 X150.160 Y73.523 E0.15978
G1 X155.177 Y74.418 E0.15978
G1 X158.873 Y75.350 E0.11952
G1 X160.035 Y75.692 E0.03798
G1 X161.152 Y76.120 E0.03749
G1 X162.231 Y76.634 E0.03749
G1 X163.267 Y77.232 E0.03749
G1 X164.252 Y77.910 E0.03749
G1 X165.180 Y78.663 E0.03749
G1 X166.046 Y79.488 E0.03749
G1 X166.845 Y80.378 E0.03749
G1 X167.570 Y81.328 E0.03749
G1 X168.218 Y82.333 E0.03749
G1 X168.785 Y83.386 E0.03749
G1 X169.213 Y84.357 E0.03327
G1 X169.213 Y133.931 E1.55435
G1 X169.097 Y134.812 E0.02787
G1 X168.777 Y135.585 E0.02624
G1 X168.267 Y136.249 E0.02624
G1 X167.603 Y136.759 E0.02624
G1 X166.830 Y137.079 E0.02624
G1 X166.000 Y137.189 E0.02624
G1 X165.170 Y137.079 E0.02624
G1 X164.397 Y136.759 E0.02624
G1 X163.733 Y136.249 E0.02624
G1 X163.223 Y135.585 E0.02624
G1 X162.903 Y134.812 E0.02624
G1 X162.792 Y133.968 E0.02669
G1 X165.796 Y102.383 E0.99479
G1 X165.194 Y99.789 E0.08350
G1 X164.448 Y97.339 E0.08031
G1 X163.539 Y94.944 E0.08031
G1 X162.471 Y92.616 E0.08031
G1 X161.248 Y90.365 E0.08031
G1 X159.877 Y88.201 E0.08031
G1 X158.364 Y86.135 E0.08031
G1 X156.715 Y84.175 E0.08031
G1 X154.938 Y82.331 E0.08031
G1 X153.040 Y80.610 E0.08031
G1 X151.032 Y79.021 E0.08031
G1 X148.842 Y77.517 E0.08329
G1 X146.643 Y76.847 E0.07208
G1 X144.592 Y76.492 E0.06527
G1 X140.000 Y76.229 E0.14420
G1 X135.408 Y76.492 E0.14420
G1 X133.591 Y76.806 E0.05782
G1 X131.407 Y77.747 E0.07458
G1 X129.349 Y78.802 E0.07249
G1 X127.368 Y79.993 E0.07249
G1 X125.470 Y81.315 E0.07249
G1 X123.667 Y82.761 E0.07249
G1 X121.964 Y84.325 E0.07249
G1 X120.370 Y86.000 E0.07249
G1 X118.893 Y87.779 E0.07249
G1 X117.539 Y89.653 E0.07249
G1 X116.313 Y91.614 E0.07249
G1 X115.223 Y93.652 E0.07249
G1 X114.203 Y95.912 E0.07775
G1 X116.406 Y132.966 E1.16384
G1 X116.271 Y133.438 E0.01542
G1 X116.042 Y133.965 E0.01802
G1 X115.746 Y134.458 E0.01802
G1 X115.388 Y134.908 E0.01802
G1 X114.974 Y135.307 E0.01802
G1 X114.512 Y135.649 E0.01802
G1 X114.010 Y135.927 E0.01802
G1 X113.475 Y136.138 E0.01802
G1 X112.917 Y136.277 E0.01802
G1 X112.346 Y136.342 E0.01802
G1 X111.772 Y136.332 E0.01802
G1 X111.094 Y136.231 E0.02147
G1 X80.847 Y136.231 E0.94838
G1 X80.410 Y136.608 F10800.000
G1 F1200.000
G1 X80.410 Y86.751 E1.56323
G1 X80.590 Y85.382 E0.04330
G1 X81.108 Y84.131 E0.04245
G1 X81.933 Y83.056 E0.04245
G1 X83.007 Y82.232 E0.04245
G1 X84.258 Y81.714 E0.04245
G1 X85.600 Y81.537 E0.04245
G1 X86.942 Y81.714 E0.04245
G1 X88.193 Y82.232 E0.04245
G1 X89.267 Y83.056 E0.04245
G1 X90.092 Y84.131 E0.04245
G1 X90.610 Y85.382 E0.04245
G1 X90.786 Y86.721 E0.04235
G1 X85.743 Y120.956 E1.08502
G1 X85.700 Y122.502 E0.04848
G1 X85.872 Y124.043 E0.04861
G1 X86.256 Y125.545 E0.04861
G1 X86.844 Y126.980 E0.04861
G1 X87.626 Y128.319 E0.04861
G1 X88.585 Y129.537 E0.04861
G1 X89.704 Y130.610 E0.04861
G1 X90.943 Y131.505 E0.04794
G1 X92.331 Y132.243 E0.04928
G1 X93.789 Y132.771 E0.04862
G1 X95.306 Y133.092 E0.04861
G1 X96.839 Y133.199 E0.04817
G1 X99.792 Y133.199 E0.09259
G1 X100.980 Y133.134 E0.03731
G1 X102.165 Y132.937 E0.03767
G1 X103.322 Y132.612 E0.03767
G1 X104.436 Y132.163 E0.03767
G1 X105.495 Y131.595 E0.03767
G1 X106.484 Y130.914 E0.03767
G1 X107.394 Y130.130 E0.03767
G1 X108.213 Y129.250 E0.03767
G1 X108.930 Y128.287 E0.03767
G1 X109.538 Y127.250 E0.03767
G1 X110.029 Y126.154 E0.03767
G1 X110.410 Y124.970 E0.03898
G1 X110.410 Y82.968 E1.31696
G1 X110.481 Y82.308 E0.02082
G1 X110.615 Y81.655 E0.02088
G1 X110.812 Y81.019 E0.02088
G1 X111.069 Y80.405 E0.02088
G1 X111.384 Y79.818 E0.02088
G1 X111.755 Y79.264 E0.02088
G1 X112.177 Y78.749 E0.02088
G1 X112.647 Y78.277 E0.02088
G1 X113.160 Y77.853 E0.02088
G1 X113.712 Y77.480 E0.02088
G1 X114.297 Y77.162 E0.02088
G1 X114.913 Y76.901 E0.02097
G1 X119.776 Y75.302 E0.16053
G1 X124.744 Y74.049 E0.16062
G1 X129.787 Y73.150 E0.16062
G1 X134.881 Y72.609 E0.16061
G1 X140.019 Y72.429 E0.16120
G1 X145.119 Y72.609 E0.16003
G1 X150.213 Y73.150 E0.16062
G1 X155.256 Y74.049 E0.16062
G1 X158.973 Y74.986 E0.12017
G1 X160.156 Y75.335 E0.03868
G1 X161.301 Y75.773 E0.03843
G1 X162.407 Y76.300 E0.03843
G1 X163.468 Y76.913 E0.03843
G1 X164.478 Y77.608 E0.03843
G1 X165.429 Y78.380 E0.03843
G1 X166.317 Y79.225 E0.03843
G1 X167.135 Y80.137 E0.03843
G1 X167.879 Y81.111 E0.03843
G1 X168.543 Y82.141 E0.03843
G1 X169.124 Y83.220 E0.03843
G1 X169.590 Y84.278 E0.03623
G1 X169.590 Y133.956 E1.55761
G1 X169.464 Y134.911 E0.03021
G1 X169.106 Y135.776 E0.02936
G1 X168.536 Y136.518 E0.02936
G1 X167.793 Y137.088 E0.02936
G1 X166.928 Y137.447 E0.02936
G1 X166.000 Y137.569 E0.02936
G1 X165.072 Y137.447 E0.02936
G1 X164.207 Y137.088 E0.02936
G1 X163.464 Y136.518 E0.02936
G1 X162.894 Y135.776 E0.02936
G1 X162.536 Y134.911 E0.02936
G1 X162.413 Y133.975 E0.02959
G1 X165.414 Y102.409 E0.99421
M73 Q1 S98
M73 P1 R97
G1 X164.829 Y99.887 E0.08117
G1 X164.091 Y97.461 E0.07951
G1 X163.191 Y95.090 E0.07951
G1 X162.133 Y92.785 E0.07951
G1 X160.923 Y90.556 E0.07951
G1 X159.566 Y88.414 E0.07951
G1 X158.067 Y86.368 E0.07951
G1 X156.435 Y84.428 E0.07951
G1 X154.675 Y82.602 E0.07951
G1 X152.796 Y80.898 E0.07951
G1 X150.808 Y79.325 E0.07951
G1 X148.677 Y77.861 E0.08106
G1 X146.556 Y77.214 E0.06952
G1 X144.549 Y76.867 E0.06386
G1 X140.000 Y76.607 E0.14285
G1 X135.451 Y76.867 E0.14285
G1 X133.699 Y77.170 E0.05575
G1 X131.567 Y78.088 E0.07278
G1 X129.533 Y79.132 E0.07170
G1 X127.573 Y80.310 E0.07170
G1 X125.696 Y81.617 E0.07170
G1 X123.912 Y83.047 E0.07170
G1 X122.228 Y84.594 E0.07170
G1 X120.652 Y86.251 E0.07170
G1 X119.191 Y88.010 E0.07170
G1 X117.852 Y89.863 E0.07170
G1 X116.640 Y91.803 E0.07170
G1 X115.561 Y93.819 E0.07170
G1 X114.585 Y95.983 E0.07443
G1 X116.787 Y133.008 E1.16295
G1 X116.626 Y133.566 E0.01821
G1 X116.377 Y134.138 E0.01957
G1 X116.056 Y134.673 E0.01957
G1 X115.667 Y135.162 E0.01957
G1 X115.218 Y135.595 E0.01957
G1 X114.717 Y135.967 E0.01957
G1 X114.171 Y136.269 E0.01957
G1 X113.590 Y136.498 E0.01957
G1 X112.984 Y136.649 E0.01957
G1 X112.364 Y136.719 E0.01957
G1 X111.740 Y136.708 E0.01957
G1 X111.066 Y136.608 E0.02137
G1 X80.470 Y136.608 E0.95933
G1 X80.610 Y136.261 F10800.000
G1 F8640.000
G1 X80.463 Y130.848 E-1.33000
G1 E-0.07000 F2100.00000
G1 Z0.400 F10800.000
G1 X80.900 Y135.353
G1 Z0.200
G1 E1.40000 F2100.00000
G1 F1200.000
G1 X81.495 Y135.948 E0.02643
G1 X82.029 Y135.948 E0.01681
G1 X81.070 Y134.988 E0.04266
G1 X81.070 Y134.454 E0.01681
G1 X82.564 Y135.948 E0.06643
G1 X83.099 Y135.948 E0.01681
G1 X81.070 Y133.919 E0.09019
G1 X81.070 Y133.384 E0.01681
G1 X83.633 Y135.948 E0.11396
G1 X84.168 Y135.948 E0.01681
G1 X81.070 Y132.850 E0.13773
G1 X81.070 Y132.315 E0.01681
G1 X84.703 Y135.948 E0.16150
G1 X85.237 Y135.948 E0.01681
G1 X81.070 Y131.780 E0.18527
G1 X81.070 Y131.246 E0.01681
G1 X85.772 Y135.948 E0.20903
G1 X86.307 Y135.948 E0.01681
G1 X81.070 Y130.711 E0.23280
G1 X81.070 Y130.176 E0.01681
G1 X86.841 Y135.948 E0.25657
G1 X87.376 Y135.948 E0.01681
G1 X81.070 Y129.642 E0.28034
G1 X81.070 Y129.107 E0.01681
G1 X87.910 Y135.948 E0.30410
G1 X88.445 Y135.948 E0.01681
G1 X81.070 Y128.572 E0.32787
G1 X81.070 Y128.038 E0.01681
G1 X88.980 Y135.948 E0.35164
G1 X89.514 Y135.948 E0.01681
G1 X81.070 Y127.503 E0.37541
G1 X81.070 Y126.969 E0.01681
G1 X90.049 Y135.948 E0.39918
G1 X90.584 Y135.948 E0.01681
G1 X81.070 Y126.434 E0.42294
G1 X81.070 Y125.899 E0.01681
G1 X91.118 Y135.948 E0.44671
G1 X91.653 Y135.948 E0.01681
G1 X81.070 Y125.365 E0.47048
G1 X81.070 Y124.830 E0.01681
G1 X92.188 Y135.948 E0.49425
G1 X92.722 Y135.948 E0.01681
G1 X81.070 Y124.295 E0.51802
G1 X81.070 Y123.761 E0.01681
G1 X93.427 Y136.117 E0.54933
G1 F8640.000
G1 X89.354 Y132.044 E-1.33000
G1 E-0.07000 F2100.00000
G1 Z0.400 F10800.000
G1 X87.275 Y82.382
G1 Z0.200
G1 E1.40000 F2100.00000
G1 F1200.000
G1 X89.628 Y84.736 E0.10462
G1 X89.967 Y85.554 E0.02784
G1 X89.975 Y85.618 E0.00202
G1 X86.706 Y82.349 E0.14532
G1 X86.091 Y82.268 E0.01952
G1 X90.056 Y86.233 E0.17630
G1 X90.120 Y86.716 E0.01529
G1 X90.105 Y86.817 E0.00321
G1 X85.504 Y82.216 E0.20454
G1 X85.032 Y82.278 E0.01498
G1 X90.036 Y87.283 E0.22249
G1 X89.968 Y87.749 E0.01481
G1 X84.559 Y82.340 E0.24044
G1 X84.430 Y82.357 E0.00410
G1 X84.155 Y82.471 E0.00935
G1 X89.899 Y88.215 E0.25534
G1 X89.830 Y88.681 E0.01481
G1 X83.777 Y82.627 E0.26910
G1 X83.399 Y82.784 E0.01286
G1 X89.762 Y89.147 E0.28285
G1 X89.693 Y89.613 E0.01481
G1 X83.085 Y83.004 E0.29378
G1 X82.782 Y83.236 E0.01199
G1 X89.624 Y90.079 E0.30418
G1 X89.556 Y90.545 E0.01481
G1 X82.480 Y83.468 E0.31457
G1 X82.403 Y83.527 E0.00303
G1 X82.230 Y83.753 E0.00896
G1 X89.487 Y91.011 E0.32263
G1 X89.419 Y91.477 E0.01481
G1 X81.998 Y84.056 E0.32990
G1 X81.766 Y84.358 E0.01199
G1 X89.350 Y91.943 E0.33717
G1 X89.281 Y92.409 E0.01481
G1 X81.583 Y84.710 E0.34225
G1 X81.426 Y85.088 E0.01286
G1 X89.213 Y92.875 E0.34616
G1 X89.144 Y93.341 E0.01481
G1 X81.269 Y85.466 E0.35007
G1 X81.233 Y85.554 E0.00298
G1 X81.185 Y85.917 E0.01150
G1 X89.075 Y93.807 E0.35075
G1 X89.007 Y94.273 E0.01481
G1 X81.123 Y86.389 E0.35047
G1 X81.070 Y86.794 E0.01284
G1 X81.070 Y86.870 E0.00240
G1 X88.938 Y94.739 E0.34979
G1 X88.869 Y95.205 E0.01481
G1 X81.070 Y87.405 E0.34673
G1 X81.070 Y87.940 E0.01681
G1 X88.801 Y95.671 E0.34368
G1 X88.732 Y96.137 E0.01481
G1 X81.070 Y88.474 E0.34063
G1 X81.070 Y89.009 E0.01681
G1 X88.663 Y96.603 E0.33758
G1 X88.595 Y97.069 E0.01481
G1 X81.070 Y89.544 E0.33453
G1 X81.070 Y90.078 E0.01681
G1 X88.526 Y97.535 E0.33148
G1 X88.458 Y98.001 E0.01481
G1 X81.070 Y90.613 E0.32843
G1 X81.070 Y91.148 E0.01681
G1 X88.389 Y98.467 E0.32537
G1 X88.320 Y98.933 E0.01481
G1 X81.070 Y91.682 E0.32232
G1 X81.070 Y92.217 E0.01681
G1 X88.252 Y99.399 E0.31927
G1 X88.183 Y99.865 E0.01481
G1 X81.070 Y92.751 E0.31622
G1 X81.070 Y93.286 E0.01681
G1 X88.114 Y100.331 E0.31317
G1 X88.046 Y100.797 E0.01481
G1 X81.070 Y93.821 E0.31012
G1 X81.070 Y94.355 E0.01681
G1 X87.977 Y101.263 E0.30707
G1 X87.908 Y101.729 E0.01481
G1 X81.070 Y94.890 E0.30401
G1 X81.070 Y95.425 E0.01681
G1 X87.840 Y102.195 E0.30096
G1 X87.771 Y102.661 E0.01481
G1 X81.070 Y95.959 E0.29791
G1 X81.070 Y96.494 E0.01681
G1 X87.703 Y103.127 E0.29486
G1 X87.634 Y103.593 E0.01481
G1 X81.070 Y97.029 E0.29181
G1 X81.070 Y97.563 E0.01681
G1 X87.565 Y104.059 E0.28876
G1 X87.497 Y104.525 E0.01481
G1 X81.070 Y98.098 E0.28570
G1 X81.070 Y98.633 E0.01681
G1 X87.428 Y104.991 E0.28265
G1 X87.359 Y105.457 E0.01481
G1 X81.070 Y99.167 E0.27960
G1 X81.070 Y99.702 E0.01681
G1 X87.291 Y105.923 E0.27655
G1 X87.222 Y106.389 E0.01481
G1 X81.070 Y100.236 E0.27350
G1 X81.070 Y100.771 E0.01681
G1 X87.153 Y106.855 E0.27045
G1 X87.085 Y107.321 E0.01481
G1 X81.070 Y101.306 E0.26740
G1 X81.070 Y101.840 E0.01681
G1 X87.016 Y107.787 E0.26434
G1 X86.947 Y108.253 E0.01481
G1 X81.070 Y102.375 E0.26129
G1 X81.070 Y102.910 E0.01681
G1 X86.879 Y108.719 E0.25824
G1 X86.810 Y109.185 E0.01481
G1 X81.070 Y103.444 E0.25519
G1 X81.070 Y103.979 E0.01681
G1 X86.742 Y109.651 E0.25214
G1 X86.673 Y110.117 E0.01481
G1 X81.070 Y104.514 E0.24909
G1 X81.070 Y105.048 E0.01681
G1 X86.604 Y110.583 E0.24604
G1 X86.536 Y111.049 E0.01481
G1 X81.070 Y105.583 E0.24298
G1 X81.070 Y106.117 E0.01681
G1 X86.467 Y111.515 E0.23993
G1 X86.398 Y111.981 E0.01481
G1 X81.070 Y106.652 E0.23688
G1 X81.070 Y107.187 E0.01681
G1 X86.330 Y112.447 E0.23383
G1 X86.261 Y112.913 E0.01481
G1 X81.070 Y107.721 E0.23078
G1 X81.070 Y108.256 E0.01681
