; generated by PrusaSlicer 2.2.0+win64 on 2020-09-30 at 00:30:54 UTC

; 

; external perimeters extrusion width = 0.60mm
; perimeters extrusion width = 0.50mm
; infill extrusion width = 0.50mm
; solid infill extrusion width = 0.50mm
; top infill extrusion width = 0.45mm
; first layer extrusion width = 0.42mm

M73 P0 R323
M73 Q0 S326
M201 X1000 Y1000 Z200 E5000 ; sets maximum accelerations, mm/sec^2
M203 X200 Y200 Z12 E120 ; sets maximum feedrates, mm/sec
M204 P1250 R1250 T1250 ; sets acceleration (P, T) and retract acceleration (R), mm/sec^2
M205 X8.00 Y8.00 Z0.40 E4.50 ; sets the jerk limits, mm/sec
M205 S0 T0 ; sets the minimum extruding and travel feed rate, mm/sec
M107
M862.3 P "MK3S" ; printer model check
M862.1 P0.4 ; nozzle diameter check
M115 U3.9.1 ; tell printer latest fw version
G90 ; use absolute coordinates
M83 ; extruder relative mode
M104 S240 ; set extruder temp
M140 S85 ; set bed temp
M190 S85 ; wait for bed temp
M109 S240 ; wait for extruder temp
G28 W ; home all without mesh bed level
G80 ; mesh bed leveling
G1 Y-3.0 F1000.0 ; go outside print area
G92 E0.0
G1 X60.0 E9.0 F1000.0 ; intro line
M73 Q0 S326
M73 P0 R323
G1 X100.0 E12.5 F1000.0 ; intro line
G92 E0.0
M221 S95

; Don't change E values below. Excessive value can damage the printer.

M907 E538 ; set extruder motor current
G21 ; set units to millimeters
G90 ; use absolute coordinates
M83 ; use relative distances for extrusion
M900 K0.08 ; Filament gcode LA 1.5
M900 K45 ; Filament gcode LA 1.0
;BEFORE_LAYER_CHANGE
G92 E0.0
;0.2


G1 E-1.40000 F2100.00000
G1 Z0.200 F10800.000
;AFTER_LAYER_CHANGE
;0.2
G1 Z0.400
G1 X85.989 Y68.809
G1 Z0.200
G1 E1.40000 F2100.00000
M204 S1000
G1 F1200.000
G1 X86.974 Y68.624 E0.03143
G1 X163.004 Y68.623 E2.38385
G1 X164.031 Y68.817 E0.03277
G1 X164.531 Y69.064 E0.01748
G1 X165.016 Y69.448 E0.01940
G1 X165.614 Y70.304 E0.03273
G1 X165.799 Y70.834 E0.01761
G1 X165.876 Y71.432 E0.01891
G1 X165.877 Y138.530 E2.10381
G1 X165.801 Y139.157 E0.01979
G1 X165.608 Y139.709 E0.01832
G1 X165.361 Y140.141 E0.01562
G1 X164.962 Y140.604 E0.01916
G1 X164.500 Y140.955 E0.01820
G1 X164.014 Y141.189 E0.01690
G1 X163.033 Y141.376 E0.03132
G1 X86.996 Y141.377 E2.38408
G1 X86.358 Y141.304 E0.02015
G1 X85.802 Y141.113 E0.01844
G1 X85.362 Y140.863 E0.01585
G1 X84.896 Y140.462 E0.01928
G1 X84.545 Y140.000 E0.01820
G1 X84.311 Y139.514 E0.01690
G1 X84.124 Y138.533 E0.03132
G1 X84.123 Y71.496 E2.10189
G1 X84.196 Y70.858 E0.02015
G1 X84.387 Y70.302 E0.01844
G1 X84.637 Y69.862 E0.01585
G1 X85.038 Y69.396 E0.01928
G1 X85.504 Y69.043 E0.01832
G1 X85.935 Y68.835 E0.01502
G1 F8640.000
G1 X86.974 Y68.624 E-0.24487
G1 X91.674 Y68.624 E-1.08513
G1 E-0.07000 F2100.00000
G1 Z0.400 F10800.000
G1 X87.287 Y71.792
G1 Z0.200
G1 E1.40000 F2100.00000
G1 F1200.000
G1 X162.713 Y71.787 E2.36492
G1 X162.713 Y138.213 E2.08273
G1 X87.287 Y138.213 E2.36492
G1 X87.287 Y71.852 E2.08071
G1 X86.910 Y71.540 F10800.000
G1 F1200.000
G1 X86.931 Y71.459 E0.00262
G1 X86.969 Y71.421 E0.00167
G1 X87.499 Y71.410 E0.01663
G1 X162.974 Y71.410 E2.36646
G1 X163.057 Y71.443 E0.00281
G1 X163.090 Y71.527 E0.00283
G1 X163.090 Y138.473 E2.09905
G1 X163.057 Y138.557 E0.00283
G1 X162.973 Y138.590 E0.00283
G1 X87.027 Y138.590 E2.38124
G1 X86.943 Y138.557 E0.00283
G1 X86.910 Y138.473 E0.00283
G1 X86.910 Y71.600 E2.09677
G1 X86.988 Y71.511 F10800.000
G1 F8640.000
G1 X86.931 Y71.459 E-0.03289
G1 X86.969 Y71.421 E-0.01233
G1 X87.499 Y71.410 E-0.12249
G1 X92.533 Y71.410 E-1.16229
G1 E-0.07000 F2100.00000
G1 Z0.400 F10800.000
G1 X162.600 Y72.663
G1 Z0.200
G1 E1.40000 F2100.00000
G1 F1200.000
G1 X162.006 Y72.070 E0.02634
G1 X161.473 Y72.070 E0.01676
G1 X162.430 Y73.028 E0.04251
G1 X162.430 Y73.561 E0.01676
G1 X160.939 Y72.070 E0.06621
G1 X160.405 Y72.070 E0.01676
G1 X162.430 Y74.095 E0.08990
G1 X162.430 Y74.629 E0.01676
G1 X159.871 Y72.070 E0.11360
G1 X159.337 Y72.070 E0.01676
G1 X162.430 Y75.163 E0.13730
G1 X162.430 Y75.697 E0.01676
G1 X158.803 Y72.070 E0.16100
G1 X158.270 Y72.070 E0.01676
G1 X162.430 Y76.231 E0.18469
G1 X162.430 Y76.765 E0.01676
G1 X157.736 Y72.070 E0.20839
G1 X157.202 Y72.070 E0.01676
G1 X162.430 Y77.299 E0.23209
G1 X162.430 Y77.832 E0.01676
G1 X156.668 Y72.070 E0.25579
G1 X156.134 Y72.070 E0.01676
G1 X162.430 Y78.366 E0.27948
G1 X162.430 Y78.900 E0.01676
G1 X155.600 Y72.070 E0.30318
G1 X155.067 Y72.070 E0.01676
G1 X162.430 Y79.434 E0.32688
G1 X162.430 Y79.968 E0.01676
G1 X154.533 Y72.070 E0.35058
G1 X153.999 Y72.070 E0.01676
G1 X162.430 Y80.502 E0.37427
G1 X162.430 Y81.036 E0.01676
G1 X153.465 Y72.070 E0.39797
G1 X152.931 Y72.071 E0.01676
G1 X162.430 Y81.569 E0.42167
G1 X162.430 Y82.103 E0.01676
G1 X152.397 Y72.071 E0.44537
G1 X151.864 Y72.071 E0.01676
G1 X162.430 Y82.637 E0.46906
G1 X162.430 Y83.171 E0.01676
G1 X151.330 Y72.071 E0.49276
G1 X150.796 Y72.071 E0.01676
G1 X162.430 Y83.705 E0.51646
G1 X162.430 Y84.239 E0.01676
G1 X150.262 Y72.071 E0.54016
G1 X149.728 Y72.071 E0.01676
G1 X162.430 Y84.773 E0.56385
M73 Q0 S325
M73 P0 R322
G1 X162.430 Y85.307 E0.01676
G1 X149.194 Y72.071 E0.58755
G1 X148.661 Y72.071 E0.01676
G1 X162.430 Y85.840 E0.61125
G1 X162.430 Y86.374 E0.01676
G1 X148.127 Y72.071 E0.63495
G1 X147.593 Y72.071 E0.01676
G1 X162.430 Y86.908 E0.65864
G1 X162.430 Y87.442 E0.01676
G1 X147.059 Y72.071 E0.68234
G1 X146.525 Y72.071 E0.01676
G1 X162.430 Y87.976 E0.70604
G1 X162.430 Y88.510 E0.01676
G1 X145.991 Y72.071 E0.72974
G1 X145.457 Y72.071 E0.01676
G1 X162.430 Y89.044 E0.75343
G1 X162.430 Y89.577 E0.01676
G1 X144.924 Y72.071 E0.77713
G1 X144.390 Y72.071 E0.01676
G1 X162.430 Y90.111 E0.80083
G1 X162.430 Y90.645 E0.01676
G1 X143.856 Y72.071 E0.82453
G1 X143.322 Y72.071 E0.01676
G1 X162.430 Y91.179 E0.84822
G1 X162.430 Y91.713 E0.01676
G1 X142.788 Y72.071 E0.87192
G1 X142.254 Y72.071 E0.01676
G1 X162.430 Y92.247 E0.89562
G1 X162.430 Y92.781 E0.01676
G1 X141.721 Y72.071 E0.91932
G1 X141.187 Y72.071 E0.01676
G1 X162.430 Y93.314 E0.94301
G1 X162.430 Y93.848 E0.01676
G1 X140.653 Y72.071 E0.96671
G1 X140.119 Y72.071 E0.01676
G1 X162.430 Y94.382 E0.99041
G1 X162.430 Y94.916 E0.01676
G1 X139.585 Y72.071 E1.01411
G1 X139.051 Y72.071 E0.01676
G1 X162.430 Y95.450 E1.03780
G1 X162.430 Y95.984 E0.01676
G1 X138.518 Y72.071 E1.06150
G1 X137.984 Y72.071 E0.01676
G1 X162.430 Y96.518 E1.08520
G1 X162.430 Y97.052 E0.01676
G1 X137.450 Y72.071 E1.10890
G1 X136.916 Y72.071 E0.01676
G1 X162.430 Y97.585 E1.13259
G1 X162.430 Y98.119 E0.01676
G1 X136.382 Y72.071 E1.15629
G1 X135.848 Y72.072 E0.01676
G1 X162.430 Y98.653 E1.17999
G1 X162.430 Y99.187 E0.01676
G1 X135.315 Y72.072 E1.20369
G1 X134.781 Y72.072 E0.01676
G1 X162.430 Y99.721 E1.22738
G1 X162.430 Y100.255 E0.01676
G1 X134.247 Y72.072 E1.25108
G1 X133.713 Y72.072 E0.01676
G1 X162.430 Y100.789 E1.27478
G1 X162.430 Y101.322 E0.01676
G1 X133.179 Y72.072 E1.29848
G1 X132.645 Y72.072 E0.01676
G1 X162.430 Y101.856 E1.32217
G1 X162.430 Y102.390 E0.01676
G1 X132.112 Y72.072 E1.34587
G1 X131.578 Y72.072 E0.01676
G1 X162.430 Y102.924 E1.36957
G1 X162.430 Y103.458 E0.01676
G1 X131.044 Y72.072 E1.39327
G1 X130.510 Y72.072 E0.01676
G1 X162.430 Y103.992 E1.41696
G1 X162.430 Y104.526 E0.01676
G1 X129.976 Y72.072 E1.44066
M73 Q0 S324
M73 P0 R321
G1 X129.442 Y72.072 E0.01676
G1 X162.430 Y105.060 E1.46436
G1 X162.430 Y105.593 E0.01676
G1 X128.909 Y72.072 E1.48806
G1 X128.375 Y72.072 E0.01676
G1 X162.430 Y106.127 E1.51175
G1 X162.430 Y106.661 E0.01676
G1 X127.841 Y72.072 E1.53545
G1 X127.307 Y72.072 E0.01676
G1 X162.430 Y107.195 E1.55915
G1 X162.430 Y107.729 E0.01676
G1 X126.773 Y72.072 E1.58285
G1 X126.239 Y72.072 E0.01676
G1 X162.430 Y108.263 E1.60654
G1 X162.430 Y108.797 E0.01676
G1 X125.706 Y72.072 E1.63024
G1 X125.172 Y72.072 E0.01676
G1 X162.430 Y109.330 E1.65394
G1 X162.430 Y109.864 E0.01676
G1 X124.638 Y72.072 E1.67764
G1 X124.104 Y72.072 E0.01676
G1 X162.430 Y110.398 E1.70133
G1 X162.430 Y110.932 E0.01676
G1 X123.570 Y72.072 E1.72503
G1 X123.036 Y72.072 E0.01676
G1 X162.430 Y111.466 E1.74873
G1 X162.430 Y112.000 E0.01676
G1 X122.503 Y72.072 E1.77243
G1 X121.969 Y72.072 E0.01676
G1 X162.430 Y112.534 E1.79612
G1 X162.430 Y113.068 E0.01676
G1 X121.435 Y72.072 E1.81982
G1 X120.901 Y72.072 E0.01676
G1 X162.430 Y113.601 E1.84352
G1 X162.430 Y114.135 E0.01676
G1 X120.367 Y72.072 E1.86722
G1 X119.833 Y72.072 E0.01676
G1 X162.430 Y114.669 E1.89091
G1 X162.430 Y115.203 E0.01676
G1 X119.300 Y72.072 E1.91461
G1 X118.766 Y72.073 E0.01676
G1 X162.430 Y115.737 E1.93831
G1 X162.430 Y116.271 E0.01676
G1 X118.232 Y72.073 E1.96201
M73 Q0 S323
M73 P0 R320
G1 X117.698 Y72.073 E0.01676
G1 X162.430 Y116.805 E1.98570
G1 X162.430 Y117.338 E0.01676
G1 X117.164 Y72.073 E2.00940
G1 X116.630 Y72.073 E0.01676
G1 X162.430 Y117.872 E2.03310
G1 X162.430 Y118.406 E0.01676
G1 X116.097 Y72.073 E2.05680
G1 X115.563 Y72.073 E0.01676
G1 X162.430 Y118.940 E2.08049
G1 X162.430 Y119.474 E0.01676
G1 X115.029 Y72.073 E2.10419
G1 X114.495 Y72.073 E0.01676
G1 X162.430 Y120.008 E2.12789
G1 X162.430 Y120.542 E0.01676
G1 X113.961 Y72.073 E2.15159
G1 X113.427 Y72.073 E0.01676
G1 X162.430 Y121.076 E2.17528
G1 X162.430 Y121.609 E0.01676
G1 X112.894 Y72.073 E2.19898
G1 X112.360 Y72.073 E0.01676
G1 X162.430 Y122.143 E2.22268
G1 X162.430 Y122.677 E0.01676
G1 X111.826 Y72.073 E2.24638
G1 X111.292 Y72.073 E0.01676
G1 X162.430 Y123.211 E2.27007
G1 X162.430 Y123.745 E0.01676
G1 X110.758 Y72.073 E2.29377
G1 X110.224 Y72.073 E0.01676
G1 X162.430 Y124.279 E2.31747
G1 X162.430 Y124.813 E0.01676
G1 X109.691 Y72.073 E2.34117
G1 X109.157 Y72.073 E0.01676
G1 X162.430 Y125.346 E2.36486
G1 X162.430 Y125.880 E0.01676
G1 X108.623 Y72.073 E2.38856
M73 Q1 S322
M73 P1 R319
G1 X108.089 Y72.073 E0.01676
G1 X162.430 Y126.414 E2.41226
G1 X162.430 Y126.948 E0.01676
G1 X107.555 Y72.073 E2.43596
G1 X107.021 Y72.073 E0.01676
G1 X162.430 Y127.482 E2.45965
G1 X162.430 Y128.016 E0.01676
G1 X106.488 Y72.073 E2.48335
G1 X105.954 Y72.073 E0.01676
G1 X162.430 Y128.550 E2.50705
G1 X162.430 Y129.083 E0.01676
G1 X105.420 Y72.073 E2.53075
G1 X104.886 Y72.073 E0.01676
G1 X162.430 Y129.617 E2.55444
G1 X162.430 Y130.151 E0.01676
G1 X104.352 Y72.073 E2.57814
G1 X103.818 Y72.073 E0.01676
G1 X162.430 Y130.685 E2.60184
G1 X162.430 Y131.219 E0.01676
G1 X103.285 Y72.073 E2.62554
G1 X102.751 Y72.073 E0.01676
G1 X162.430 Y131.753 E2.64923
G1 X162.430 Y132.287 E0.01676
G1 X102.217 Y72.073 E2.67293
G1 X101.683 Y72.074 E0.01676
G1 X162.430 Y132.821 E2.69663
G1 X162.430 Y133.354 E0.01676
G1 X101.149 Y72.074 E2.72033
G1 X100.615 Y72.074 E0.01676
G1 X162.430 Y133.888 E2.74402
M73 Q1 S321
M73 P1 R318
G1 X162.430 Y134.422 E0.01676
G1 X100.082 Y72.074 E2.76772
G1 X99.548 Y72.074 E0.01676
G1 X162.430 Y134.956 E2.79142
G1 X162.430 Y135.490 E0.01676
G1 X99.014 Y72.074 E2.81512
G1 X98.480 Y72.074 E0.01676
G1 X162.430 Y136.024 E2.83881
G1 X162.430 Y136.558 E0.01676
G1 X97.946 Y72.074 E2.86251
G1 X97.412 Y72.074 E0.01676
G1 X162.430 Y137.091 E2.88621
G1 X162.430 Y137.625 E0.01676
G1 X96.879 Y72.074 E2.90991
G1 X96.345 Y72.074 E0.01676
G1 X162.201 Y137.930 E2.92343
G1 X161.667 Y137.930 E0.01676
G1 X95.811 Y72.074 E2.92343
G1 X95.277 Y72.074 E0.01676
G1 X161.133 Y137.930 E2.92343
G1 X160.599 Y137.930 E0.01676
G1 X94.743 Y72.074 E2.92343
G1 X94.209 Y72.074 E0.01676
G1 X160.066 Y137.930 E2.92343
G1 X159.532 Y137.930 E0.01676
G1 X93.676 Y72.074 E2.92343
M73 Q1 S320
M73 P1 R317
G1 X93.142 Y72.074 E0.01676
G1 X158.998 Y137.930 E2.92343
G1 X158.464 Y137.930 E0.01676
G1 X92.608 Y72.074 E2.92342
G1 X92.074 Y72.074 E0.01676
G1 X157.930 Y137.930 E2.92342
G1 X157.396 Y137.930 E0.01676
G1 X91.540 Y72.074 E2.92342
G1 X91.006 Y72.074 E0.01676
G1 X156.862 Y137.930 E2.92342
G1 X156.329 Y137.930 E0.01676
G1 X90.473 Y72.074 E2.92342
G1 X89.939 Y72.074 E0.01676
G1 X155.795 Y137.930 E2.92342
G1 X155.261 Y137.930 E0.01676
G1 X89.405 Y72.074 E2.92342
G1 X88.871 Y72.074 E0.01676
G1 X154.727 Y137.930 E2.92342
G1 X154.193 Y137.930 E0.01676
G1 X88.337 Y72.074 E2.92341
G1 X87.803 Y72.074 E0.01676
G1 X153.659 Y137.930 E2.92341
G1 X153.125 Y137.930 E0.01676
G1 X87.570 Y72.375 E2.91008
G1 X87.570 Y72.909 E0.01676
G1 X152.591 Y137.930 E2.88638
M73 Q2 S319
M73 P2 R316
G1 X152.058 Y137.930 E0.01676
G1 X87.570 Y73.442 E2.86268
G1 X87.570 Y73.976 E0.01676
G1 X151.524 Y137.930 E2.83898
G1 X150.990 Y137.930 E0.01676
G1 X87.570 Y74.510 E2.81528
G1 X87.570 Y75.044 E0.01676
G1 X150.456 Y137.930 E2.79158
G1 X149.922 Y137.930 E0.01676
G1 X87.570 Y75.578 E2.76789
G1 X87.570 Y76.112 E0.01676
G1 X149.388 Y137.930 E2.74419
G1 X148.854 Y137.930 E0.01676
G1 X87.570 Y76.646 E2.72049
G1 X87.570 Y77.179 E0.01676
G1 X148.321 Y137.930 E2.69679
G1 X147.787 Y137.930 E0.01676
G1 X87.570 Y77.713 E2.67309
G1 X87.570 Y78.247 E0.01676
G1 X147.253 Y137.930 E2.64939
G1 X146.719 Y137.930 E0.01676
G1 X87.570 Y78.781 E2.62569
G1 X87.570 Y79.315 E0.01676
G1 X146.185 Y137.930 E2.60199
G1 X145.651 Y137.930 E0.01676
G1 X87.570 Y79.849 E2.57829
G1 X87.570 Y80.383 E0.01676
G1 X145.117 Y137.930 E2.55460
M73 Q2 S318
M73 P2 R315
G1 X144.583 Y137.930 E0.01676
G1 X87.570 Y80.917 E2.53090
G1 X87.570 Y81.450 E0.01676
G1 X144.050 Y137.930 E2.50720
G1 X143.516 Y137.930 E0.01676
G1 X87.570 Y81.984 E2.48350
G1 X87.570 Y82.518 E0.01676
G1 X142.982 Y137.930 E2.45980
G1 X142.448 Y137.930 E0.01676
G1 X87.570 Y83.052 E2.43610
G1 X87.570 Y83.586 E0.01676
G1 X141.914 Y137.930 E2.41240
G1 X141.380 Y137.930 E0.01676
G1 X87.570 Y84.120 E2.38870
G1 X87.570 Y84.654 E0.01676
G1 X140.846 Y137.930 E2.36500
G1 X140.313 Y137.930 E0.01676
G1 X87.570 Y85.187 E2.34131
G1 X87.570 Y85.721 E0.01676
G1 X139.779 Y137.930 E2.31761
G1 X139.245 Y137.930 E0.01676
G1 X87.570 Y86.255 E2.29391
G1 X87.570 Y86.789 E0.01676
G1 X138.711 Y137.930 E2.27021
G1 X138.177 Y137.930 E0.01676
G1 X87.570 Y87.323 E2.24651
G1 X87.570 Y87.857 E0.01676
G1 X137.643 Y137.930 E2.22281
G1 X137.109 Y137.930 E0.01676
G1 X87.570 Y88.391 E2.19911
G1 X87.570 Y88.925 E0.01676
G1 X136.575 Y137.930 E2.17541
M73 Q2 S317
M73 P2 R314
G1 X136.042 Y137.930 E0.01676
G1 X87.570 Y89.458 E2.15171
G1 X87.570 Y89.992 E0.01676
G1 X135.508 Y137.930 E2.12802
G1 X134.974 Y137.930 E0.01676
G1 X87.570 Y90.526 E2.10432
G1 X87.570 Y91.060 E0.01676
G1 X134.440 Y137.930 E2.08062
G1 X133.906 Y137.930 E0.01676
G1 X87.570 Y91.594 E2.05692
G1 X87.570 Y92.128 E0.01676
G1 X133.372 Y137.930 E2.03322
G1 X132.838 Y137.930 E0.01676
G1 X87.570 Y92.662 E2.00952
G1 X87.570 Y93.195 E0.01676
G1 X132.305 Y137.930 E1.98582
G1 X131.771 Y137.930 E0.01676
G1 X87.570 Y93.729 E1.96212
G1 X87.570 Y94.263 E0.01676
G1 X131.237 Y137.930 E1.93842
G1 X130.703 Y137.930 E0.01676
G1 X87.570 Y94.797 E1.91473
G1 X87.570 Y95.331 E0.01676
G1 X130.169 Y137.930 E1.89103
G1 X129.635 Y137.930 E0.01676
G1 X87.570 Y95.865 E1.86733
G1 X87.570 Y96.399 E0.01676
G1 X129.101 Y137.930 E1.84363
G1 X128.568 Y137.930 E0.01676
G1 X87.570 Y96.932 E1.81993
G1 X87.570 Y97.466 E0.01676
G1 X128.034 Y137.930 E1.79623
G1 X127.500 Y137.930 E0.01676
G1 X87.570 Y98.000 E1.77253
G1 X87.570 Y98.534 E0.01676
G1 X126.966 Y137.930 E1.74883
G1 X126.432 Y137.930 E0.01676
G1 X87.570 Y99.068 E1.72513
G1 X87.570 Y99.602 E0.01676
G1 X125.898 Y137.930 E1.70144
M73 Q3 S316
M73 P3 R313
G1 X125.364 Y137.930 E0.01676
G1 X87.570 Y100.136 E1.67774
G1 X87.570 Y100.670 E0.01676
G1 X124.830 Y137.930 E1.65404
G1 X124.297 Y137.930 E0.01676
G1 X87.570 Y101.203 E1.63034
G1 X87.570 Y101.737 E0.01676
G1 X123.763 Y137.930 E1.60664
G1 X123.229 Y137.930 E0.01676
G1 X87.570 Y102.271 E1.58294
G1 X87.570 Y102.805 E0.01676
G1 X122.695 Y137.930 E1.55924
G1 X122.161 Y137.930 E0.01676
G1 X87.570 Y103.339 E1.53554
G1 X87.570 Y103.873 E0.01676
G1 X121.627 Y137.930 E1.51184
G1 X121.093 Y137.930 E0.01676
G1 X87.570 Y104.407 E1.48815
G1 X87.570 Y104.940 E0.01676
G1 X120.560 Y137.930 E1.46445
G1 X120.026 Y137.930 E0.01676
G1 X87.570 Y105.474 E1.44075
G1 X87.570 Y106.008 E0.01676
G1 X119.492 Y137.930 E1.41705
G1 X118.958 Y137.930 E0.01676
G1 X87.570 Y106.542 E1.39335
G1 X87.570 Y107.076 E0.01676
G1 X118.424 Y137.930 E1.36965
G1 X117.890 Y137.930 E0.01676
G1 X87.570 Y107.610 E1.34595
G1 X87.570 Y108.144 E0.01676
G1 X117.356 Y137.930 E1.32225
G1 X116.822 Y137.930 E0.01676
G1 X87.570 Y108.678 E1.29855
