; generated by PrusaSlicer 2.2.0+win64 on 2020-08-30 at 19:06:51 UTC

; 

; external perimeters extrusion width = 0.45mm
; perimeters extrusion width = 0.45mm
; infill extrusion width = 0.45mm
; solid infill extrusion width = 0.45mm
; top infill extrusion width = 0.40mm
; first layer extrusion width = 0.42mm

M107
M190 S50 ; set bed temperature and wait for it to be reached
M104 S210 ; set temperature
G28 ; home all axes
G1 Z5 F5000 ; lift nozzle
M109 S210 ; set temperature and wait for it to be reached
G21 ; set units to millimeters
G90 ; use absolute coordinates
M82 ; use absolute distances for extrusion
G92 E0
; Filament gcode
G1 Z0.350 F7800.000
G1 E-2.00000 F2400.00000
G92 E0
G1 X51.679 Y73.842 F7800.000
G1 E2.00000 F2400.00000
G1 F1800.000
G1 X52.888 Y72.908 E2.07664
G1 X94.497 Y50.312 E4.45293
G1 X95.926 Y49.772 E4.52957
G1 X97.442 Y49.590 E4.60621
G1 X98.292 Y49.648 E4.64896
G1 X99.133 Y49.820 E4.69203
G1 X99.937 Y50.103 E4.73478
G1 X100.701 Y50.493 E4.77785
G1 X147.213 Y78.675 E7.50716
G1 X148.316 Y79.542 E7.57759
G1 X149.202 Y80.631 E7.64803
G1 X149.625 Y81.399 E7.69203
G1 X149.937 Y82.219 E7.73603
G1 X150.133 Y83.067 E7.77972
G1 X150.211 Y83.940 E7.82372
G1 X150.197 Y131.507 E10.21091
G1 X150.061 Y132.442 E10.25834
G1 X149.785 Y133.353 E10.30608
G1 X149.380 Y134.206 E10.35350
G1 X148.852 Y134.990 E10.40093
G1 X148.210 Y135.692 E10.44867
G1 X147.474 Y136.285 E10.49610
G1 X146.659 Y136.763 E10.54352
G1 X145.782 Y137.115 E10.59095
G1 X94.202 Y149.941 E13.25834
G1 X91.627 Y150.365 E13.38935
G1 X90.428 Y150.395 E13.44954
G1 X87.921 Y150.022 E13.57672
G1 X87.058 Y149.808 E13.62134
G1 X86.228 Y149.472 E13.66628
G1 X83.989 Y148.307 E13.79292
G1 X69.280 Y139.046 E14.66526
G1 X67.430 Y137.777 E14.77785
G1 X66.279 Y136.708 E14.85667
G1 X64.461 Y134.242 E15.01045
G1 X64.058 Y133.373 E15.05850
G1 X63.231 Y130.970 E15.18608
G1 X49.982 Y79.918 E17.83301
G1 X49.813 Y78.925 E17.88355
G1 X49.804 Y77.918 E17.93409
G1 X50.093 Y76.419 E18.01074
G1 X50.731 Y75.032 E18.08738
G1 X51.642 Y73.889 E18.16070
G1 E16.16070 F2400.00000
G92 E0
G1 X142.767 Y129.966 F7800.000
G1 E2.00000 F2400.00000
G1 F1800.000
G1 X140.467 Y129.966 E2.11545
G1 X140.467 Y94.966 E3.87196
G1 X123.553 Y94.966 E4.72077
G1 X95.694 Y139.550 E7.35919
G1 X95.567 Y139.471 E7.36669
G1 X94.820 Y140.938 E7.44933
G1 X93.740 Y142.019 E7.52601
G1 X92.377 Y142.713 E7.60276
G1 X90.867 Y142.952 E7.67948
G1 X89.357 Y142.713 E7.75621
G1 X87.994 Y142.019 E7.83295
G1 X86.914 Y140.938 E7.90964
G1 X86.220 Y139.575 E7.98638
G1 X85.981 Y138.065 E8.06310
G1 X86.220 Y136.556 E8.13983
G1 X87.152 Y134.726 E8.24289
G1 X113.622 Y92.365 E10.74973
G1 X113.220 Y91.575 E10.79418
G1 X112.981 Y90.066 E10.87090
G1 X113.220 Y88.556 E10.94762
G1 X113.914 Y87.193 E11.02437
G1 X114.994 Y86.112 E11.10105
G1 X116.357 Y85.418 E11.17780
G1 X117.941 Y85.167 E11.25829
G1 X142.767 Y85.165 E12.50421
G1 X142.767 Y129.906 E14.74954
G1 E12.74954 F2400.00000
G92 E0
G1 X140.122 Y95.311 F7800.000
G1 E2.00000 F2400.00000
G1 F1800.000
G1 X123.744 Y95.311 E2.82192
G1 X95.804 Y140.025 E5.46804
G1 X95.704 Y139.963 E5.47396
G1 X95.103 Y141.143 E5.54045
G1 X93.945 Y142.301 E5.62262
G1 X92.485 Y143.045 E5.70485
G1 X90.867 Y143.301 E5.78705
G1 X89.249 Y143.045 E5.86926
G1 X87.789 Y142.301 E5.95148
G1 X86.631 Y141.143 E6.03366
G1 X85.888 Y139.683 E6.11588
G1 X85.631 Y138.065 E6.19809
G1 X85.888 Y136.448 E6.28030
G1 X86.851 Y134.556 E6.38685
G1 X113.226 Y92.347 E8.88466
G1 X112.888 Y91.683 E8.92205
G1 X112.631 Y90.066 E9.00426
G1 X112.888 Y88.448 E9.08647
G1 X113.631 Y86.988 E9.16869
G1 X114.789 Y85.830 E9.25086
G1 X116.249 Y85.086 E9.33309
G1 X117.914 Y84.822 E9.41768
G1 X143.112 Y84.820 E10.68227
G1 X143.112 Y130.311 E12.96524
G1 X140.122 Y130.311 E13.11531
G1 X140.122 Y95.371 E14.86880
G1 X139.777 Y95.656 F7800.000
G1 F1800.000
G1 X123.936 Y95.656 E15.66382
G1 X95.914 Y140.501 E18.31766
G1 X95.840 Y140.455 E18.32199
G1 X95.385 Y141.349 E18.37233
G1 X94.150 Y142.584 E18.45999
G1 X92.593 Y143.377 E18.54769
G1 X90.867 Y143.650 E18.63538
G1 X89.141 Y143.377 E18.72307
G1 X87.584 Y142.584 E18.81078
G1 X86.349 Y141.349 E18.89844
G1 X85.556 Y139.791 E18.98614
G1 X85.282 Y138.065 E19.07383
G1 X85.556 Y136.340 E19.16152
G1 X86.449 Y134.587 E19.26027
G1 X86.432 Y134.576 E19.26125
G1 X112.830 Y92.330 E21.76130
G1 X112.556 Y91.791 E21.79164
G1 X112.282 Y90.066 E21.87933
G1 X112.556 Y88.340 E21.96702
G1 X113.349 Y86.782 E22.05472
G1 X114.584 Y85.547 E22.14238
G1 X116.141 Y84.754 E22.23009
G1 X117.720 Y84.504 E22.31032
G1 X117.737 Y84.477 E22.31188
G1 X143.457 Y84.476 E23.60268
G1 X143.457 Y130.655 E25.92026
G1 X139.777 Y130.655 E26.10494
G1 X139.777 Y95.716 E27.85844
G1 X139.763 Y95.256 F7800.000
G1 E25.85844 F2400.00000
G92 E0
G1 X142.664 Y97.198 F7800.000
G1 E2.00000 F2400.00000
G1 F1800.000
G1 X140.725 Y95.259 E2.13773
G1 X140.725 Y95.748 E2.16226
G1 X142.509 Y97.531 E2.28896
G1 X142.509 Y98.019 E2.31349
G1 X140.725 Y96.236 E2.44019
G1 X140.725 Y96.724 E2.46473
G1 X142.509 Y98.507 E2.59142
G1 X142.509 Y98.996 E2.61596
G1 X140.725 Y97.212 E2.74266
G1 X140.725 Y97.701 E2.76719
G1 X142.509 Y99.484 E2.89389
G1 X142.509 Y99.972 E2.91842
G1 X140.725 Y98.189 E3.04512
G1 X140.725 Y98.677 E3.06966
G1 X142.509 Y100.461 E3.19635
G1 X142.509 Y100.949 E3.22089
G1 X140.725 Y99.166 E3.34759
G1 X140.725 Y99.654 E3.37212
G1 X142.509 Y101.437 E3.49882
G1 X142.509 Y101.925 E3.52335
G1 X140.725 Y100.142 E3.65005
G1 X140.725 Y100.631 E3.67459
G1 X142.509 Y102.414 E3.80129
G1 X142.509 Y102.902 E3.82582
G1 X140.725 Y101.119 E3.95252
G1 X140.725 Y101.607 E3.97705
G1 X142.509 Y103.390 E4.10375
G1 X142.509 Y103.879 E4.12828
G1 X140.725 Y102.095 E4.25498
G1 X140.725 Y102.584 E4.27952
G1 X142.509 Y104.367 E4.40622
G1 X142.509 Y104.855 E4.43075
G1 X140.725 Y103.072 E4.55745
G1 X140.725 Y103.560 E4.58198
G1 X142.509 Y105.344 E4.70868
G1 X142.509 Y105.832 E4.73321
G1 X140.725 Y104.049 E4.85991
G1 X140.725 Y104.537 E4.88445
G1 X142.509 Y106.320 E5.01115
G1 X142.509 Y106.808 E5.03568
G1 X140.725 Y105.025 E5.16238
G1 X140.725 Y105.514 E5.18691
G1 X142.509 Y107.297 E5.31361
G1 X142.509 Y107.785 E5.33814
G1 X140.725 Y106.002 E5.46484
G1 X140.725 Y106.490 E5.48938
G1 X142.509 Y108.273 E5.61608
G1 X142.509 Y108.762 E5.64061
G1 X140.725 Y106.978 E5.76731
G1 X140.725 Y107.467 E5.79184
G1 X142.509 Y109.250 E5.91854
G1 X142.509 Y109.738 E5.94308
G1 X140.725 Y107.955 E6.06977
G1 X140.725 Y108.443 E6.09431
G1 X142.509 Y110.226 E6.22101
G1 X142.509 Y110.715 E6.24554
G1 X140.725 Y108.932 E6.37224
G1 X140.725 Y109.420 E6.39677
G1 X142.509 Y111.203 E6.52347
G1 X142.509 Y111.691 E6.54801
G1 X140.725 Y109.908 E6.67471
G1 X140.725 Y110.397 E6.69924
G1 X142.509 Y112.180 E6.82594
G1 X142.509 Y112.668 E6.85047
G1 X140.725 Y110.885 E6.97717
G1 X140.725 Y111.373 E7.00170
G1 X142.509 Y113.156 E7.12840
G1 X142.509 Y113.645 E7.15294
G1 X140.725 Y111.861 E7.27964
G1 X140.725 Y112.350 E7.30417
G1 X142.509 Y114.133 E7.43087
G1 X142.509 Y114.621 E7.45540
G1 X140.725 Y112.838 E7.58210
G1 X140.725 Y113.326 E7.60663
G1 X142.509 Y115.109 E7.73333
G1 X142.509 Y115.598 E7.75787
G1 X140.725 Y113.815 E7.88457
G1 X140.725 Y114.303 E7.90910
G1 X142.509 Y116.086 E8.03580
G1 X142.509 Y116.574 E8.06033
G1 X140.725 Y114.791 E8.18703
G1 X140.725 Y115.279 E8.21156
G1 X142.509 Y117.063 E8.33826
G1 X142.509 Y117.551 E8.36280
G1 X140.725 Y115.768 E8.48950
G1 X140.725 Y116.256 E8.51403
G1 X142.509 Y118.039 E8.64073
G1 X142.509 Y118.528 E8.66526
G1 X140.725 Y116.744 E8.79196
G1 X140.725 Y117.233 E8.81650
G1 X142.509 Y119.016 E8.94319
G1 X142.509 Y119.504 E8.96773
G1 X140.725 Y117.721 E9.09443
G1 X140.725 Y118.209 E9.11896
G1 X142.509 Y119.992 E9.24566
G1 X142.509 Y120.481 E9.27019
G1 X140.725 Y118.698 E9.39689
G1 X140.725 Y119.186 E9.42143
G1 X142.509 Y120.969 E9.54813
G1 X142.509 Y121.457 E9.57266
G1 X140.725 Y119.674 E9.69936
G1 X140.725 Y120.162 E9.72389
G1 X142.509 Y121.946 E9.85059
G1 X142.509 Y122.434 E9.87512
G1 X140.725 Y120.651 E10.00182
G1 X140.725 Y121.139 E10.02636
G1 X142.509 Y122.922 E10.15306
G1 X142.509 Y123.410 E10.17759
G1 X140.725 Y121.627 E10.30429
G1 X140.725 Y122.116 E10.32882
G1 X142.509 Y123.899 E10.45552
G1 X142.509 Y124.387 E10.48005
G1 X140.725 Y122.604 E10.60675
G1 X140.725 Y123.092 E10.63129
G1 X142.509 Y124.875 E10.75799
G1 X142.509 Y125.364 E10.78252
G1 X140.725 Y123.581 E10.90922
G1 X140.725 Y124.069 E10.93375
G1 X142.509 Y125.852 E11.06045
G1 X142.509 Y126.340 E11.08499
G1 X140.725 Y124.557 E11.21168
G1 X140.725 Y125.045 E11.23622
G1 X142.509 Y126.829 E11.36292
G1 X142.509 Y127.317 E11.38745
G1 X140.725 Y125.534 E11.51415
G1 X140.725 Y126.022 E11.53868
G1 X142.509 Y127.805 E11.66538
G1 X142.509 Y128.293 E11.68992
G1 X140.725 Y126.510 E11.81662
G1 X140.725 Y126.999 E11.84115
G1 X142.509 Y128.782 E11.96785
G1 X142.509 Y129.270 E11.99238
G1 X140.725 Y127.487 E12.11908
G1 X140.725 Y127.975 E12.14361
G1 X142.457 Y129.707 E12.26667
G1 X141.969 Y129.707 E12.29120
G1 X140.725 Y128.463 E12.37956
G1 X140.725 Y128.952 E12.40410
G1 X141.481 Y129.707 E12.45776
G1 X140.992 Y129.707 E12.48230
G1 X140.570 Y129.285 E12.51229
G1 E10.51229 F2400.00000
G92 E0
G1 X142.664 Y85.967 F7800.000
G1 E2.00000 F2400.00000
G1 F1800.000
G1 X142.121 Y85.424 E2.03857
G1 X141.633 Y85.424 E2.06310
G1 X142.509 Y86.300 E2.12533
G1 X142.509 Y86.788 E2.14986
G1 X141.144 Y85.424 E2.24679
G1 X140.656 Y85.424 E2.27132
G1 X142.509 Y87.277 E2.40294
G1 X142.509 Y87.765 E2.42747
G1 X140.168 Y85.424 E2.59378
G1 X139.680 Y85.424 E2.61831
G1 X142.509 Y88.253 E2.81931
G1 X142.509 Y88.741 E2.84385
G1 X139.191 Y85.424 E3.07954
G1 X138.703 Y85.424 E3.10407
G1 X142.509 Y89.230 E3.37446
G1 X142.509 Y89.718 E3.39899
G1 X138.215 Y85.424 E3.70407
G1 X137.727 Y85.424 E3.72860
G1 X142.509 Y90.206 E4.06838
G1 X142.509 Y90.695 E4.09291
G1 X137.238 Y85.424 E4.46737
G1 X136.750 Y85.424 E4.49191
G1 X142.509 Y91.183 E4.90106
G1 X142.509 Y91.671 E4.92560
G1 X136.262 Y85.424 E5.36945
G1 X135.774 Y85.425 E5.39398
G1 X142.509 Y92.159 E5.87252
G1 X142.509 Y92.648 E5.89705
G1 X135.285 Y85.425 E6.41029
G1 X134.797 Y85.425 E6.43482
G1 X142.509 Y93.136 E6.98275
G1 X142.509 Y93.624 E7.00728
G1 X134.309 Y85.425 E7.58990
G1 X133.821 Y85.425 E7.61443
G1 X142.509 Y94.113 E8.23175
G1 X142.509 Y94.601 E8.25628
G1 X133.332 Y85.425 E8.90829
G1 X132.844 Y85.425 E8.93282
G1 X142.509 Y95.089 E9.61952
G1 X142.509 Y95.578 E9.64405
G1 X132.356 Y85.425 E10.36544
G1 X131.868 Y85.425 E10.38997
G1 X142.509 Y96.066 E11.14605
G1 X142.509 Y96.554 E11.17059
G1 X131.379 Y85.425 E11.96136
G1 X130.891 Y85.425 E11.98589
G1 X140.173 Y94.707 E12.64543
G1 X139.685 Y94.707 E12.66996
G1 X130.403 Y85.425 E13.32949
G1 X129.915 Y85.425 E13.35402
G1 X139.197 Y94.707 E14.01355
G1 X138.708 Y94.707 E14.03808
G1 X129.426 Y85.425 E14.69760
G1 X128.938 Y85.425 E14.72213
G1 X138.220 Y94.707 E15.38165
G1 X137.732 Y94.707 E15.40619
G1 X128.450 Y85.425 E16.06570
G1 X127.961 Y85.425 E16.09024
G1 X137.243 Y94.707 E16.74975
G1 X136.755 Y94.707 E16.77428
G1 X127.473 Y85.425 E17.43380
G1 X126.985 Y85.425 E17.45833
G1 X136.267 Y94.707 E18.11784
G1 X135.779 Y94.707 E18.14237
G1 X126.497 Y85.425 E18.80188
G1 X126.008 Y85.425 E18.82641
G1 X135.290 Y94.707 E19.48591
G1 X134.802 Y94.707 E19.51045
G1 X125.520 Y85.425 E20.16995
G1 X125.032 Y85.425 E20.19448
G1 X134.314 Y94.707 E20.85398
G1 X133.825 Y94.707 E20.87851
G1 X124.544 Y85.425 E21.53801
G1 X124.055 Y85.425 E21.56254
G1 X133.337 Y94.707 E22.22204
G1 X132.849 Y94.707 E22.24657
G1 X123.567 Y85.425 E22.90606
G1 X123.079 Y85.426 E22.93059
G1 X132.360 Y94.707 E23.59008
G1 X131.872 Y94.707 E23.61461
G1 X122.591 Y85.426 E24.27410
G1 X122.102 Y85.426 E24.29863
G1 X131.384 Y94.707 E24.95811
G1 X130.896 Y94.707 E24.98265
G1 X121.614 Y85.426 E25.64213
G1 X121.126 Y85.426 E25.66666
G1 X130.407 Y94.707 E26.32614
G1 X129.919 Y94.707 E26.35067
G1 X120.638 Y85.426 E27.01015
G1 X120.149 Y85.426 E27.03468
G1 X129.431 Y94.707 E27.69415
G1 X128.942 Y94.707 E27.71868
G1 X119.661 Y85.426 E28.37815
G1 X119.173 Y85.426 E28.40268
G1 X128.454 Y94.707 E29.06215
G1 X127.966 Y94.707 E29.08668
G1 X118.685 Y85.426 E29.74615
G1 X118.196 Y85.426 E29.77068
G1 X127.477 Y94.707 E30.43014
G1 X126.989 Y94.707 E30.45468
G1 X117.743 Y85.461 E31.11167
G1 X117.321 Y85.527 E31.13311
G1 X126.501 Y94.707 E31.78536
G1 X126.013 Y94.707 E31.80989
G1 X116.900 Y85.594 E32.45739
G1 X116.478 Y85.661 E32.47883
G1 X125.524 Y94.707 E33.12157
G1 X125.036 Y94.707 E33.14611
G1 X116.145 Y85.817 E33.77781
G1 X115.822 Y85.981 E33.79606
G1 X124.548 Y94.707 E34.41606
G1 X124.059 Y94.707 E34.44059
G1 X115.498 Y86.146 E35.04888
G1 X115.175 Y86.311 E35.06712
G1 X123.571 Y94.707 E35.66371
G1 X123.410 Y94.707 E35.67181
G1 X123.284 Y94.908 E35.68374
G1 X114.924 Y86.548 E36.27774
G1 X114.680 Y86.793 E36.29509
G1 X123.096 Y95.209 E36.89310
G1 X122.909 Y95.509 E36.91090
G1 X114.436 Y87.037 E37.51292
G1 X114.192 Y87.281 E37.53027
G1 X122.721 Y95.810 E38.13629
G1 X122.533 Y96.110 E38.15409
G1 X114.006 Y87.583 E38.76000
G1 X113.841 Y87.907 E38.77824
G1 X122.345 Y96.411 E39.38251
G1 X122.157 Y96.711 E39.40032
G1 X113.676 Y88.230 E40.00296
G1 X113.511 Y88.554 E40.02120
G1 X121.970 Y97.012 E40.62220
G1 X121.782 Y97.313 E40.64000
G1 X113.419 Y88.950 E41.23419
G1 X113.352 Y89.371 E41.25563
G1 X121.594 Y97.613 E41.84123
G1 X121.406 Y97.914 E41.85904
G1 X113.286 Y89.793 E42.43604
G1 X113.242 Y90.066 E42.44991
G1 X113.275 Y90.270 E42.46033
G1 X121.219 Y98.214 E43.02476
G1 X121.031 Y98.515 E43.04256
G1 X113.367 Y90.851 E43.58710
G1 X113.459 Y91.431 E43.61662
G1 X120.843 Y98.815 E44.14129
G1 X120.655 Y99.116 E44.15909
G1 X113.918 Y92.379 E44.63778
G1 X113.730 Y92.679 E44.65559
G1 X120.467 Y99.416 E45.13428
G1 X120.280 Y99.717 E45.15209
G1 X113.543 Y92.980 E45.63078
G1 X113.355 Y93.280 E45.64859
G1 X120.092 Y100.017 E46.12728
G1 X119.904 Y100.318 E46.14508
G1 X113.167 Y93.581 E46.62378
G1 X112.979 Y93.881 E46.64158
G1 X119.716 Y100.618 E47.12028
G1 X119.529 Y100.919 E47.13808
G1 X112.791 Y94.182 E47.61678
G1 X112.604 Y94.482 E47.63458
G1 X119.341 Y101.219 E48.11328
G1 X119.153 Y101.520 E48.13108
G1 X112.416 Y94.783 E48.60978
G1 X112.228 Y95.083 E48.62758
G1 X118.965 Y101.820 E49.10627
G1 X118.777 Y102.121 E49.12408
G1 X112.040 Y95.384 E49.60277
G1 X111.852 Y95.684 E49.62058
G1 X118.590 Y102.421 E50.09927
G1 X118.402 Y102.722 E50.11708
G1 X111.665 Y95.985 E50.59577
G1 X111.477 Y96.285 E50.61357
G1 X118.214 Y103.022 E51.09227
G1 X118.026 Y103.323 E51.11007
G1 X111.289 Y96.586 E51.58877
G1 X111.101 Y96.886 E51.60657
G1 X117.838 Y103.623 E52.08527
G1 X117.651 Y103.924 E52.10307
G1 X110.914 Y97.187 E52.58177
G1 X110.726 Y97.487 E52.59957
G1 X117.463 Y104.224 E53.07827
G1 X117.275 Y104.525 E53.09607
G1 X110.538 Y97.788 E53.57476
G1 X110.350 Y98.088 E53.59257
G1 X117.087 Y104.825 E54.07126
G1 X116.900 Y105.126 E54.08907
G1 X110.162 Y98.389 E54.56776
G1 X109.975 Y98.689 E54.58557
G1 X116.712 Y105.426 E55.06426
G1 X116.524 Y105.727 E55.08206
G1 X109.787 Y98.990 E55.56076
G1 X109.599 Y99.290 E55.57856
G1 X116.336 Y106.027 E56.05726
G1 X116.148 Y106.328 E56.07506
G1 X109.411 Y99.591 E56.55376
G1 X109.224 Y99.891 E56.57156
G1 X115.961 Y106.629 E57.05026
G1 X115.773 Y106.929 E57.06806
G1 X109.036 Y100.192 E57.54676
G1 X108.848 Y100.492 E57.56456
G1 X115.585 Y107.230 E58.04325
G1 X115.397 Y107.530 E58.06106
G1 X108.660 Y100.793 E58.53975
G1 X108.472 Y101.093 E58.55756
G1 X115.210 Y107.831 E59.03625
G1 X115.022 Y108.131 E59.05406
G1 X108.285 Y101.394 E59.53275
G1 X108.097 Y101.694 E59.55055
G1 X114.834 Y108.432 E60.02925
G1 X114.646 Y108.732 E60.04705
G1 X107.909 Y101.995 E60.52575
G1 X107.721 Y102.296 E60.54355
G1 X114.458 Y109.033 E61.02225
G1 X114.271 Y109.333 E61.04005
G1 X107.534 Y102.596 E61.51875
G1 X107.346 Y102.897 E61.53655
G1 X114.083 Y109.634 E62.01525
G1 X113.895 Y109.934 E62.03305
G1 X107.158 Y103.197 E62.51174
G1 X106.970 Y103.498 E62.52955
G1 X113.707 Y110.235 E63.00824
G1 X113.519 Y110.535 E63.02605
G1 X106.782 Y103.798 E63.50474
G1 X106.595 Y104.099 E63.52255
G1 X113.332 Y110.836 E64.00124
G1 X113.144 Y111.136 E64.01904
G1 X106.407 Y104.399 E64.49774
G1 X106.219 Y104.700 E64.51554
