; generated by PrusaSlicer 2.2.0+win64 on 2020-08-30 at 17:45:59 UTC

; 

; external perimeters extrusion width = 0.45mm
; perimeters extrusion width = 0.45mm
; infill extrusion width = 0.45mm
; solid infill extrusion width = 0.45mm
; top infill extrusion width = 0.40mm
; first layer extrusion width = 0.42mm

M107
M190 S50 ; set bed temperature and wait for it to be reached
M104 S210 ; set temperature
G28 ; home all axes
G1 Z5 F5000 ; lift nozzle
M109 S210 ; set temperature and wait for it to be reached
G21 ; set units to millimeters
G90 ; use absolute coordinates
M82 ; use absolute distances for extrusion
G92 E0
; Filament gcode
G1 Z0.350 F7800.000
G1 E-2.00000 F2400.00000
G92 E0
G1 X39.899 Y85.718 F7800.000
G1 E2.00000 F2400.00000
G1 F1800.000
G1 X40.966 Y84.834 E2.06951
G1 X103.563 Y44.308 E5.81193
G1 X104.361 Y43.874 E5.85749
G1 X105.206 Y43.561 E5.90274
G1 X106.087 Y43.370 E5.94798
G1 X106.993 Y43.306 E5.99354
G1 X108.485 Y43.486 E6.06894
G1 X109.892 Y44.011 E6.14434
G1 X158.623 Y69.924 E8.91421
G1 X159.622 Y70.610 E8.97502
G1 X160.476 Y71.478 E9.03613
G1 X161.148 Y72.493 E9.09725
G1 X161.612 Y73.613 E9.15806
G1 X161.840 Y74.670 E9.21234
G1 X161.884 Y75.751 E9.26661
G1 X161.745 Y76.823 E9.32089
G1 X161.423 Y77.862 E9.37547
G1 X136.175 Y136.487 E12.57886
G1 X135.757 Y137.292 E12.62442
G1 X134.177 Y139.457 E12.75892
G1 X133.288 Y140.360 E12.82252
G1 X115.169 Y154.389 E13.97252
G1 X114.351 Y154.887 E14.02057
G1 X111.905 Y156.053 E14.15657
G1 X110.957 Y156.308 E14.20586
G1 X108.811 Y156.633 E14.31477
G1 X107.427 Y156.674 E14.38428
G1 X43.885 Y151.451 E17.58393
G1 X42.456 Y151.154 E17.65716
G1 X41.133 Y150.539 E17.73039
G1 X39.916 Y149.566 E17.80858
G1 X38.969 Y148.321 E17.88709
G1 X38.356 Y146.882 E17.96559
G1 X38.113 Y145.337 E18.04409
G1 X38.110 Y90.035 E20.81950
G1 X38.181 Y89.186 E20.86225
G1 X38.363 Y88.360 E20.90469
G1 X38.655 Y87.560 E20.94745
G1 X39.049 Y86.811 E20.98989
G1 X39.862 Y85.765 E21.05639
G1 E19.05639 F2400.00000
G92 E0
G1 X85.630 Y98.452 F7800.000
G1 E2.00000 F2400.00000
G1 F1800.000
G1 X111.728 Y141.040 E4.50666
G1 X112.646 Y142.879 E4.60985
G1 X112.872 Y144.392 E4.68660
G1 X112.618 Y145.899 E4.76329
G1 X111.913 Y147.256 E4.84006
G1 X110.823 Y148.328 E4.91678
G1 X109.455 Y149.009 E4.99346
G1 X107.943 Y149.236 E5.07020
G1 X106.436 Y148.983 E5.14690
G1 X105.080 Y148.277 E5.22363
G1 X104.008 Y147.187 E5.30036
G1 X103.265 Y145.695 E5.38399
G1 X103.137 Y145.776 E5.39157
G1 X76.152 Y101.743 E7.98339
G1 X76.152 Y100.826 E8.02938
G1 X76.057 Y100.826 E8.03414
G1 X76.057 Y100.810 E8.03495
G1 X48.354 Y100.810 E9.42527
G1 X48.350 Y144.032 E11.59441
G1 X45.554 Y144.032 E11.73470
G1 X45.554 Y91.234 E14.38444
G1 X81.467 Y91.234 E16.18678
G1 X82.956 Y91.482 E16.26254
G1 X84.311 Y92.187 E16.33918
G1 X85.383 Y93.278 E16.41592
G1 X86.065 Y94.646 E16.49265
G1 X86.291 Y96.159 E16.56940
G1 X86.039 Y97.667 E16.64615
G1 X85.658 Y98.399 E16.68757
G1 X86.026 Y98.438 F7800.000
G1 F1800.000
G1 X112.030 Y140.872 E19.18518
G1 X112.979 Y142.774 E19.29187
G1 X113.221 Y144.395 E19.37412
G1 X112.950 Y146.010 E19.45629
G1 X112.194 Y147.464 E19.53853
G1 X111.025 Y148.612 E19.62074
G1 X109.560 Y149.342 E19.70290
G1 X107.940 Y149.585 E19.78513
G1 X106.325 Y149.314 E19.86731
G1 X104.872 Y148.558 E19.94952
G1 X103.724 Y147.389 E20.03174
G1 X103.127 Y146.191 E20.09892
G1 X103.026 Y146.255 E20.10489
G1 X75.807 Y101.840 E22.71916
G1 X75.807 Y101.171 E22.75272
G1 X75.712 Y101.171 E22.75749
G1 X75.712 Y101.155 E22.75830
G1 X48.698 Y101.155 E24.11400
G1 X48.694 Y144.377 E26.28314
G1 X45.209 Y144.377 E26.45805
G1 X45.209 Y90.889 E29.14241
G1 X81.700 Y90.889 E30.97375
G1 X81.700 Y90.923 E30.97546
G1 X83.067 Y91.151 E31.04499
G1 X84.519 Y91.907 E31.12713
G1 X85.667 Y93.075 E31.20935
G1 X86.398 Y94.541 E31.29156
G1 X86.640 Y96.162 E31.37379
G1 X86.370 Y97.778 E31.45602
G1 X86.054 Y98.385 E31.49039
G1 X86.422 Y98.425 F7800.000
G1 F1800.000
G1 X112.450 Y140.898 E33.99033
G1 X112.433 Y140.908 E33.99132
G1 X113.312 Y142.669 E34.09010
G1 X113.570 Y144.398 E34.17785
G1 X113.281 Y146.120 E34.26549
G1 X112.475 Y147.671 E34.35321
G1 X111.228 Y148.896 E34.44090
G1 X109.665 Y149.675 E34.52854
G1 X107.937 Y149.934 E34.61625
G1 X106.214 Y149.646 E34.70392
G1 X104.664 Y148.838 E34.79161
G1 X103.439 Y147.592 E34.87932
G1 X102.989 Y146.687 E34.93005
G1 X102.915 Y146.734 E34.93440
G1 X75.462 Y101.937 E37.57114
G1 X75.462 Y101.516 E37.59228
G1 X75.367 Y101.516 E37.59704
G1 X75.367 Y101.500 E37.59785
G1 X49.043 Y101.500 E38.91894
G1 X49.039 Y144.722 E41.08808
G1 X44.864 Y144.722 E41.29760
G1 X44.864 Y90.544 E44.01658
G1 X82.045 Y90.544 E45.88254
G1 X82.045 Y90.631 E45.88690
G1 X83.178 Y90.820 E45.94451
G1 X84.726 Y91.626 E46.03213
G1 X85.951 Y92.872 E46.11983
G1 X86.731 Y94.436 E46.20753
G1 X86.989 Y96.165 E46.29524
G1 X86.702 Y97.889 E46.38296
G1 X86.450 Y98.371 E46.41028
G1 X86.146 Y98.714 F7800.000
G1 E44.41028 F2400.00000
G92 E0
G1 X85.969 Y94.699 F7800.000
G1 E2.00000 F2400.00000
G1 F1800.000
G1 X83.138 Y91.868 E2.20110
G1 X82.873 Y91.731 E2.21606
G1 X82.440 Y91.658 E2.23815
G1 X85.870 Y95.089 E2.48181
G1 X85.955 Y95.662 E2.51095
G1 X81.854 Y91.561 E2.80230
G1 X81.446 Y91.493 E2.82306
G1 X81.298 Y91.493 E2.83052
G1 X86.019 Y96.214 E3.16592
G1 X85.950 Y96.633 E3.18722
G1 X80.809 Y91.493 E3.55234
G1 X80.321 Y91.493 E3.57686
G1 X85.880 Y97.051 E3.97170
G1 X85.810 Y97.469 E3.99300
G1 X79.833 Y91.493 E4.41755
G1 X79.345 Y91.493 E4.44207
G1 X85.669 Y97.817 E4.89132
G1 X85.502 Y98.138 E4.90949
G1 X78.857 Y91.493 E5.38154
G1 X78.369 Y91.493 E5.40606
G1 X85.335 Y98.459 E5.90091
G1 X86.098 Y99.710 E5.97449
G1 X77.880 Y91.493 E6.55818
G1 X77.392 Y91.493 E6.58270
G1 X86.870 Y100.971 E7.25595
G1 X87.643 Y102.231 E7.33021
G1 X76.904 Y91.493 E8.09301
G1 X76.416 Y91.493 E8.11752
G1 X88.415 Y103.492 E8.96987
G1 X89.188 Y104.753 E9.04413
G1 X75.928 Y91.493 E9.98603
G1 X75.440 Y91.493 E10.01054
G1 X89.961 Y106.013 E11.04199
G1 X90.733 Y107.274 E11.11625
G1 X74.952 Y91.493 E12.23724
G1 X74.463 Y91.493 E12.26176
G1 X91.506 Y108.535 E13.47231
G1 X92.278 Y109.796 E13.54657
G1 X73.975 Y91.493 E14.84666
G1 X73.487 Y91.493 E14.87118
G1 X93.051 Y111.056 E16.26082
G1 X93.823 Y112.317 E16.33509
G1 X72.999 Y91.493 E17.81428
G1 X72.511 Y91.493 E17.83880
G1 X94.596 Y113.578 E19.40754
G1 X95.368 Y114.838 E19.48181
G1 X72.023 Y91.493 E21.14010
G1 X71.535 Y91.493 E21.16462
G1 X96.141 Y116.099 E22.91246
G1 X96.913 Y117.360 E22.98672
G1 X71.046 Y91.493 E24.82411
G1 X70.558 Y91.493 E24.84863
G1 X97.686 Y118.620 E26.77557
G1 X98.459 Y119.881 E26.84984
G1 X70.070 Y91.493 E28.86633
G1 X69.582 Y91.493 E28.89085
G1 X99.231 Y121.142 E30.99689
G1 X100.004 Y122.402 E31.07115
G1 X69.094 Y91.493 E33.26674
G1 X68.606 Y91.493 E33.29126
G1 X100.776 Y123.663 E35.57640
G1 X101.549 Y124.924 E35.65067
G1 X68.117 Y91.493 E38.02536
G1 X67.629 Y91.493 E38.04988
G1 X102.321 Y126.185 E40.51412
G1 X103.094 Y127.445 E40.58838
G1 X67.141 Y91.493 E43.14217
G1 X66.653 Y91.493 E43.16669
G1 X75.712 Y100.552 E43.81018
G1 X75.224 Y100.552 E43.83470
G1 X66.165 Y91.493 E44.47819
G1 X65.677 Y91.493 E44.50271
G1 X74.736 Y100.552 E45.14620
G1 X74.248 Y100.552 E45.17071
G1 X65.189 Y91.493 E45.81420
G1 X64.700 Y91.493 E45.83872
G1 X73.760 Y100.552 E46.48221
G1 X73.271 Y100.552 E46.50673
G1 X64.212 Y91.493 E47.15022
G1 X63.724 Y91.493 E47.17474
G1 X72.783 Y100.552 E47.81823
G1 X72.295 Y100.552 E47.84274
G1 X63.236 Y91.493 E48.48623
G1 X62.748 Y91.493 E48.51075
G1 X71.807 Y100.552 E49.15424
G1 X71.319 Y100.552 E49.17876
G1 X62.260 Y91.493 E49.82225
G1 X61.772 Y91.493 E49.84677
G1 X70.831 Y100.552 E50.49026
G1 X70.343 Y100.552 E50.51478
G1 X61.283 Y91.493 E51.15827
G1 X60.795 Y91.493 E51.18278
G1 X69.854 Y100.552 E51.82627
G1 X69.366 Y100.552 E51.85079
G1 X60.307 Y91.493 E52.49428
G1 X59.819 Y91.493 E52.51880
G1 X68.878 Y100.552 E53.16229
G1 X68.390 Y100.552 E53.18681
G1 X59.331 Y91.493 E53.83030
G1 X58.843 Y91.493 E53.85481
G1 X67.902 Y100.552 E54.49830
G1 X67.414 Y100.552 E54.52282
G1 X58.355 Y91.493 E55.16631
G1 X57.866 Y91.493 E55.19083
G1 X66.926 Y100.552 E55.83432
G1 X66.437 Y100.552 E55.85884
G1 X57.378 Y91.493 E56.50233
G1 X56.890 Y91.493 E56.52685
G1 X65.949 Y100.552 E57.17034
G1 X65.461 Y100.552 E57.19485
G1 X56.402 Y91.493 E57.83834
G1 X55.914 Y91.493 E57.86286
G1 X64.973 Y100.552 E58.50635
G1 X64.485 Y100.552 E58.53087
G1 X55.426 Y91.493 E59.17436
G1 X54.937 Y91.493 E59.19888
G1 X63.997 Y100.552 E59.84237
G1 X63.508 Y100.552 E59.86688
G1 X54.449 Y91.493 E60.51037
G1 X53.961 Y91.493 E60.53489
G1 X63.020 Y100.552 E61.17838
G1 X62.532 Y100.552 E61.20290
G1 X53.473 Y91.493 E61.84639
G1 X52.985 Y91.493 E61.87091
G1 X62.044 Y100.552 E62.51440
G1 X61.556 Y100.552 E62.53892
G1 X52.497 Y91.493 E63.18241
G1 X52.009 Y91.493 E63.20692
G1 X61.068 Y100.552 E63.85041
G1 X60.580 Y100.552 E63.87493
G1 X51.520 Y91.493 E64.51842
G1 X51.032 Y91.493 E64.54294
G1 X60.091 Y100.552 E65.18643
G1 X59.603 Y100.552 E65.21095
G1 X50.544 Y91.493 E65.85444
G1 X50.056 Y91.493 E65.87895
G1 X59.115 Y100.552 E66.52244
G1 X58.627 Y100.552 E66.54696
G1 X49.568 Y91.493 E67.19045
G1 X49.080 Y91.493 E67.21497
G1 X58.139 Y100.552 E67.85846
G1 X57.651 Y100.552 E67.88298
G1 X48.592 Y91.493 E68.52647
G1 X48.103 Y91.493 E68.55099
G1 X57.163 Y100.552 E69.19448
G1 X56.674 Y100.552 E69.21899
G1 X47.615 Y91.493 E69.86248
G1 X47.127 Y91.493 E69.88700
G1 X56.186 Y100.552 E70.53049
G1 X55.698 Y100.552 E70.55501
G1 X46.639 Y91.493 E71.19850
G1 X46.151 Y91.493 E71.22302
G1 X55.210 Y100.552 E71.86651
G1 X54.722 Y100.552 E71.89102
G1 X45.813 Y91.643 E72.52386
G1 X45.813 Y92.131 E72.54837
G1 X54.234 Y100.552 E73.14653
G1 X53.746 Y100.552 E73.17105
G1 X45.813 Y92.619 E73.73453
G1 X45.813 Y93.107 E73.75905
G1 X53.257 Y100.552 E74.28786
G1 X52.769 Y100.552 E74.31238
G1 X45.813 Y93.595 E74.80652
G1 X45.813 Y94.083 E74.83103
G1 X52.281 Y100.552 E75.29050
G1 X51.793 Y100.552 E75.31501
G1 X45.813 Y94.572 E75.73980
G1 X45.813 Y95.060 E75.76432
G1 X51.305 Y100.552 E76.15443
G1 X50.817 Y100.552 E76.17895
G1 X45.813 Y95.548 E76.53439
G1 X45.813 Y96.036 E76.55891
G1 X50.328 Y100.552 E76.87967
G1 X49.840 Y100.552 E76.90419
G1 X45.813 Y96.524 E77.19028
G1 X45.813 Y97.012 E77.21480
G1 X49.352 Y100.552 E77.46622
G1 X48.864 Y100.552 E77.49074
G1 X45.813 Y97.500 E77.70748
G1 X45.813 Y97.989 E77.73200
G1 X48.376 Y100.552 E77.91406
G1 X48.095 Y100.552 E77.92817
G1 X48.095 Y100.759 E77.93858
G1 X45.813 Y98.477 E78.10069
G1 X45.813 Y98.965 E78.12521
G1 X48.095 Y101.247 E78.28732
G1 X48.095 Y101.735 E78.31184
G1 X45.813 Y99.453 E78.47394
G1 X45.813 Y99.941 E78.49846
G1 X48.095 Y102.223 E78.66056
G1 X48.095 Y102.711 E78.68508
G1 X45.813 Y100.429 E78.84718
G1 X45.813 Y100.917 E78.87170
G1 X48.095 Y103.199 E79.03379
G1 X48.095 Y103.688 E79.05831
G1 X45.813 Y101.406 E79.22040
G1 X45.813 Y101.894 E79.24492
G1 X48.095 Y104.176 E79.40701
G1 X48.095 Y104.664 E79.43152
G1 X45.813 Y102.382 E79.59361
G1 X45.813 Y102.870 E79.61813
G1 X48.095 Y105.152 E79.78021
G1 X48.094 Y105.640 E79.80473
G1 X45.813 Y103.358 E79.96681
G1 X45.813 Y103.846 E79.99132
G1 X48.094 Y106.128 E80.15340
G1 X48.094 Y106.616 E80.17792
G1 X45.813 Y104.334 E80.33999
G1 X45.813 Y104.823 E80.36451
G1 X48.094 Y107.104 E80.52658
G1 X48.094 Y107.592 E80.55109
G1 X45.813 Y105.311 E80.71316
G1 X45.813 Y105.799 E80.73768
G1 X48.094 Y108.080 E80.89974
G1 X48.094 Y108.569 E80.92426
G1 X45.813 Y106.287 E81.08632
G1 X45.813 Y106.775 E81.11084
G1 X48.094 Y109.057 E81.27290
G1 X48.094 Y109.545 E81.29741
G1 X45.813 Y107.263 E81.45947
G1 X45.813 Y107.752 E81.48398
G1 X48.094 Y110.033 E81.64604
G1 X48.094 Y110.521 E81.67055
G1 X45.813 Y108.240 E81.83260
G1 X45.813 Y108.728 E81.85712
G1 X48.094 Y111.009 E82.01916
G1 X48.094 Y111.497 E82.04368
G1 X45.813 Y109.216 E82.20572
G1 X45.813 Y109.704 E82.23024
G1 X48.094 Y111.985 E82.39228
G1 X48.094 Y112.473 E82.41679
G1 X45.813 Y110.192 E82.57883
G1 X45.813 Y110.680 E82.60334
G1 X48.094 Y112.962 E82.76538
G1 X48.094 Y113.450 E82.78989
G1 X45.813 Y111.169 E82.95192
G1 X45.813 Y111.657 E82.97644
G1 X48.094 Y113.938 E83.13846
G1 X48.094 Y114.426 E83.16298
G1 X45.813 Y112.145 E83.32500
G1 X45.813 Y112.633 E83.34952
G1 X48.094 Y114.914 E83.51154
G1 X48.094 Y115.402 E83.53605
G1 X45.813 Y113.121 E83.69807
G1 X45.813 Y113.609 E83.72259
G1 X48.094 Y115.890 E83.88460
G1 X48.094 Y116.378 E83.90912
G1 X45.813 Y114.097 E84.07113
G1 X45.813 Y114.586 E84.09564
G1 X48.093 Y116.866 E84.25765
G1 X48.093 Y117.354 E84.28217
G1 X45.813 Y115.074 E84.44417
G1 X45.813 Y115.562 E84.46869
G1 X48.093 Y117.843 E84.63069
G1 X48.093 Y118.331 E84.65520
G1 X45.813 Y116.050 E84.81720
G1 X45.813 Y116.538 E84.84172
G1 X48.093 Y118.819 E85.00371
G1 X48.093 Y119.307 E85.02823
G1 X45.813 Y117.026 E85.19022
G1 X45.813 Y117.514 E85.21474
G1 X48.093 Y119.795 E85.37672
G1 X48.093 Y120.283 E85.40124
G1 X45.813 Y118.003 E85.56322
G1 X45.813 Y118.491 E85.58774
G1 X48.093 Y120.771 E85.74972
G1 X48.093 Y121.259 E85.77424
G1 X45.813 Y118.979 E85.93621
G1 X45.813 Y119.467 E85.96073
G1 X48.093 Y121.747 E86.12271
G1 X48.093 Y122.235 E86.14722
G1 X45.813 Y119.955 E86.30919
G1 X45.813 Y120.443 E86.33371
G1 X48.093 Y122.724 E86.49568
G1 X48.093 Y123.212 E86.52019
G1 X45.813 Y120.932 E86.68216
G1 X45.813 Y121.420 E86.70668
G1 X48.093 Y123.700 E86.86864
G1 X48.093 Y124.188 E86.89315
G1 X45.813 Y121.908 E87.05511
G1 X45.813 Y122.396 E87.07963
G1 X48.093 Y124.676 E87.24158
G1 X48.093 Y125.164 E87.26610
G1 X45.813 Y122.884 E87.42805
G1 X45.813 Y123.372 E87.45257
G1 X48.093 Y125.652 E87.61452
G1 X48.093 Y126.140 E87.63904
G1 X45.813 Y123.860 E87.80098
G1 X45.813 Y124.349 E87.82550
G1 X48.093 Y126.628 E87.98744
G1 X48.093 Y127.117 E88.01196
G1 X45.813 Y124.837 E88.17389
G1 X45.813 Y125.325 E88.19841
G1 X48.092 Y127.605 E88.36035
G1 X48.092 Y128.093 E88.38486
G1 X45.813 Y125.813 E88.54680
G1 X45.813 Y126.301 E88.57132
G1 X48.092 Y128.581 E88.73324
G1 X48.092 Y129.069 E88.75776
G1 X45.813 Y126.789 E88.91969
G1 X45.813 Y127.277 E88.94420
G1 X48.092 Y129.557 E89.10613
G1 X48.092 Y130.045 E89.13064
G1 X45.813 Y127.766 E89.29256
G1 X45.813 Y128.254 E89.31708
G1 X48.092 Y130.533 E89.47900
G1 X48.092 Y131.021 E89.50351
G1 X45.813 Y128.742 E89.66543
G1 X45.813 Y129.230 E89.68994
G1 X48.092 Y131.509 E89.85185
G1 X48.092 Y131.998 E89.87637
G1 X45.813 Y129.718 E90.03828
G1 X45.813 Y130.206 E90.06280
G1 X48.092 Y132.486 E90.22470
G1 X48.092 Y132.974 E90.24921
G1 X45.813 Y130.694 E90.41111
G1 X45.813 Y131.183 E90.43563
G1 X48.092 Y133.462 E90.59753
G1 X48.092 Y133.950 E90.62205
G1 X45.813 Y131.671 E90.78394
G1 X45.813 Y132.159 E90.80846
G1 X48.092 Y134.438 E90.97035
G1 X48.092 Y134.926 E90.99486
G1 X45.813 Y132.647 E91.15675
G1 X45.813 Y133.135 E91.18127
G1 X48.092 Y135.414 E91.34315
G1 X48.092 Y135.902 E91.36767
G1 X45.813 Y133.623 E91.52955
G1 X45.813 Y134.112 E91.55407
G1 X48.092 Y136.390 E91.71595
G1 X48.092 Y136.879 E91.74046
G1 X45.813 Y134.600 E91.90234
G1 X45.813 Y135.088 E91.92686
G1 X48.092 Y137.367 E92.08873
G1 X48.092 Y137.855 E92.11324
G1 X45.813 Y135.576 E92.27511
G1 X45.813 Y136.064 E92.29963
G1 X48.091 Y138.343 E92.46150
G1 X48.091 Y138.831 E92.48601
G1 X45.813 Y136.552 E92.64787
G1 X45.813 Y137.040 E92.67239
G1 X48.091 Y139.319 E92.83425
G1 X48.091 Y139.807 E92.85877
G1 X45.813 Y137.529 E93.02062
G1 X45.813 Y138.017 E93.04514
G1 X48.091 Y140.295 E93.20699
G1 X48.091 Y140.783 E93.23151
G1 X45.813 Y138.505 E93.39336
G1 X45.813 Y138.993 E93.41787
G1 X48.091 Y141.272 E93.57972
G1 X48.091 Y141.760 E93.60424
G1 X45.813 Y139.481 E93.76608
G1 X45.813 Y139.969 E93.79060
G1 X48.091 Y142.248 E93.95244
G1 X48.091 Y142.736 E93.97695
G1 X45.813 Y140.457 E94.13879
G1 X45.813 Y140.946 E94.16331
G1 X48.091 Y143.224 E94.32514
G1 X48.091 Y143.712 E94.34966
G1 X45.813 Y141.434 E94.51149
G1 X45.813 Y141.922 E94.53600
G1 X47.665 Y143.774 E94.66754
G1 X47.176 Y143.774 E94.69206
G1 X45.813 Y142.410 E94.78893
G1 X45.813 Y142.898 E94.81345
G1 X46.688 Y143.774 E94.87564
G1 X46.200 Y143.774 E94.90016
G1 X45.658 Y143.231 E94.93870
G1 E92.93870 F2400.00000
G92 E0
G1 X103.478 Y145.891 F7800.000
G1 E2.00000 F2400.00000
G1 F1800.000
G1 X106.108 Y148.521 E2.18684
